(G-CODE GENERATED BY FLATCAM v8.914 - www.flatcam.org - Version Date: 2019/04/23)

(Name: 3pin-PTH.drl_mill_cnc)
(Type: G-code from Geometry)
(Units: MM)

(Created on Thursday, 02 May 2019 at 17:01)

(TOOL DIAMETER: 0.1 mm)
(Feedrate: 100.0 mm/min)
(Feedrate_Z: 100.0 mm/min)
(Feedrate rapids 200.0 mm/min)

(Z_Cut: -2.0 mm)
(DepthPerCut: 0.2 mm <=>10 passes)
(Z_Move: 2.0 mm)
(Z Toolchange: 25.0 mm)
(X,Y Toolchange: 0.0000, 0.0000 mm)
(Z Start: None mm)
(Z End: 20.0 mm)
(Steps per circle: 64)
(Postprocessor Geometry: default)

(X range:    5.6100 ...    7.5600  mm)
(Y range:   10.3450 ...   17.0970  mm)

(Spindle Speed: 5000 RPM)

G21
G90
G94

G01 F100.00
G00 Z2.0000

M03 S5000
G00 X5.9100 Y10.4950
G01 F100.00
G01 Z-0.2000
G01 F100.00
G01 X5.9093 Y10.4803
G01 X5.9071 Y10.4657
G01 X5.9035 Y10.4515
G01 X5.8986 Y10.4376
G01 X5.8923 Y10.4243
G01 X5.8847 Y10.4117
G01 X5.8760 Y10.3998
G01 X5.8661 Y10.3889
G01 X5.8552 Y10.3790
G01 X5.8433 Y10.3703
G01 X5.8307 Y10.3627
G01 X5.8174 Y10.3564
G01 X5.8035 Y10.3515
G01 X5.7893 Y10.3479
G01 X5.7747 Y10.3457
G01 X5.7600 Y10.3450
G01 X5.7453 Y10.3457
G01 X5.7307 Y10.3479
G01 X5.7165 Y10.3515
G01 X5.7026 Y10.3564
G01 X5.6893 Y10.3627
G01 X5.6767 Y10.3703
G01 X5.6648 Y10.3790
G01 X5.6539 Y10.3889
G01 X5.6440 Y10.3998
G01 X5.6353 Y10.4117
G01 X5.6277 Y10.4243
G01 X5.6214 Y10.4376
G01 X5.6165 Y10.4515
G01 X5.6129 Y10.4657
G01 X5.6107 Y10.4803
G01 X5.6100 Y10.4950
G01 X5.6107 Y10.5097
G01 X5.6129 Y10.5243
G01 X5.6165 Y10.5385
G01 X5.6214 Y10.5524
G01 X5.6277 Y10.5657
G01 X5.6353 Y10.5783
G01 X5.6440 Y10.5902
G01 X5.6539 Y10.6011
G01 X5.6648 Y10.6110
G01 X5.6767 Y10.6197
G01 X5.6893 Y10.6273
G01 X5.7026 Y10.6336
G01 X5.7165 Y10.6385
G01 X5.7307 Y10.6421
G01 X5.7453 Y10.6443
G01 X5.7600 Y10.6450
G01 X5.7747 Y10.6443
G01 X5.7893 Y10.6421
G01 X5.8035 Y10.6385
G01 X5.8174 Y10.6336
G01 X5.8307 Y10.6273
G01 X5.8433 Y10.6197
G01 X5.8552 Y10.6110
G01 X5.8661 Y10.6011
G01 X5.8760 Y10.5902
G01 X5.8847 Y10.5783
G01 X5.8923 Y10.5657
G01 X5.8986 Y10.5524
G01 X5.9035 Y10.5385
G01 X5.9071 Y10.5243
G01 X5.9093 Y10.5097
G01 X5.9100 Y10.4950
G00 X5.9100 Y10.4950
G01 F100.00
G01 Z-0.4000
G01 F100.00
G01 X5.9093 Y10.4803
G01 X5.9071 Y10.4657
G01 X5.9035 Y10.4515
G01 X5.8986 Y10.4376
G01 X5.8923 Y10.4243
G01 X5.8847 Y10.4117
G01 X5.8760 Y10.3998
G01 X5.8661 Y10.3889
G01 X5.8552 Y10.3790
G01 X5.8433 Y10.3703
G01 X5.8307 Y10.3627
G01 X5.8174 Y10.3564
G01 X5.8035 Y10.3515
G01 X5.7893 Y10.3479
G01 X5.7747 Y10.3457
G01 X5.7600 Y10.3450
G01 X5.7453 Y10.3457
G01 X5.7307 Y10.3479
G01 X5.7165 Y10.3515
G01 X5.7026 Y10.3564
G01 X5.6893 Y10.3627
G01 X5.6767 Y10.3703
G01 X5.6648 Y10.3790
G01 X5.6539 Y10.3889
G01 X5.6440 Y10.3998
G01 X5.6353 Y10.4117
G01 X5.6277 Y10.4243
G01 X5.6214 Y10.4376
G01 X5.6165 Y10.4515
G01 X5.6129 Y10.4657
G01 X5.6107 Y10.4803
G01 X5.6100 Y10.4950
G01 X5.6107 Y10.5097
G01 X5.6129 Y10.5243
G01 X5.6165 Y10.5385
G01 X5.6214 Y10.5524
G01 X5.6277 Y10.5657
G01 X5.6353 Y10.5783
G01 X5.6440 Y10.5902
G01 X5.6539 Y10.6011
G01 X5.6648 Y10.6110
G01 X5.6767 Y10.6197
G01 X5.6893 Y10.6273
G01 X5.7026 Y10.6336
G01 X5.7165 Y10.6385
G01 X5.7307 Y10.6421
G01 X5.7453 Y10.6443
G01 X5.7600 Y10.6450
G01 X5.7747 Y10.6443
G01 X5.7893 Y10.6421
G01 X5.8035 Y10.6385
G01 X5.8174 Y10.6336
G01 X5.8307 Y10.6273
G01 X5.8433 Y10.6197
G01 X5.8552 Y10.6110
G01 X5.8661 Y10.6011
G01 X5.8760 Y10.5902
G01 X5.8847 Y10.5783
G01 X5.8923 Y10.5657
G01 X5.8986 Y10.5524
G01 X5.9035 Y10.5385
G01 X5.9071 Y10.5243
G01 X5.9093 Y10.5097
G01 X5.9100 Y10.4950
G00 X5.9100 Y10.4950
G01 F100.00
G01 Z-0.6000
G01 F100.00
G01 X5.9093 Y10.4803
G01 X5.9071 Y10.4657
G01 X5.9035 Y10.4515
G01 X5.8986 Y10.4376
G01 X5.8923 Y10.4243
G01 X5.8847 Y10.4117
G01 X5.8760 Y10.3998
G01 X5.8661 Y10.3889
G01 X5.8552 Y10.3790
G01 X5.8433 Y10.3703
G01 X5.8307 Y10.3627
G01 X5.8174 Y10.3564
G01 X5.8035 Y10.3515
G01 X5.7893 Y10.3479
G01 X5.7747 Y10.3457
G01 X5.7600 Y10.3450
G01 X5.7453 Y10.3457
G01 X5.7307 Y10.3479
G01 X5.7165 Y10.3515
G01 X5.7026 Y10.3564
G01 X5.6893 Y10.3627
G01 X5.6767 Y10.3703
G01 X5.6648 Y10.3790
G01 X5.6539 Y10.3889
G01 X5.6440 Y10.3998
G01 X5.6353 Y10.4117
G01 X5.6277 Y10.4243
G01 X5.6214 Y10.4376
G01 X5.6165 Y10.4515
G01 X5.6129 Y10.4657
G01 X5.6107 Y10.4803
G01 X5.6100 Y10.4950
G01 X5.6107 Y10.5097
G01 X5.6129 Y10.5243
G01 X5.6165 Y10.5385
G01 X5.6214 Y10.5524
G01 X5.6277 Y10.5657
G01 X5.6353 Y10.5783
G01 X5.6440 Y10.5902
G01 X5.6539 Y10.6011
G01 X5.6648 Y10.6110
G01 X5.6767 Y10.6197
G01 X5.6893 Y10.6273
G01 X5.7026 Y10.6336
G01 X5.7165 Y10.6385
G01 X5.7307 Y10.6421
G01 X5.7453 Y10.6443
G01 X5.7600 Y10.6450
G01 X5.7747 Y10.6443
G01 X5.7893 Y10.6421
G01 X5.8035 Y10.6385
G01 X5.8174 Y10.6336
G01 X5.8307 Y10.6273
G01 X5.8433 Y10.6197
G01 X5.8552 Y10.6110
G01 X5.8661 Y10.6011
G01 X5.8760 Y10.5902
G01 X5.8847 Y10.5783
G01 X5.8923 Y10.5657
G01 X5.8986 Y10.5524
G01 X5.9035 Y10.5385
G01 X5.9071 Y10.5243
G01 X5.9093 Y10.5097
G01 X5.9100 Y10.4950
G00 X5.9100 Y10.4950
G01 F100.00
G01 Z-0.8000
G01 F100.00
G01 X5.9093 Y10.4803
G01 X5.9071 Y10.4657
G01 X5.9035 Y10.4515
G01 X5.8986 Y10.4376
G01 X5.8923 Y10.4243
G01 X5.8847 Y10.4117
G01 X5.8760 Y10.3998
G01 X5.8661 Y10.3889
G01 X5.8552 Y10.3790
G01 X5.8433 Y10.3703
G01 X5.8307 Y10.3627
G01 X5.8174 Y10.3564
G01 X5.8035 Y10.3515
G01 X5.7893 Y10.3479
G01 X5.7747 Y10.3457
G01 X5.7600 Y10.3450
G01 X5.7453 Y10.3457
G01 X5.7307 Y10.3479
G01 X5.7165 Y10.3515
G01 X5.7026 Y10.3564
G01 X5.6893 Y10.3627
G01 X5.6767 Y10.3703
G01 X5.6648 Y10.3790
G01 X5.6539 Y10.3889
G01 X5.6440 Y10.3998
G01 X5.6353 Y10.4117
G01 X5.6277 Y10.4243
G01 X5.6214 Y10.4376
G01 X5.6165 Y10.4515
G01 X5.6129 Y10.4657
G01 X5.6107 Y10.4803
G01 X5.6100 Y10.4950
G01 X5.6107 Y10.5097
G01 X5.6129 Y10.5243
G01 X5.6165 Y10.5385
G01 X5.6214 Y10.5524
G01 X5.6277 Y10.5657
G01 X5.6353 Y10.5783
G01 X5.6440 Y10.5902
G01 X5.6539 Y10.6011
G01 X5.6648 Y10.6110
G01 X5.6767 Y10.6197
G01 X5.6893 Y10.6273
G01 X5.7026 Y10.6336
G01 X5.7165 Y10.6385
G01 X5.7307 Y10.6421
G01 X5.7453 Y10.6443
G01 X5.7600 Y10.6450
G01 X5.7747 Y10.6443
G01 X5.7893 Y10.6421
G01 X5.8035 Y10.6385
G01 X5.8174 Y10.6336
G01 X5.8307 Y10.6273
G01 X5.8433 Y10.6197
G01 X5.8552 Y10.6110
G01 X5.8661 Y10.6011
G01 X5.8760 Y10.5902
G01 X5.8847 Y10.5783
G01 X5.8923 Y10.5657
G01 X5.8986 Y10.5524
G01 X5.9035 Y10.5385
G01 X5.9071 Y10.5243
G01 X5.9093 Y10.5097
G01 X5.9100 Y10.4950
G00 X5.9100 Y10.4950
G01 F100.00
G01 Z-1.0000
G01 F100.00
G01 X5.9093 Y10.4803
G01 X5.9071 Y10.4657
G01 X5.9035 Y10.4515
G01 X5.8986 Y10.4376
G01 X5.8923 Y10.4243
G01 X5.8847 Y10.4117
G01 X5.8760 Y10.3998
G01 X5.8661 Y10.3889
G01 X5.8552 Y10.3790
G01 X5.8433 Y10.3703
G01 X5.8307 Y10.3627
G01 X5.8174 Y10.3564
G01 X5.8035 Y10.3515
G01 X5.7893 Y10.3479
G01 X5.7747 Y10.3457
G01 X5.7600 Y10.3450
G01 X5.7453 Y10.3457
G01 X5.7307 Y10.3479
G01 X5.7165 Y10.3515
G01 X5.7026 Y10.3564
G01 X5.6893 Y10.3627
G01 X5.6767 Y10.3703
G01 X5.6648 Y10.3790
G01 X5.6539 Y10.3889
G01 X5.6440 Y10.3998
G01 X5.6353 Y10.4117
G01 X5.6277 Y10.4243
G01 X5.6214 Y10.4376
G01 X5.6165 Y10.4515
G01 X5.6129 Y10.4657
G01 X5.6107 Y10.4803
G01 X5.6100 Y10.4950
G01 X5.6107 Y10.5097
G01 X5.6129 Y10.5243
G01 X5.6165 Y10.5385
G01 X5.6214 Y10.5524
G01 X5.6277 Y10.5657
G01 X5.6353 Y10.5783
G01 X5.6440 Y10.5902
G01 X5.6539 Y10.6011
G01 X5.6648 Y10.6110
G01 X5.6767 Y10.6197
G01 X5.6893 Y10.6273
G01 X5.7026 Y10.6336
G01 X5.7165 Y10.6385
G01 X5.7307 Y10.6421
G01 X5.7453 Y10.6443
G01 X5.7600 Y10.6450
G01 X5.7747 Y10.6443
G01 X5.7893 Y10.6421
G01 X5.8035 Y10.6385
G01 X5.8174 Y10.6336
G01 X5.8307 Y10.6273
G01 X5.8433 Y10.6197
G01 X5.8552 Y10.6110
G01 X5.8661 Y10.6011
G01 X5.8760 Y10.5902
G01 X5.8847 Y10.5783
G01 X5.8923 Y10.5657
G01 X5.8986 Y10.5524
G01 X5.9035 Y10.5385
G01 X5.9071 Y10.5243
G01 X5.9093 Y10.5097
G01 X5.9100 Y10.4950
G00 X5.9100 Y10.4950
G01 F100.00
G01 Z-1.2000
G01 F100.00
G01 X5.9093 Y10.4803
G01 X5.9071 Y10.4657
G01 X5.9035 Y10.4515
G01 X5.8986 Y10.4376
G01 X5.8923 Y10.4243
G01 X5.8847 Y10.4117
G01 X5.8760 Y10.3998
G01 X5.8661 Y10.3889
G01 X5.8552 Y10.3790
G01 X5.8433 Y10.3703
G01 X5.8307 Y10.3627
G01 X5.8174 Y10.3564
G01 X5.8035 Y10.3515
G01 X5.7893 Y10.3479
G01 X5.7747 Y10.3457
G01 X5.7600 Y10.3450
G01 X5.7453 Y10.3457
G01 X5.7307 Y10.3479
G01 X5.7165 Y10.3515
G01 X5.7026 Y10.3564
G01 X5.6893 Y10.3627
G01 X5.6767 Y10.3703
G01 X5.6648 Y10.3790
G01 X5.6539 Y10.3889
G01 X5.6440 Y10.3998
G01 X5.6353 Y10.4117
G01 X5.6277 Y10.4243
G01 X5.6214 Y10.4376
G01 X5.6165 Y10.4515
G01 X5.6129 Y10.4657
G01 X5.6107 Y10.4803
G01 X5.6100 Y10.4950
G01 X5.6107 Y10.5097
G01 X5.6129 Y10.5243
G01 X5.6165 Y10.5385
G01 X5.6214 Y10.5524
G01 X5.6277 Y10.5657
G01 X5.6353 Y10.5783
G01 X5.6440 Y10.5902
G01 X5.6539 Y10.6011
G01 X5.6648 Y10.6110
G01 X5.6767 Y10.6197
G01 X5.6893 Y10.6273
G01 X5.7026 Y10.6336
G01 X5.7165 Y10.6385
G01 X5.7307 Y10.6421
G01 X5.7453 Y10.6443
G01 X5.7600 Y10.6450
G01 X5.7747 Y10.6443
G01 X5.7893 Y10.6421
G01 X5.8035 Y10.6385
G01 X5.8174 Y10.6336
G01 X5.8307 Y10.6273
G01 X5.8433 Y10.6197
G01 X5.8552 Y10.6110
G01 X5.8661 Y10.6011
G01 X5.8760 Y10.5902
G01 X5.8847 Y10.5783
G01 X5.8923 Y10.5657
G01 X5.8986 Y10.5524
G01 X5.9035 Y10.5385
G01 X5.9071 Y10.5243
G01 X5.9093 Y10.5097
G01 X5.9100 Y10.4950
G00 X5.9100 Y10.4950
G01 F100.00
G01 Z-1.4000
G01 F100.00
G01 X5.9093 Y10.4803
G01 X5.9071 Y10.4657
G01 X5.9035 Y10.4515
G01 X5.8986 Y10.4376
G01 X5.8923 Y10.4243
G01 X5.8847 Y10.4117
G01 X5.8760 Y10.3998
G01 X5.8661 Y10.3889
G01 X5.8552 Y10.3790
G01 X5.8433 Y10.3703
G01 X5.8307 Y10.3627
G01 X5.8174 Y10.3564
G01 X5.8035 Y10.3515
G01 X5.7893 Y10.3479
G01 X5.7747 Y10.3457
G01 X5.7600 Y10.3450
G01 X5.7453 Y10.3457
G01 X5.7307 Y10.3479
G01 X5.7165 Y10.3515
G01 X5.7026 Y10.3564
G01 X5.6893 Y10.3627
G01 X5.6767 Y10.3703
G01 X5.6648 Y10.3790
G01 X5.6539 Y10.3889
G01 X5.6440 Y10.3998
G01 X5.6353 Y10.4117
G01 X5.6277 Y10.4243
G01 X5.6214 Y10.4376
G01 X5.6165 Y10.4515
G01 X5.6129 Y10.4657
G01 X5.6107 Y10.4803
G01 X5.6100 Y10.4950
G01 X5.6107 Y10.5097
G01 X5.6129 Y10.5243
G01 X5.6165 Y10.5385
G01 X5.6214 Y10.5524
G01 X5.6277 Y10.5657
G01 X5.6353 Y10.5783
G01 X5.6440 Y10.5902
G01 X5.6539 Y10.6011
G01 X5.6648 Y10.6110
G01 X5.6767 Y10.6197
G01 X5.6893 Y10.6273
G01 X5.7026 Y10.6336
G01 X5.7165 Y10.6385
G01 X5.7307 Y10.6421
G01 X5.7453 Y10.6443
G01 X5.7600 Y10.6450
G01 X5.7747 Y10.6443
G01 X5.7893 Y10.6421
G01 X5.8035 Y10.6385
G01 X5.8174 Y10.6336
G01 X5.8307 Y10.6273
G01 X5.8433 Y10.6197
G01 X5.8552 Y10.6110
G01 X5.8661 Y10.6011
G01 X5.8760 Y10.5902
G01 X5.8847 Y10.5783
G01 X5.8923 Y10.5657
G01 X5.8986 Y10.5524
G01 X5.9035 Y10.5385
G01 X5.9071 Y10.5243
G01 X5.9093 Y10.5097
G01 X5.9100 Y10.4950
G00 X5.9100 Y10.4950
G01 F100.00
G01 Z-1.6000
G01 F100.00
G01 X5.9093 Y10.4803
G01 X5.9071 Y10.4657
G01 X5.9035 Y10.4515
G01 X5.8986 Y10.4376
G01 X5.8923 Y10.4243
G01 X5.8847 Y10.4117
G01 X5.8760 Y10.3998
G01 X5.8661 Y10.3889
G01 X5.8552 Y10.3790
G01 X5.8433 Y10.3703
G01 X5.8307 Y10.3627
G01 X5.8174 Y10.3564
G01 X5.8035 Y10.3515
G01 X5.7893 Y10.3479
G01 X5.7747 Y10.3457
G01 X5.7600 Y10.3450
G01 X5.7453 Y10.3457
G01 X5.7307 Y10.3479
G01 X5.7165 Y10.3515
G01 X5.7026 Y10.3564
G01 X5.6893 Y10.3627
G01 X5.6767 Y10.3703
G01 X5.6648 Y10.3790
G01 X5.6539 Y10.3889
G01 X5.6440 Y10.3998
G01 X5.6353 Y10.4117
G01 X5.6277 Y10.4243
G01 X5.6214 Y10.4376
G01 X5.6165 Y10.4515
G01 X5.6129 Y10.4657
G01 X5.6107 Y10.4803
G01 X5.6100 Y10.4950
G01 X5.6107 Y10.5097
G01 X5.6129 Y10.5243
G01 X5.6165 Y10.5385
G01 X5.6214 Y10.5524
G01 X5.6277 Y10.5657
G01 X5.6353 Y10.5783
G01 X5.6440 Y10.5902
G01 X5.6539 Y10.6011
G01 X5.6648 Y10.6110
G01 X5.6767 Y10.6197
G01 X5.6893 Y10.6273
G01 X5.7026 Y10.6336
G01 X5.7165 Y10.6385
G01 X5.7307 Y10.6421
G01 X5.7453 Y10.6443
G01 X5.7600 Y10.6450
G01 X5.7747 Y10.6443
G01 X5.7893 Y10.6421
G01 X5.8035 Y10.6385
G01 X5.8174 Y10.6336
G01 X5.8307 Y10.6273
G01 X5.8433 Y10.6197
G01 X5.8552 Y10.6110
G01 X5.8661 Y10.6011
G01 X5.8760 Y10.5902
G01 X5.8847 Y10.5783
G01 X5.8923 Y10.5657
G01 X5.8986 Y10.5524
G01 X5.9035 Y10.5385
G01 X5.9071 Y10.5243
G01 X5.9093 Y10.5097
G01 X5.9100 Y10.4950
G00 X5.9100 Y10.4950
G01 F100.00
G01 Z-1.8000
G01 F100.00
G01 X5.9093 Y10.4803
G01 X5.9071 Y10.4657
G01 X5.9035 Y10.4515
G01 X5.8986 Y10.4376
G01 X5.8923 Y10.4243
G01 X5.8847 Y10.4117
G01 X5.8760 Y10.3998
G01 X5.8661 Y10.3889
G01 X5.8552 Y10.3790
G01 X5.8433 Y10.3703
G01 X5.8307 Y10.3627
G01 X5.8174 Y10.3564
G01 X5.8035 Y10.3515
G01 X5.7893 Y10.3479
G01 X5.7747 Y10.3457
G01 X5.7600 Y10.3450
G01 X5.7453 Y10.3457
G01 X5.7307 Y10.3479
G01 X5.7165 Y10.3515
G01 X5.7026 Y10.3564
G01 X5.6893 Y10.3627
G01 X5.6767 Y10.3703
G01 X5.6648 Y10.3790
G01 X5.6539 Y10.3889
G01 X5.6440 Y10.3998
G01 X5.6353 Y10.4117
G01 X5.6277 Y10.4243
G01 X5.6214 Y10.4376
G01 X5.6165 Y10.4515
G01 X5.6129 Y10.4657
G01 X5.6107 Y10.4803
G01 X5.6100 Y10.4950
G01 X5.6107 Y10.5097
G01 X5.6129 Y10.5243
G01 X5.6165 Y10.5385
G01 X5.6214 Y10.5524
G01 X5.6277 Y10.5657
G01 X5.6353 Y10.5783
G01 X5.6440 Y10.5902
G01 X5.6539 Y10.6011
G01 X5.6648 Y10.6110
G01 X5.6767 Y10.6197
G01 X5.6893 Y10.6273
G01 X5.7026 Y10.6336
G01 X5.7165 Y10.6385
G01 X5.7307 Y10.6421
G01 X5.7453 Y10.6443
G01 X5.7600 Y10.6450
G01 X5.7747 Y10.6443
G01 X5.7893 Y10.6421
G01 X5.8035 Y10.6385
G01 X5.8174 Y10.6336
G01 X5.8307 Y10.6273
G01 X5.8433 Y10.6197
G01 X5.8552 Y10.6110
G01 X5.8661 Y10.6011
G01 X5.8760 Y10.5902
G01 X5.8847 Y10.5783
G01 X5.8923 Y10.5657
G01 X5.8986 Y10.5524
G01 X5.9035 Y10.5385
G01 X5.9071 Y10.5243
G01 X5.9093 Y10.5097
G01 X5.9100 Y10.4950
G00 X5.9100 Y10.4950
G01 F100.00
G01 Z-2.0000
G01 F100.00
G01 X5.9093 Y10.4803
G01 X5.9071 Y10.4657
G01 X5.9035 Y10.4515
G01 X5.8986 Y10.4376
G01 X5.8923 Y10.4243
G01 X5.8847 Y10.4117
G01 X5.8760 Y10.3998
G01 X5.8661 Y10.3889
G01 X5.8552 Y10.3790
G01 X5.8433 Y10.3703
G01 X5.8307 Y10.3627
G01 X5.8174 Y10.3564
G01 X5.8035 Y10.3515
G01 X5.7893 Y10.3479
G01 X5.7747 Y10.3457
G01 X5.7600 Y10.3450
G01 X5.7453 Y10.3457
G01 X5.7307 Y10.3479
G01 X5.7165 Y10.3515
G01 X5.7026 Y10.3564
G01 X5.6893 Y10.3627
G01 X5.6767 Y10.3703
G01 X5.6648 Y10.3790
G01 X5.6539 Y10.3889
G01 X5.6440 Y10.3998
G01 X5.6353 Y10.4117
G01 X5.6277 Y10.4243
G01 X5.6214 Y10.4376
G01 X5.6165 Y10.4515
G01 X5.6129 Y10.4657
G01 X5.6107 Y10.4803
G01 X5.6100 Y10.4950
G01 X5.6107 Y10.5097
G01 X5.6129 Y10.5243
G01 X5.6165 Y10.5385
G01 X5.6214 Y10.5524
G01 X5.6277 Y10.5657
G01 X5.6353 Y10.5783
G01 X5.6440 Y10.5902
G01 X5.6539 Y10.6011
G01 X5.6648 Y10.6110
G01 X5.6767 Y10.6197
G01 X5.6893 Y10.6273
G01 X5.7026 Y10.6336
G01 X5.7165 Y10.6385
G01 X5.7307 Y10.6421
G01 X5.7453 Y10.6443
G01 X5.7600 Y10.6450
G01 X5.7747 Y10.6443
G01 X5.7893 Y10.6421
G01 X5.8035 Y10.6385
G01 X5.8174 Y10.6336
G01 X5.8307 Y10.6273
G01 X5.8433 Y10.6197
G01 X5.8552 Y10.6110
G01 X5.8661 Y10.6011
G01 X5.8760 Y10.5902
G01 X5.8847 Y10.5783
G01 X5.8923 Y10.5657
G01 X5.8986 Y10.5524
G01 X5.9035 Y10.5385
G01 X5.9071 Y10.5243
G01 X5.9093 Y10.5097
G01 X5.9100 Y10.4950
G00 Z2.0000
G00 X7.5600 Y11.4470
G01 F100.00
G01 Z-0.2000
G01 F100.00
G01 X7.5593 Y11.4323
G01 X7.5571 Y11.4177
G01 X7.5535 Y11.4035
G01 X7.5486 Y11.3896
G01 X7.5423 Y11.3763
G01 X7.5347 Y11.3637
G01 X7.5260 Y11.3518
G01 X7.5161 Y11.3409
G01 X7.5052 Y11.3310
G01 X7.4933 Y11.3223
G01 X7.4807 Y11.3147
G01 X7.4674 Y11.3084
G01 X7.4535 Y11.3035
G01 X7.4393 Y11.2999
G01 X7.4247 Y11.2977
G01 X7.4100 Y11.2970
G01 X7.3953 Y11.2977
G01 X7.3807 Y11.2999
G01 X7.3665 Y11.3035
G01 X7.3526 Y11.3084
G01 X7.3393 Y11.3147
G01 X7.3267 Y11.3223
G01 X7.3148 Y11.3310
G01 X7.3039 Y11.3409
G01 X7.2940 Y11.3518
G01 X7.2853 Y11.3637
G01 X7.2777 Y11.3763
G01 X7.2714 Y11.3896
G01 X7.2665 Y11.4035
G01 X7.2629 Y11.4177
G01 X7.2607 Y11.4323
G01 X7.2600 Y11.4470
G01 X7.2607 Y11.4617
G01 X7.2629 Y11.4763
G01 X7.2665 Y11.4905
G01 X7.2714 Y11.5044
G01 X7.2777 Y11.5177
G01 X7.2853 Y11.5303
G01 X7.2940 Y11.5422
G01 X7.3039 Y11.5531
G01 X7.3148 Y11.5630
G01 X7.3267 Y11.5717
G01 X7.3393 Y11.5793
G01 X7.3526 Y11.5856
G01 X7.3665 Y11.5905
G01 X7.3807 Y11.5941
G01 X7.3953 Y11.5963
G01 X7.4100 Y11.5970
G01 X7.4247 Y11.5963
G01 X7.4393 Y11.5941
G01 X7.4535 Y11.5905
G01 X7.4674 Y11.5856
G01 X7.4807 Y11.5793
G01 X7.4933 Y11.5717
G01 X7.5052 Y11.5630
G01 X7.5161 Y11.5531
G01 X7.5260 Y11.5422
G01 X7.5347 Y11.5303
G01 X7.5423 Y11.5177
G01 X7.5486 Y11.5044
G01 X7.5535 Y11.4905
G01 X7.5571 Y11.4763
G01 X7.5593 Y11.4617
G01 X7.5600 Y11.4470
G00 X7.5600 Y11.4470
G01 F100.00
G01 Z-0.4000
G01 F100.00
G01 X7.5593 Y11.4323
G01 X7.5571 Y11.4177
G01 X7.5535 Y11.4035
G01 X7.5486 Y11.3896
G01 X7.5423 Y11.3763
G01 X7.5347 Y11.3637
G01 X7.5260 Y11.3518
G01 X7.5161 Y11.3409
G01 X7.5052 Y11.3310
G01 X7.4933 Y11.3223
G01 X7.4807 Y11.3147
G01 X7.4674 Y11.3084
G01 X7.4535 Y11.3035
G01 X7.4393 Y11.2999
G01 X7.4247 Y11.2977
G01 X7.4100 Y11.2970
G01 X7.3953 Y11.2977
G01 X7.3807 Y11.2999
G01 X7.3665 Y11.3035
G01 X7.3526 Y11.3084
G01 X7.3393 Y11.3147
G01 X7.3267 Y11.3223
G01 X7.3148 Y11.3310
G01 X7.3039 Y11.3409
G01 X7.2940 Y11.3518
G01 X7.2853 Y11.3637
G01 X7.2777 Y11.3763
G01 X7.2714 Y11.3896
G01 X7.2665 Y11.4035
G01 X7.2629 Y11.4177
G01 X7.2607 Y11.4323
G01 X7.2600 Y11.4470
G01 X7.2607 Y11.4617
G01 X7.2629 Y11.4763
G01 X7.2665 Y11.4905
G01 X7.2714 Y11.5044
G01 X7.2777 Y11.5177
G01 X7.2853 Y11.5303
G01 X7.2940 Y11.5422
G01 X7.3039 Y11.5531
G01 X7.3148 Y11.5630
G01 X7.3267 Y11.5717
G01 X7.3393 Y11.5793
G01 X7.3526 Y11.5856
G01 X7.3665 Y11.5905
G01 X7.3807 Y11.5941
G01 X7.3953 Y11.5963
G01 X7.4100 Y11.5970
G01 X7.4247 Y11.5963
G01 X7.4393 Y11.5941
G01 X7.4535 Y11.5905
G01 X7.4674 Y11.5856
G01 X7.4807 Y11.5793
G01 X7.4933 Y11.5717
G01 X7.5052 Y11.5630
G01 X7.5161 Y11.5531
G01 X7.5260 Y11.5422
G01 X7.5347 Y11.5303
G01 X7.5423 Y11.5177
G01 X7.5486 Y11.5044
G01 X7.5535 Y11.4905
G01 X7.5571 Y11.4763
G01 X7.5593 Y11.4617
G01 X7.5600 Y11.4470
G00 X7.5600 Y11.4470
G01 F100.00
G01 Z-0.6000
G01 F100.00
G01 X7.5593 Y11.4323
G01 X7.5571 Y11.4177
G01 X7.5535 Y11.4035
G01 X7.5486 Y11.3896
G01 X7.5423 Y11.3763
G01 X7.5347 Y11.3637
G01 X7.5260 Y11.3518
G01 X7.5161 Y11.3409
G01 X7.5052 Y11.3310
G01 X7.4933 Y11.3223
G01 X7.4807 Y11.3147
G01 X7.4674 Y11.3084
G01 X7.4535 Y11.3035
G01 X7.4393 Y11.2999
G01 X7.4247 Y11.2977
G01 X7.4100 Y11.2970
G01 X7.3953 Y11.2977
G01 X7.3807 Y11.2999
G01 X7.3665 Y11.3035
G01 X7.3526 Y11.3084
G01 X7.3393 Y11.3147
G01 X7.3267 Y11.3223
G01 X7.3148 Y11.3310
G01 X7.3039 Y11.3409
G01 X7.2940 Y11.3518
G01 X7.2853 Y11.3637
G01 X7.2777 Y11.3763
G01 X7.2714 Y11.3896
G01 X7.2665 Y11.4035
G01 X7.2629 Y11.4177
G01 X7.2607 Y11.4323
G01 X7.2600 Y11.4470
G01 X7.2607 Y11.4617
G01 X7.2629 Y11.4763
G01 X7.2665 Y11.4905
G01 X7.2714 Y11.5044
G01 X7.2777 Y11.5177
G01 X7.2853 Y11.5303
G01 X7.2940 Y11.5422
G01 X7.3039 Y11.5531
G01 X7.3148 Y11.5630
G01 X7.3267 Y11.5717
G01 X7.3393 Y11.5793
G01 X7.3526 Y11.5856
G01 X7.3665 Y11.5905
G01 X7.3807 Y11.5941
G01 X7.3953 Y11.5963
G01 X7.4100 Y11.5970
G01 X7.4247 Y11.5963
G01 X7.4393 Y11.5941
G01 X7.4535 Y11.5905
G01 X7.4674 Y11.5856
G01 X7.4807 Y11.5793
G01 X7.4933 Y11.5717
G01 X7.5052 Y11.5630
G01 X7.5161 Y11.5531
G01 X7.5260 Y11.5422
G01 X7.5347 Y11.5303
G01 X7.5423 Y11.5177
G01 X7.5486 Y11.5044
G01 X7.5535 Y11.4905
G01 X7.5571 Y11.4763
G01 X7.5593 Y11.4617
G01 X7.5600 Y11.4470
G00 X7.5600 Y11.4470
G01 F100.00
G01 Z-0.8000
G01 F100.00
G01 X7.5593 Y11.4323
G01 X7.5571 Y11.4177
G01 X7.5535 Y11.4035
G01 X7.5486 Y11.3896
G01 X7.5423 Y11.3763
G01 X7.5347 Y11.3637
G01 X7.5260 Y11.3518
G01 X7.5161 Y11.3409
G01 X7.5052 Y11.3310
G01 X7.4933 Y11.3223
G01 X7.4807 Y11.3147
G01 X7.4674 Y11.3084
G01 X7.4535 Y11.3035
G01 X7.4393 Y11.2999
G01 X7.4247 Y11.2977
G01 X7.4100 Y11.2970
G01 X7.3953 Y11.2977
G01 X7.3807 Y11.2999
G01 X7.3665 Y11.3035
G01 X7.3526 Y11.3084
G01 X7.3393 Y11.3147
G01 X7.3267 Y11.3223
G01 X7.3148 Y11.3310
G01 X7.3039 Y11.3409
G01 X7.2940 Y11.3518
G01 X7.2853 Y11.3637
G01 X7.2777 Y11.3763
G01 X7.2714 Y11.3896
G01 X7.2665 Y11.4035
G01 X7.2629 Y11.4177
G01 X7.2607 Y11.4323
G01 X7.2600 Y11.4470
G01 X7.2607 Y11.4617
G01 X7.2629 Y11.4763
G01 X7.2665 Y11.4905
G01 X7.2714 Y11.5044
G01 X7.2777 Y11.5177
G01 X7.2853 Y11.5303
G01 X7.2940 Y11.5422
G01 X7.3039 Y11.5531
G01 X7.3148 Y11.5630
G01 X7.3267 Y11.5717
G01 X7.3393 Y11.5793
G01 X7.3526 Y11.5856
G01 X7.3665 Y11.5905
G01 X7.3807 Y11.5941
G01 X7.3953 Y11.5963
G01 X7.4100 Y11.5970
G01 X7.4247 Y11.5963
G01 X7.4393 Y11.5941
G01 X7.4535 Y11.5905
G01 X7.4674 Y11.5856
G01 X7.4807 Y11.5793
G01 X7.4933 Y11.5717
G01 X7.5052 Y11.5630
G01 X7.5161 Y11.5531
G01 X7.5260 Y11.5422
G01 X7.5347 Y11.5303
G01 X7.5423 Y11.5177
G01 X7.5486 Y11.5044
G01 X7.5535 Y11.4905
G01 X7.5571 Y11.4763
G01 X7.5593 Y11.4617
G01 X7.5600 Y11.4470
G00 X7.5600 Y11.4470
G01 F100.00
G01 Z-1.0000
G01 F100.00
G01 X7.5593 Y11.4323
G01 X7.5571 Y11.4177
G01 X7.5535 Y11.4035
G01 X7.5486 Y11.3896
G01 X7.5423 Y11.3763
G01 X7.5347 Y11.3637
G01 X7.5260 Y11.3518
G01 X7.5161 Y11.3409
G01 X7.5052 Y11.3310
G01 X7.4933 Y11.3223
G01 X7.4807 Y11.3147
G01 X7.4674 Y11.3084
G01 X7.4535 Y11.3035
G01 X7.4393 Y11.2999
G01 X7.4247 Y11.2977
G01 X7.4100 Y11.2970
G01 X7.3953 Y11.2977
G01 X7.3807 Y11.2999
G01 X7.3665 Y11.3035
G01 X7.3526 Y11.3084
G01 X7.3393 Y11.3147
G01 X7.3267 Y11.3223
G01 X7.3148 Y11.3310
G01 X7.3039 Y11.3409
G01 X7.2940 Y11.3518
G01 X7.2853 Y11.3637
G01 X7.2777 Y11.3763
G01 X7.2714 Y11.3896
G01 X7.2665 Y11.4035
G01 X7.2629 Y11.4177
G01 X7.2607 Y11.4323
G01 X7.2600 Y11.4470
G01 X7.2607 Y11.4617
G01 X7.2629 Y11.4763
G01 X7.2665 Y11.4905
G01 X7.2714 Y11.5044
G01 X7.2777 Y11.5177
G01 X7.2853 Y11.5303
G01 X7.2940 Y11.5422
G01 X7.3039 Y11.5531
G01 X7.3148 Y11.5630
G01 X7.3267 Y11.5717
G01 X7.3393 Y11.5793
G01 X7.3526 Y11.5856
G01 X7.3665 Y11.5905
G01 X7.3807 Y11.5941
G01 X7.3953 Y11.5963
G01 X7.4100 Y11.5970
G01 X7.4247 Y11.5963
G01 X7.4393 Y11.5941
G01 X7.4535 Y11.5905
G01 X7.4674 Y11.5856
G01 X7.4807 Y11.5793
G01 X7.4933 Y11.5717
G01 X7.5052 Y11.5630
G01 X7.5161 Y11.5531
G01 X7.5260 Y11.5422
G01 X7.5347 Y11.5303
G01 X7.5423 Y11.5177
G01 X7.5486 Y11.5044
G01 X7.5535 Y11.4905
G01 X7.5571 Y11.4763
G01 X7.5593 Y11.4617
G01 X7.5600 Y11.4470
G00 X7.5600 Y11.4470
G01 F100.00
G01 Z-1.2000
G01 F100.00
G01 X7.5593 Y11.4323
G01 X7.5571 Y11.4177
G01 X7.5535 Y11.4035
G01 X7.5486 Y11.3896
G01 X7.5423 Y11.3763
G01 X7.5347 Y11.3637
G01 X7.5260 Y11.3518
G01 X7.5161 Y11.3409
G01 X7.5052 Y11.3310
G01 X7.4933 Y11.3223
G01 X7.4807 Y11.3147
G01 X7.4674 Y11.3084
G01 X7.4535 Y11.3035
G01 X7.4393 Y11.2999
G01 X7.4247 Y11.2977
G01 X7.4100 Y11.2970
G01 X7.3953 Y11.2977
G01 X7.3807 Y11.2999
G01 X7.3665 Y11.3035
G01 X7.3526 Y11.3084
G01 X7.3393 Y11.3147
G01 X7.3267 Y11.3223
G01 X7.3148 Y11.3310
G01 X7.3039 Y11.3409
G01 X7.2940 Y11.3518
G01 X7.2853 Y11.3637
G01 X7.2777 Y11.3763
G01 X7.2714 Y11.3896
G01 X7.2665 Y11.4035
G01 X7.2629 Y11.4177
G01 X7.2607 Y11.4323
G01 X7.2600 Y11.4470
G01 X7.2607 Y11.4617
G01 X7.2629 Y11.4763
G01 X7.2665 Y11.4905
G01 X7.2714 Y11.5044
G01 X7.2777 Y11.5177
G01 X7.2853 Y11.5303
G01 X7.2940 Y11.5422
G01 X7.3039 Y11.5531
G01 X7.3148 Y11.5630
G01 X7.3267 Y11.5717
G01 X7.3393 Y11.5793
G01 X7.3526 Y11.5856
G01 X7.3665 Y11.5905
G01 X7.3807 Y11.5941
G01 X7.3953 Y11.5963
G01 X7.4100 Y11.5970
G01 X7.4247 Y11.5963
G01 X7.4393 Y11.5941
G01 X7.4535 Y11.5905
G01 X7.4674 Y11.5856
G01 X7.4807 Y11.5793
G01 X7.4933 Y11.5717
G01 X7.5052 Y11.5630
G01 X7.5161 Y11.5531
G01 X7.5260 Y11.5422
G01 X7.5347 Y11.5303
G01 X7.5423 Y11.5177
G01 X7.5486 Y11.5044
G01 X7.5535 Y11.4905
G01 X7.5571 Y11.4763
G01 X7.5593 Y11.4617
G01 X7.5600 Y11.4470
G00 X7.5600 Y11.4470
G01 F100.00
G01 Z-1.4000
G01 F100.00
G01 X7.5593 Y11.4323
G01 X7.5571 Y11.4177
G01 X7.5535 Y11.4035
G01 X7.5486 Y11.3896
G01 X7.5423 Y11.3763
G01 X7.5347 Y11.3637
G01 X7.5260 Y11.3518
G01 X7.5161 Y11.3409
G01 X7.5052 Y11.3310
G01 X7.4933 Y11.3223
G01 X7.4807 Y11.3147
G01 X7.4674 Y11.3084
G01 X7.4535 Y11.3035
G01 X7.4393 Y11.2999
G01 X7.4247 Y11.2977
G01 X7.4100 Y11.2970
G01 X7.3953 Y11.2977
G01 X7.3807 Y11.2999
G01 X7.3665 Y11.3035
G01 X7.3526 Y11.3084
G01 X7.3393 Y11.3147
G01 X7.3267 Y11.3223
G01 X7.3148 Y11.3310
G01 X7.3039 Y11.3409
G01 X7.2940 Y11.3518
G01 X7.2853 Y11.3637
G01 X7.2777 Y11.3763
G01 X7.2714 Y11.3896
G01 X7.2665 Y11.4035
G01 X7.2629 Y11.4177
G01 X7.2607 Y11.4323
G01 X7.2600 Y11.4470
G01 X7.2607 Y11.4617
G01 X7.2629 Y11.4763
G01 X7.2665 Y11.4905
G01 X7.2714 Y11.5044
G01 X7.2777 Y11.5177
G01 X7.2853 Y11.5303
G01 X7.2940 Y11.5422
G01 X7.3039 Y11.5531
G01 X7.3148 Y11.5630
G01 X7.3267 Y11.5717
G01 X7.3393 Y11.5793
G01 X7.3526 Y11.5856
G01 X7.3665 Y11.5905
G01 X7.3807 Y11.5941
G01 X7.3953 Y11.5963
G01 X7.4100 Y11.5970
G01 X7.4247 Y11.5963
G01 X7.4393 Y11.5941
G01 X7.4535 Y11.5905
G01 X7.4674 Y11.5856
G01 X7.4807 Y11.5793
G01 X7.4933 Y11.5717
G01 X7.5052 Y11.5630
G01 X7.5161 Y11.5531
G01 X7.5260 Y11.5422
G01 X7.5347 Y11.5303
G01 X7.5423 Y11.5177
G01 X7.5486 Y11.5044
G01 X7.5535 Y11.4905
G01 X7.5571 Y11.4763
G01 X7.5593 Y11.4617
G01 X7.5600 Y11.4470
G00 X7.5600 Y11.4470
G01 F100.00
G01 Z-1.6000
G01 F100.00
G01 X7.5593 Y11.4323
G01 X7.5571 Y11.4177
G01 X7.5535 Y11.4035
G01 X7.5486 Y11.3896
G01 X7.5423 Y11.3763
G01 X7.5347 Y11.3637
G01 X7.5260 Y11.3518
G01 X7.5161 Y11.3409
G01 X7.5052 Y11.3310
G01 X7.4933 Y11.3223
G01 X7.4807 Y11.3147
G01 X7.4674 Y11.3084
G01 X7.4535 Y11.3035
G01 X7.4393 Y11.2999
G01 X7.4247 Y11.2977
G01 X7.4100 Y11.2970
G01 X7.3953 Y11.2977
G01 X7.3807 Y11.2999
G01 X7.3665 Y11.3035
G01 X7.3526 Y11.3084
G01 X7.3393 Y11.3147
G01 X7.3267 Y11.3223
G01 X7.3148 Y11.3310
G01 X7.3039 Y11.3409
G01 X7.2940 Y11.3518
G01 X7.2853 Y11.3637
G01 X7.2777 Y11.3763
G01 X7.2714 Y11.3896
G01 X7.2665 Y11.4035
G01 X7.2629 Y11.4177
G01 X7.2607 Y11.4323
G01 X7.2600 Y11.4470
G01 X7.2607 Y11.4617
G01 X7.2629 Y11.4763
G01 X7.2665 Y11.4905
G01 X7.2714 Y11.5044
G01 X7.2777 Y11.5177
G01 X7.2853 Y11.5303
G01 X7.2940 Y11.5422
G01 X7.3039 Y11.5531
G01 X7.3148 Y11.5630
G01 X7.3267 Y11.5717
G01 X7.3393 Y11.5793
G01 X7.3526 Y11.5856
G01 X7.3665 Y11.5905
G01 X7.3807 Y11.5941
G01 X7.3953 Y11.5963
G01 X7.4100 Y11.5970
G01 X7.4247 Y11.5963
G01 X7.4393 Y11.5941
G01 X7.4535 Y11.5905
G01 X7.4674 Y11.5856
G01 X7.4807 Y11.5793
G01 X7.4933 Y11.5717
G01 X7.5052 Y11.5630
G01 X7.5161 Y11.5531
G01 X7.5260 Y11.5422
G01 X7.5347 Y11.5303
G01 X7.5423 Y11.5177
G01 X7.5486 Y11.5044
G01 X7.5535 Y11.4905
G01 X7.5571 Y11.4763
G01 X7.5593 Y11.4617
G01 X7.5600 Y11.4470
G00 X7.5600 Y11.4470
G01 F100.00
G01 Z-1.8000
G01 F100.00
G01 X7.5593 Y11.4323
G01 X7.5571 Y11.4177
G01 X7.5535 Y11.4035
G01 X7.5486 Y11.3896
G01 X7.5423 Y11.3763
G01 X7.5347 Y11.3637
G01 X7.5260 Y11.3518
G01 X7.5161 Y11.3409
G01 X7.5052 Y11.3310
G01 X7.4933 Y11.3223
G01 X7.4807 Y11.3147
G01 X7.4674 Y11.3084
G01 X7.4535 Y11.3035
G01 X7.4393 Y11.2999
G01 X7.4247 Y11.2977
G01 X7.4100 Y11.2970
G01 X7.3953 Y11.2977
G01 X7.3807 Y11.2999
G01 X7.3665 Y11.3035
G01 X7.3526 Y11.3084
G01 X7.3393 Y11.3147
G01 X7.3267 Y11.3223
G01 X7.3148 Y11.3310
G01 X7.3039 Y11.3409
G01 X7.2940 Y11.3518
G01 X7.2853 Y11.3637
G01 X7.2777 Y11.3763
G01 X7.2714 Y11.3896
G01 X7.2665 Y11.4035
G01 X7.2629 Y11.4177
G01 X7.2607 Y11.4323
G01 X7.2600 Y11.4470
G01 X7.2607 Y11.4617
G01 X7.2629 Y11.4763
G01 X7.2665 Y11.4905
G01 X7.2714 Y11.5044
G01 X7.2777 Y11.5177
G01 X7.2853 Y11.5303
G01 X7.2940 Y11.5422
G01 X7.3039 Y11.5531
G01 X7.3148 Y11.5630
G01 X7.3267 Y11.5717
G01 X7.3393 Y11.5793
G01 X7.3526 Y11.5856
G01 X7.3665 Y11.5905
G01 X7.3807 Y11.5941
G01 X7.3953 Y11.5963
G01 X7.4100 Y11.5970
G01 X7.4247 Y11.5963
G01 X7.4393 Y11.5941
G01 X7.4535 Y11.5905
G01 X7.4674 Y11.5856
G01 X7.4807 Y11.5793
G01 X7.4933 Y11.5717
G01 X7.5052 Y11.5630
G01 X7.5161 Y11.5531
G01 X7.5260 Y11.5422
G01 X7.5347 Y11.5303
G01 X7.5423 Y11.5177
G01 X7.5486 Y11.5044
G01 X7.5535 Y11.4905
G01 X7.5571 Y11.4763
G01 X7.5593 Y11.4617
G01 X7.5600 Y11.4470
G00 X7.5600 Y11.4470
G01 F100.00
G01 Z-2.0000
G01 F100.00
G01 X7.5593 Y11.4323
G01 X7.5571 Y11.4177
G01 X7.5535 Y11.4035
G01 X7.5486 Y11.3896
G01 X7.5423 Y11.3763
G01 X7.5347 Y11.3637
G01 X7.5260 Y11.3518
G01 X7.5161 Y11.3409
G01 X7.5052 Y11.3310
G01 X7.4933 Y11.3223
G01 X7.4807 Y11.3147
G01 X7.4674 Y11.3084
G01 X7.4535 Y11.3035
G01 X7.4393 Y11.2999
G01 X7.4247 Y11.2977
G01 X7.4100 Y11.2970
G01 X7.3953 Y11.2977
G01 X7.3807 Y11.2999
G01 X7.3665 Y11.3035
G01 X7.3526 Y11.3084
G01 X7.3393 Y11.3147
G01 X7.3267 Y11.3223
G01 X7.3148 Y11.3310
G01 X7.3039 Y11.3409
G01 X7.2940 Y11.3518
G01 X7.2853 Y11.3637
G01 X7.2777 Y11.3763
G01 X7.2714 Y11.3896
G01 X7.2665 Y11.4035
G01 X7.2629 Y11.4177
G01 X7.2607 Y11.4323
G01 X7.2600 Y11.4470
G01 X7.2607 Y11.4617
G01 X7.2629 Y11.4763
G01 X7.2665 Y11.4905
G01 X7.2714 Y11.5044
G01 X7.2777 Y11.5177
G01 X7.2853 Y11.5303
G01 X7.2940 Y11.5422
G01 X7.3039 Y11.5531
G01 X7.3148 Y11.5630
G01 X7.3267 Y11.5717
G01 X7.3393 Y11.5793
G01 X7.3526 Y11.5856
G01 X7.3665 Y11.5905
G01 X7.3807 Y11.5941
G01 X7.3953 Y11.5963
G01 X7.4100 Y11.5970
G01 X7.4247 Y11.5963
G01 X7.4393 Y11.5941
G01 X7.4535 Y11.5905
G01 X7.4674 Y11.5856
G01 X7.4807 Y11.5793
G01 X7.4933 Y11.5717
G01 X7.5052 Y11.5630
G01 X7.5161 Y11.5531
G01 X7.5260 Y11.5422
G01 X7.5347 Y11.5303
G01 X7.5423 Y11.5177
G01 X7.5486 Y11.5044
G01 X7.5535 Y11.4905
G01 X7.5571 Y11.4763
G01 X7.5593 Y11.4617
G01 X7.5600 Y11.4470
G00 Z2.0000
G00 X5.9100 Y12.4000
G01 F100.00
G01 Z-0.2000
G01 F100.00
G01 X5.9093 Y12.3853
G01 X5.9071 Y12.3707
G01 X5.9035 Y12.3565
G01 X5.8986 Y12.3426
G01 X5.8923 Y12.3293
G01 X5.8847 Y12.3167
G01 X5.8760 Y12.3048
G01 X5.8661 Y12.2939
G01 X5.8552 Y12.2840
G01 X5.8433 Y12.2753
G01 X5.8307 Y12.2677
G01 X5.8174 Y12.2614
G01 X5.8035 Y12.2565
G01 X5.7893 Y12.2529
G01 X5.7747 Y12.2507
G01 X5.7600 Y12.2500
G01 X5.7453 Y12.2507
G01 X5.7307 Y12.2529
G01 X5.7165 Y12.2565
G01 X5.7026 Y12.2614
G01 X5.6893 Y12.2677
G01 X5.6767 Y12.2753
G01 X5.6648 Y12.2840
G01 X5.6539 Y12.2939
G01 X5.6440 Y12.3048
G01 X5.6353 Y12.3167
G01 X5.6277 Y12.3293
G01 X5.6214 Y12.3426
G01 X5.6165 Y12.3565
G01 X5.6129 Y12.3707
G01 X5.6107 Y12.3853
G01 X5.6100 Y12.4000
G01 X5.6107 Y12.4147
G01 X5.6129 Y12.4293
G01 X5.6165 Y12.4435
G01 X5.6214 Y12.4574
G01 X5.6277 Y12.4707
G01 X5.6353 Y12.4833
G01 X5.6440 Y12.4952
G01 X5.6539 Y12.5061
G01 X5.6648 Y12.5160
G01 X5.6767 Y12.5247
G01 X5.6893 Y12.5323
G01 X5.7026 Y12.5386
G01 X5.7165 Y12.5435
G01 X5.7307 Y12.5471
G01 X5.7453 Y12.5493
G01 X5.7600 Y12.5500
G01 X5.7747 Y12.5493
G01 X5.7893 Y12.5471
G01 X5.8035 Y12.5435
G01 X5.8174 Y12.5386
G01 X5.8307 Y12.5323
G01 X5.8433 Y12.5247
G01 X5.8552 Y12.5160
G01 X5.8661 Y12.5061
G01 X5.8760 Y12.4952
G01 X5.8847 Y12.4833
G01 X5.8923 Y12.4707
G01 X5.8986 Y12.4574
G01 X5.9035 Y12.4435
G01 X5.9071 Y12.4293
G01 X5.9093 Y12.4147
G01 X5.9100 Y12.4000
G00 X5.9100 Y12.4000
G01 F100.00
G01 Z-0.4000
G01 F100.00
G01 X5.9093 Y12.3853
G01 X5.9071 Y12.3707
G01 X5.9035 Y12.3565
G01 X5.8986 Y12.3426
G01 X5.8923 Y12.3293
G01 X5.8847 Y12.3167
G01 X5.8760 Y12.3048
G01 X5.8661 Y12.2939
G01 X5.8552 Y12.2840
G01 X5.8433 Y12.2753
G01 X5.8307 Y12.2677
G01 X5.8174 Y12.2614
G01 X5.8035 Y12.2565
G01 X5.7893 Y12.2529
G01 X5.7747 Y12.2507
G01 X5.7600 Y12.2500
G01 X5.7453 Y12.2507
G01 X5.7307 Y12.2529
G01 X5.7165 Y12.2565
G01 X5.7026 Y12.2614
G01 X5.6893 Y12.2677
G01 X5.6767 Y12.2753
G01 X5.6648 Y12.2840
G01 X5.6539 Y12.2939
G01 X5.6440 Y12.3048
G01 X5.6353 Y12.3167
G01 X5.6277 Y12.3293
G01 X5.6214 Y12.3426
G01 X5.6165 Y12.3565
G01 X5.6129 Y12.3707
G01 X5.6107 Y12.3853
G01 X5.6100 Y12.4000
G01 X5.6107 Y12.4147
G01 X5.6129 Y12.4293
G01 X5.6165 Y12.4435
G01 X5.6214 Y12.4574
G01 X5.6277 Y12.4707
G01 X5.6353 Y12.4833
G01 X5.6440 Y12.4952
G01 X5.6539 Y12.5061
G01 X5.6648 Y12.5160
G01 X5.6767 Y12.5247
G01 X5.6893 Y12.5323
G01 X5.7026 Y12.5386
G01 X5.7165 Y12.5435
G01 X5.7307 Y12.5471
G01 X5.7453 Y12.5493
G01 X5.7600 Y12.5500
G01 X5.7747 Y12.5493
G01 X5.7893 Y12.5471
G01 X5.8035 Y12.5435
G01 X5.8174 Y12.5386
G01 X5.8307 Y12.5323
G01 X5.8433 Y12.5247
G01 X5.8552 Y12.5160
G01 X5.8661 Y12.5061
G01 X5.8760 Y12.4952
G01 X5.8847 Y12.4833
G01 X5.8923 Y12.4707
G01 X5.8986 Y12.4574
G01 X5.9035 Y12.4435
G01 X5.9071 Y12.4293
G01 X5.9093 Y12.4147
G01 X5.9100 Y12.4000
G00 X5.9100 Y12.4000
G01 F100.00
G01 Z-0.6000
G01 F100.00
G01 X5.9093 Y12.3853
G01 X5.9071 Y12.3707
G01 X5.9035 Y12.3565
G01 X5.8986 Y12.3426
G01 X5.8923 Y12.3293
G01 X5.8847 Y12.3167
G01 X5.8760 Y12.3048
G01 X5.8661 Y12.2939
G01 X5.8552 Y12.2840
G01 X5.8433 Y12.2753
G01 X5.8307 Y12.2677
G01 X5.8174 Y12.2614
G01 X5.8035 Y12.2565
G01 X5.7893 Y12.2529
G01 X5.7747 Y12.2507
G01 X5.7600 Y12.2500
G01 X5.7453 Y12.2507
G01 X5.7307 Y12.2529
G01 X5.7165 Y12.2565
G01 X5.7026 Y12.2614
G01 X5.6893 Y12.2677
G01 X5.6767 Y12.2753
G01 X5.6648 Y12.2840
G01 X5.6539 Y12.2939
G01 X5.6440 Y12.3048
G01 X5.6353 Y12.3167
G01 X5.6277 Y12.3293
G01 X5.6214 Y12.3426
G01 X5.6165 Y12.3565
G01 X5.6129 Y12.3707
G01 X5.6107 Y12.3853
G01 X5.6100 Y12.4000
G01 X5.6107 Y12.4147
G01 X5.6129 Y12.4293
G01 X5.6165 Y12.4435
G01 X5.6214 Y12.4574
G01 X5.6277 Y12.4707
G01 X5.6353 Y12.4833
G01 X5.6440 Y12.4952
G01 X5.6539 Y12.5061
G01 X5.6648 Y12.5160
G01 X5.6767 Y12.5247
G01 X5.6893 Y12.5323
G01 X5.7026 Y12.5386
G01 X5.7165 Y12.5435
G01 X5.7307 Y12.5471
G01 X5.7453 Y12.5493
G01 X5.7600 Y12.5500
G01 X5.7747 Y12.5493
G01 X5.7893 Y12.5471
G01 X5.8035 Y12.5435
G01 X5.8174 Y12.5386
G01 X5.8307 Y12.5323
G01 X5.8433 Y12.5247
G01 X5.8552 Y12.5160
G01 X5.8661 Y12.5061
G01 X5.8760 Y12.4952
G01 X5.8847 Y12.4833
G01 X5.8923 Y12.4707
G01 X5.8986 Y12.4574
G01 X5.9035 Y12.4435
G01 X5.9071 Y12.4293
G01 X5.9093 Y12.4147
G01 X5.9100 Y12.4000
G00 X5.9100 Y12.4000
G01 F100.00
G01 Z-0.8000
G01 F100.00
G01 X5.9093 Y12.3853
G01 X5.9071 Y12.3707
G01 X5.9035 Y12.3565
G01 X5.8986 Y12.3426
G01 X5.8923 Y12.3293
G01 X5.8847 Y12.3167
G01 X5.8760 Y12.3048
G01 X5.8661 Y12.2939
G01 X5.8552 Y12.2840
G01 X5.8433 Y12.2753
G01 X5.8307 Y12.2677
G01 X5.8174 Y12.2614
G01 X5.8035 Y12.2565
G01 X5.7893 Y12.2529
G01 X5.7747 Y12.2507
G01 X5.7600 Y12.2500
G01 X5.7453 Y12.2507
G01 X5.7307 Y12.2529
G01 X5.7165 Y12.2565
G01 X5.7026 Y12.2614
G01 X5.6893 Y12.2677
G01 X5.6767 Y12.2753
G01 X5.6648 Y12.2840
G01 X5.6539 Y12.2939
G01 X5.6440 Y12.3048
G01 X5.6353 Y12.3167
G01 X5.6277 Y12.3293
G01 X5.6214 Y12.3426
G01 X5.6165 Y12.3565
G01 X5.6129 Y12.3707
G01 X5.6107 Y12.3853
G01 X5.6100 Y12.4000
G01 X5.6107 Y12.4147
G01 X5.6129 Y12.4293
G01 X5.6165 Y12.4435
G01 X5.6214 Y12.4574
G01 X5.6277 Y12.4707
G01 X5.6353 Y12.4833
G01 X5.6440 Y12.4952
G01 X5.6539 Y12.5061
G01 X5.6648 Y12.5160
G01 X5.6767 Y12.5247
G01 X5.6893 Y12.5323
G01 X5.7026 Y12.5386
G01 X5.7165 Y12.5435
G01 X5.7307 Y12.5471
G01 X5.7453 Y12.5493
G01 X5.7600 Y12.5500
G01 X5.7747 Y12.5493
G01 X5.7893 Y12.5471
G01 X5.8035 Y12.5435
G01 X5.8174 Y12.5386
G01 X5.8307 Y12.5323
G01 X5.8433 Y12.5247
G01 X5.8552 Y12.5160
G01 X5.8661 Y12.5061
G01 X5.8760 Y12.4952
G01 X5.8847 Y12.4833
G01 X5.8923 Y12.4707
G01 X5.8986 Y12.4574
G01 X5.9035 Y12.4435
G01 X5.9071 Y12.4293
G01 X5.9093 Y12.4147
G01 X5.9100 Y12.4000
G00 X5.9100 Y12.4000
G01 F100.00
G01 Z-1.0000
G01 F100.00
G01 X5.9093 Y12.3853
G01 X5.9071 Y12.3707
G01 X5.9035 Y12.3565
G01 X5.8986 Y12.3426
G01 X5.8923 Y12.3293
G01 X5.8847 Y12.3167
G01 X5.8760 Y12.3048
G01 X5.8661 Y12.2939
G01 X5.8552 Y12.2840
G01 X5.8433 Y12.2753
G01 X5.8307 Y12.2677
G01 X5.8174 Y12.2614
G01 X5.8035 Y12.2565
G01 X5.7893 Y12.2529
G01 X5.7747 Y12.2507
G01 X5.7600 Y12.2500
G01 X5.7453 Y12.2507
G01 X5.7307 Y12.2529
G01 X5.7165 Y12.2565
G01 X5.7026 Y12.2614
G01 X5.6893 Y12.2677
G01 X5.6767 Y12.2753
G01 X5.6648 Y12.2840
G01 X5.6539 Y12.2939
G01 X5.6440 Y12.3048
G01 X5.6353 Y12.3167
G01 X5.6277 Y12.3293
G01 X5.6214 Y12.3426
G01 X5.6165 Y12.3565
G01 X5.6129 Y12.3707
G01 X5.6107 Y12.3853
G01 X5.6100 Y12.4000
G01 X5.6107 Y12.4147
G01 X5.6129 Y12.4293
G01 X5.6165 Y12.4435
G01 X5.6214 Y12.4574
G01 X5.6277 Y12.4707
G01 X5.6353 Y12.4833
G01 X5.6440 Y12.4952
G01 X5.6539 Y12.5061
G01 X5.6648 Y12.5160
G01 X5.6767 Y12.5247
G01 X5.6893 Y12.5323
G01 X5.7026 Y12.5386
G01 X5.7165 Y12.5435
G01 X5.7307 Y12.5471
G01 X5.7453 Y12.5493
G01 X5.7600 Y12.5500
G01 X5.7747 Y12.5493
G01 X5.7893 Y12.5471
G01 X5.8035 Y12.5435
G01 X5.8174 Y12.5386
G01 X5.8307 Y12.5323
G01 X5.8433 Y12.5247
G01 X5.8552 Y12.5160
G01 X5.8661 Y12.5061
G01 X5.8760 Y12.4952
G01 X5.8847 Y12.4833
G01 X5.8923 Y12.4707
G01 X5.8986 Y12.4574
G01 X5.9035 Y12.4435
G01 X5.9071 Y12.4293
G01 X5.9093 Y12.4147
G01 X5.9100 Y12.4000
G00 X5.9100 Y12.4000
G01 F100.00
G01 Z-1.2000
G01 F100.00
G01 X5.9093 Y12.3853
G01 X5.9071 Y12.3707
G01 X5.9035 Y12.3565
G01 X5.8986 Y12.3426
G01 X5.8923 Y12.3293
G01 X5.8847 Y12.3167
G01 X5.8760 Y12.3048
G01 X5.8661 Y12.2939
G01 X5.8552 Y12.2840
G01 X5.8433 Y12.2753
G01 X5.8307 Y12.2677
G01 X5.8174 Y12.2614
G01 X5.8035 Y12.2565
G01 X5.7893 Y12.2529
G01 X5.7747 Y12.2507
G01 X5.7600 Y12.2500
G01 X5.7453 Y12.2507
G01 X5.7307 Y12.2529
G01 X5.7165 Y12.2565
G01 X5.7026 Y12.2614
G01 X5.6893 Y12.2677
G01 X5.6767 Y12.2753
G01 X5.6648 Y12.2840
G01 X5.6539 Y12.2939
G01 X5.6440 Y12.3048
G01 X5.6353 Y12.3167
G01 X5.6277 Y12.3293
G01 X5.6214 Y12.3426
G01 X5.6165 Y12.3565
G01 X5.6129 Y12.3707
G01 X5.6107 Y12.3853
G01 X5.6100 Y12.4000
G01 X5.6107 Y12.4147
G01 X5.6129 Y12.4293
G01 X5.6165 Y12.4435
G01 X5.6214 Y12.4574
G01 X5.6277 Y12.4707
G01 X5.6353 Y12.4833
G01 X5.6440 Y12.4952
G01 X5.6539 Y12.5061
G01 X5.6648 Y12.5160
G01 X5.6767 Y12.5247
G01 X5.6893 Y12.5323
G01 X5.7026 Y12.5386
G01 X5.7165 Y12.5435
G01 X5.7307 Y12.5471
G01 X5.7453 Y12.5493
G01 X5.7600 Y12.5500
G01 X5.7747 Y12.5493
G01 X5.7893 Y12.5471
G01 X5.8035 Y12.5435
G01 X5.8174 Y12.5386
G01 X5.8307 Y12.5323
G01 X5.8433 Y12.5247
G01 X5.8552 Y12.5160
G01 X5.8661 Y12.5061
G01 X5.8760 Y12.4952
G01 X5.8847 Y12.4833
G01 X5.8923 Y12.4707
G01 X5.8986 Y12.4574
G01 X5.9035 Y12.4435
G01 X5.9071 Y12.4293
G01 X5.9093 Y12.4147
G01 X5.9100 Y12.4000
G00 X5.9100 Y12.4000
G01 F100.00
G01 Z-1.4000
G01 F100.00
G01 X5.9093 Y12.3853
G01 X5.9071 Y12.3707
G01 X5.9035 Y12.3565
G01 X5.8986 Y12.3426
G01 X5.8923 Y12.3293
G01 X5.8847 Y12.3167
G01 X5.8760 Y12.3048
G01 X5.8661 Y12.2939
G01 X5.8552 Y12.2840
G01 X5.8433 Y12.2753
G01 X5.8307 Y12.2677
G01 X5.8174 Y12.2614
G01 X5.8035 Y12.2565
G01 X5.7893 Y12.2529
G01 X5.7747 Y12.2507
G01 X5.7600 Y12.2500
G01 X5.7453 Y12.2507
G01 X5.7307 Y12.2529
G01 X5.7165 Y12.2565
G01 X5.7026 Y12.2614
G01 X5.6893 Y12.2677
G01 X5.6767 Y12.2753
G01 X5.6648 Y12.2840
G01 X5.6539 Y12.2939
G01 X5.6440 Y12.3048
G01 X5.6353 Y12.3167
G01 X5.6277 Y12.3293
G01 X5.6214 Y12.3426
G01 X5.6165 Y12.3565
G01 X5.6129 Y12.3707
G01 X5.6107 Y12.3853
G01 X5.6100 Y12.4000
G01 X5.6107 Y12.4147
G01 X5.6129 Y12.4293
G01 X5.6165 Y12.4435
G01 X5.6214 Y12.4574
G01 X5.6277 Y12.4707
G01 X5.6353 Y12.4833
G01 X5.6440 Y12.4952
G01 X5.6539 Y12.5061
G01 X5.6648 Y12.5160
G01 X5.6767 Y12.5247
G01 X5.6893 Y12.5323
G01 X5.7026 Y12.5386
G01 X5.7165 Y12.5435
G01 X5.7307 Y12.5471
G01 X5.7453 Y12.5493
G01 X5.7600 Y12.5500
G01 X5.7747 Y12.5493
G01 X5.7893 Y12.5471
G01 X5.8035 Y12.5435
G01 X5.8174 Y12.5386
G01 X5.8307 Y12.5323
G01 X5.8433 Y12.5247
G01 X5.8552 Y12.5160
G01 X5.8661 Y12.5061
G01 X5.8760 Y12.4952
G01 X5.8847 Y12.4833
G01 X5.8923 Y12.4707
G01 X5.8986 Y12.4574
G01 X5.9035 Y12.4435
G01 X5.9071 Y12.4293
G01 X5.9093 Y12.4147
G01 X5.9100 Y12.4000
G00 X5.9100 Y12.4000
G01 F100.00
G01 Z-1.6000
G01 F100.00
G01 X5.9093 Y12.3853
G01 X5.9071 Y12.3707
G01 X5.9035 Y12.3565
G01 X5.8986 Y12.3426
G01 X5.8923 Y12.3293
G01 X5.8847 Y12.3167
G01 X5.8760 Y12.3048
G01 X5.8661 Y12.2939
G01 X5.8552 Y12.2840
G01 X5.8433 Y12.2753
G01 X5.8307 Y12.2677
G01 X5.8174 Y12.2614
G01 X5.8035 Y12.2565
G01 X5.7893 Y12.2529
G01 X5.7747 Y12.2507
G01 X5.7600 Y12.2500
G01 X5.7453 Y12.2507
G01 X5.7307 Y12.2529
G01 X5.7165 Y12.2565
G01 X5.7026 Y12.2614
G01 X5.6893 Y12.2677
G01 X5.6767 Y12.2753
G01 X5.6648 Y12.2840
G01 X5.6539 Y12.2939
G01 X5.6440 Y12.3048
G01 X5.6353 Y12.3167
G01 X5.6277 Y12.3293
G01 X5.6214 Y12.3426
G01 X5.6165 Y12.3565
G01 X5.6129 Y12.3707
G01 X5.6107 Y12.3853
G01 X5.6100 Y12.4000
G01 X5.6107 Y12.4147
G01 X5.6129 Y12.4293
G01 X5.6165 Y12.4435
G01 X5.6214 Y12.4574
G01 X5.6277 Y12.4707
G01 X5.6353 Y12.4833
G01 X5.6440 Y12.4952
G01 X5.6539 Y12.5061
G01 X5.6648 Y12.5160
G01 X5.6767 Y12.5247
G01 X5.6893 Y12.5323
G01 X5.7026 Y12.5386
G01 X5.7165 Y12.5435
G01 X5.7307 Y12.5471
G01 X5.7453 Y12.5493
G01 X5.7600 Y12.5500
G01 X5.7747 Y12.5493
G01 X5.7893 Y12.5471
G01 X5.8035 Y12.5435
G01 X5.8174 Y12.5386
G01 X5.8307 Y12.5323
G01 X5.8433 Y12.5247
G01 X5.8552 Y12.5160
G01 X5.8661 Y12.5061
G01 X5.8760 Y12.4952
G01 X5.8847 Y12.4833
G01 X5.8923 Y12.4707
G01 X5.8986 Y12.4574
G01 X5.9035 Y12.4435
G01 X5.9071 Y12.4293
G01 X5.9093 Y12.4147
G01 X5.9100 Y12.4000
G00 X5.9100 Y12.4000
G01 F100.00
G01 Z-1.8000
G01 F100.00
G01 X5.9093 Y12.3853
G01 X5.9071 Y12.3707
G01 X5.9035 Y12.3565
G01 X5.8986 Y12.3426
G01 X5.8923 Y12.3293
G01 X5.8847 Y12.3167
G01 X5.8760 Y12.3048
G01 X5.8661 Y12.2939
G01 X5.8552 Y12.2840
G01 X5.8433 Y12.2753
G01 X5.8307 Y12.2677
G01 X5.8174 Y12.2614
G01 X5.8035 Y12.2565
G01 X5.7893 Y12.2529
G01 X5.7747 Y12.2507
G01 X5.7600 Y12.2500
G01 X5.7453 Y12.2507
G01 X5.7307 Y12.2529
G01 X5.7165 Y12.2565
G01 X5.7026 Y12.2614
G01 X5.6893 Y12.2677
G01 X5.6767 Y12.2753
G01 X5.6648 Y12.2840
G01 X5.6539 Y12.2939
G01 X5.6440 Y12.3048
G01 X5.6353 Y12.3167
G01 X5.6277 Y12.3293
G01 X5.6214 Y12.3426
G01 X5.6165 Y12.3565
G01 X5.6129 Y12.3707
G01 X5.6107 Y12.3853
G01 X5.6100 Y12.4000
G01 X5.6107 Y12.4147
G01 X5.6129 Y12.4293
G01 X5.6165 Y12.4435
G01 X5.6214 Y12.4574
G01 X5.6277 Y12.4707
G01 X5.6353 Y12.4833
G01 X5.6440 Y12.4952
G01 X5.6539 Y12.5061
G01 X5.6648 Y12.5160
G01 X5.6767 Y12.5247
G01 X5.6893 Y12.5323
G01 X5.7026 Y12.5386
G01 X5.7165 Y12.5435
G01 X5.7307 Y12.5471
G01 X5.7453 Y12.5493
G01 X5.7600 Y12.5500
G01 X5.7747 Y12.5493
G01 X5.7893 Y12.5471
G01 X5.8035 Y12.5435
G01 X5.8174 Y12.5386
G01 X5.8307 Y12.5323
G01 X5.8433 Y12.5247
G01 X5.8552 Y12.5160
G01 X5.8661 Y12.5061
G01 X5.8760 Y12.4952
G01 X5.8847 Y12.4833
G01 X5.8923 Y12.4707
G01 X5.8986 Y12.4574
G01 X5.9035 Y12.4435
G01 X5.9071 Y12.4293
G01 X5.9093 Y12.4147
G01 X5.9100 Y12.4000
G00 X5.9100 Y12.4000
G01 F100.00
G01 Z-2.0000
G01 F100.00
G01 X5.9093 Y12.3853
G01 X5.9071 Y12.3707
G01 X5.9035 Y12.3565
G01 X5.8986 Y12.3426
G01 X5.8923 Y12.3293
G01 X5.8847 Y12.3167
G01 X5.8760 Y12.3048
G01 X5.8661 Y12.2939
G01 X5.8552 Y12.2840
G01 X5.8433 Y12.2753
G01 X5.8307 Y12.2677
G01 X5.8174 Y12.2614
G01 X5.8035 Y12.2565
G01 X5.7893 Y12.2529
G01 X5.7747 Y12.2507
G01 X5.7600 Y12.2500
G01 X5.7453 Y12.2507
G01 X5.7307 Y12.2529
G01 X5.7165 Y12.2565
G01 X5.7026 Y12.2614
G01 X5.6893 Y12.2677
G01 X5.6767 Y12.2753
G01 X5.6648 Y12.2840
G01 X5.6539 Y12.2939
G01 X5.6440 Y12.3048
G01 X5.6353 Y12.3167
G01 X5.6277 Y12.3293
G01 X5.6214 Y12.3426
G01 X5.6165 Y12.3565
G01 X5.6129 Y12.3707
G01 X5.6107 Y12.3853
G01 X5.6100 Y12.4000
G01 X5.6107 Y12.4147
G01 X5.6129 Y12.4293
G01 X5.6165 Y12.4435
G01 X5.6214 Y12.4574
G01 X5.6277 Y12.4707
G01 X5.6353 Y12.4833
G01 X5.6440 Y12.4952
G01 X5.6539 Y12.5061
G01 X5.6648 Y12.5160
G01 X5.6767 Y12.5247
G01 X5.6893 Y12.5323
G01 X5.7026 Y12.5386
G01 X5.7165 Y12.5435
G01 X5.7307 Y12.5471
G01 X5.7453 Y12.5493
G01 X5.7600 Y12.5500
G01 X5.7747 Y12.5493
G01 X5.7893 Y12.5471
G01 X5.8035 Y12.5435
G01 X5.8174 Y12.5386
G01 X5.8307 Y12.5323
G01 X5.8433 Y12.5247
G01 X5.8552 Y12.5160
G01 X5.8661 Y12.5061
G01 X5.8760 Y12.4952
G01 X5.8847 Y12.4833
G01 X5.8923 Y12.4707
G01 X5.8986 Y12.4574
G01 X5.9035 Y12.4435
G01 X5.9071 Y12.4293
G01 X5.9093 Y12.4147
G01 X5.9100 Y12.4000
G00 Z2.0000
G00 X6.4600 Y16.9470
G01 F100.00
G01 Z-0.2000
G01 F100.00
G01 X6.4593 Y16.9323
G01 X6.4571 Y16.9177
G01 X6.4535 Y16.9035
G01 X6.4486 Y16.8896
G01 X6.4423 Y16.8763
G01 X6.4347 Y16.8637
G01 X6.4260 Y16.8518
G01 X6.4161 Y16.8409
G01 X6.4052 Y16.8310
G01 X6.3933 Y16.8223
G01 X6.3807 Y16.8147
G01 X6.3674 Y16.8084
G01 X6.3535 Y16.8035
G01 X6.3393 Y16.7999
G01 X6.3247 Y16.7977
G01 X6.3100 Y16.7970
G01 X6.2953 Y16.7977
G01 X6.2807 Y16.7999
G01 X6.2665 Y16.8035
G01 X6.2526 Y16.8084
G01 X6.2393 Y16.8147
G01 X6.2267 Y16.8223
G01 X6.2148 Y16.8310
G01 X6.2039 Y16.8409
G01 X6.1940 Y16.8518
G01 X6.1853 Y16.8637
G01 X6.1777 Y16.8763
G01 X6.1714 Y16.8896
G01 X6.1665 Y16.9035
G01 X6.1629 Y16.9177
G01 X6.1607 Y16.9323
G01 X6.1600 Y16.9470
G01 X6.1607 Y16.9617
G01 X6.1629 Y16.9763
G01 X6.1665 Y16.9905
G01 X6.1714 Y17.0044
G01 X6.1777 Y17.0177
G01 X6.1853 Y17.0303
G01 X6.1940 Y17.0422
G01 X6.2039 Y17.0531
G01 X6.2148 Y17.0630
G01 X6.2267 Y17.0717
G01 X6.2393 Y17.0793
G01 X6.2526 Y17.0856
G01 X6.2665 Y17.0905
G01 X6.2807 Y17.0941
G01 X6.2953 Y17.0963
G01 X6.3100 Y17.0970
G01 X6.3247 Y17.0963
G01 X6.3393 Y17.0941
G01 X6.3535 Y17.0905
G01 X6.3674 Y17.0856
G01 X6.3807 Y17.0793
G01 X6.3933 Y17.0717
G01 X6.4052 Y17.0630
G01 X6.4161 Y17.0531
G01 X6.4260 Y17.0422
G01 X6.4347 Y17.0303
G01 X6.4423 Y17.0177
G01 X6.4486 Y17.0044
G01 X6.4535 Y16.9905
G01 X6.4571 Y16.9763
G01 X6.4593 Y16.9617
G01 X6.4600 Y16.9470
G00 X6.4600 Y16.9470
G01 F100.00
G01 Z-0.4000
G01 F100.00
G01 X6.4593 Y16.9323
G01 X6.4571 Y16.9177
G01 X6.4535 Y16.9035
G01 X6.4486 Y16.8896
G01 X6.4423 Y16.8763
G01 X6.4347 Y16.8637
G01 X6.4260 Y16.8518
G01 X6.4161 Y16.8409
G01 X6.4052 Y16.8310
G01 X6.3933 Y16.8223
G01 X6.3807 Y16.8147
G01 X6.3674 Y16.8084
G01 X6.3535 Y16.8035
G01 X6.3393 Y16.7999
G01 X6.3247 Y16.7977
G01 X6.3100 Y16.7970
G01 X6.2953 Y16.7977
G01 X6.2807 Y16.7999
G01 X6.2665 Y16.8035
G01 X6.2526 Y16.8084
G01 X6.2393 Y16.8147
G01 X6.2267 Y16.8223
G01 X6.2148 Y16.8310
G01 X6.2039 Y16.8409
G01 X6.1940 Y16.8518
G01 X6.1853 Y16.8637
G01 X6.1777 Y16.8763
G01 X6.1714 Y16.8896
G01 X6.1665 Y16.9035
G01 X6.1629 Y16.9177
G01 X6.1607 Y16.9323
G01 X6.1600 Y16.9470
G01 X6.1607 Y16.9617
G01 X6.1629 Y16.9763
G01 X6.1665 Y16.9905
G01 X6.1714 Y17.0044
G01 X6.1777 Y17.0177
G01 X6.1853 Y17.0303
G01 X6.1940 Y17.0422
G01 X6.2039 Y17.0531
G01 X6.2148 Y17.0630
G01 X6.2267 Y17.0717
G01 X6.2393 Y17.0793
G01 X6.2526 Y17.0856
G01 X6.2665 Y17.0905
G01 X6.2807 Y17.0941
G01 X6.2953 Y17.0963
G01 X6.3100 Y17.0970
G01 X6.3247 Y17.0963
G01 X6.3393 Y17.0941
G01 X6.3535 Y17.0905
G01 X6.3674 Y17.0856
G01 X6.3807 Y17.0793
G01 X6.3933 Y17.0717
G01 X6.4052 Y17.0630
G01 X6.4161 Y17.0531
G01 X6.4260 Y17.0422
G01 X6.4347 Y17.0303
G01 X6.4423 Y17.0177
G01 X6.4486 Y17.0044
G01 X6.4535 Y16.9905
G01 X6.4571 Y16.9763
G01 X6.4593 Y16.9617
G01 X6.4600 Y16.9470
G00 X6.4600 Y16.9470
G01 F100.00
G01 Z-0.6000
G01 F100.00
G01 X6.4593 Y16.9323
G01 X6.4571 Y16.9177
G01 X6.4535 Y16.9035
G01 X6.4486 Y16.8896
G01 X6.4423 Y16.8763
G01 X6.4347 Y16.8637
G01 X6.4260 Y16.8518
G01 X6.4161 Y16.8409
G01 X6.4052 Y16.8310
G01 X6.3933 Y16.8223
G01 X6.3807 Y16.8147
G01 X6.3674 Y16.8084
G01 X6.3535 Y16.8035
G01 X6.3393 Y16.7999
G01 X6.3247 Y16.7977
G01 X6.3100 Y16.7970
G01 X6.2953 Y16.7977
G01 X6.2807 Y16.7999
G01 X6.2665 Y16.8035
G01 X6.2526 Y16.8084
G01 X6.2393 Y16.8147
G01 X6.2267 Y16.8223
G01 X6.2148 Y16.8310
G01 X6.2039 Y16.8409
G01 X6.1940 Y16.8518
G01 X6.1853 Y16.8637
G01 X6.1777 Y16.8763
G01 X6.1714 Y16.8896
G01 X6.1665 Y16.9035
G01 X6.1629 Y16.9177
G01 X6.1607 Y16.9323
G01 X6.1600 Y16.9470
G01 X6.1607 Y16.9617
G01 X6.1629 Y16.9763
G01 X6.1665 Y16.9905
G01 X6.1714 Y17.0044
G01 X6.1777 Y17.0177
G01 X6.1853 Y17.0303
G01 X6.1940 Y17.0422
G01 X6.2039 Y17.0531
G01 X6.2148 Y17.0630
G01 X6.2267 Y17.0717
G01 X6.2393 Y17.0793
G01 X6.2526 Y17.0856
G01 X6.2665 Y17.0905
G01 X6.2807 Y17.0941
G01 X6.2953 Y17.0963
G01 X6.3100 Y17.0970
G01 X6.3247 Y17.0963
G01 X6.3393 Y17.0941
G01 X6.3535 Y17.0905
G01 X6.3674 Y17.0856
G01 X6.3807 Y17.0793
G01 X6.3933 Y17.0717
G01 X6.4052 Y17.0630
G01 X6.4161 Y17.0531
G01 X6.4260 Y17.0422
G01 X6.4347 Y17.0303
G01 X6.4423 Y17.0177
G01 X6.4486 Y17.0044
G01 X6.4535 Y16.9905
G01 X6.4571 Y16.9763
G01 X6.4593 Y16.9617
G01 X6.4600 Y16.9470
G00 X6.4600 Y16.9470
G01 F100.00
G01 Z-0.8000
G01 F100.00
G01 X6.4593 Y16.9323
G01 X6.4571 Y16.9177
G01 X6.4535 Y16.9035
G01 X6.4486 Y16.8896
G01 X6.4423 Y16.8763
G01 X6.4347 Y16.8637
G01 X6.4260 Y16.8518
G01 X6.4161 Y16.8409
G01 X6.4052 Y16.8310
G01 X6.3933 Y16.8223
G01 X6.3807 Y16.8147
G01 X6.3674 Y16.8084
G01 X6.3535 Y16.8035
G01 X6.3393 Y16.7999
G01 X6.3247 Y16.7977
G01 X6.3100 Y16.7970
G01 X6.2953 Y16.7977
G01 X6.2807 Y16.7999
G01 X6.2665 Y16.8035
G01 X6.2526 Y16.8084
G01 X6.2393 Y16.8147
G01 X6.2267 Y16.8223
G01 X6.2148 Y16.8310
G01 X6.2039 Y16.8409
G01 X6.1940 Y16.8518
G01 X6.1853 Y16.8637
G01 X6.1777 Y16.8763
G01 X6.1714 Y16.8896
G01 X6.1665 Y16.9035
G01 X6.1629 Y16.9177
G01 X6.1607 Y16.9323
G01 X6.1600 Y16.9470
G01 X6.1607 Y16.9617
G01 X6.1629 Y16.9763
G01 X6.1665 Y16.9905
G01 X6.1714 Y17.0044
G01 X6.1777 Y17.0177
G01 X6.1853 Y17.0303
G01 X6.1940 Y17.0422
G01 X6.2039 Y17.0531
G01 X6.2148 Y17.0630
G01 X6.2267 Y17.0717
G01 X6.2393 Y17.0793
G01 X6.2526 Y17.0856
G01 X6.2665 Y17.0905
G01 X6.2807 Y17.0941
G01 X6.2953 Y17.0963
G01 X6.3100 Y17.0970
G01 X6.3247 Y17.0963
G01 X6.3393 Y17.0941
G01 X6.3535 Y17.0905
G01 X6.3674 Y17.0856
G01 X6.3807 Y17.0793
G01 X6.3933 Y17.0717
G01 X6.4052 Y17.0630
G01 X6.4161 Y17.0531
G01 X6.4260 Y17.0422
G01 X6.4347 Y17.0303
G01 X6.4423 Y17.0177
G01 X6.4486 Y17.0044
G01 X6.4535 Y16.9905
G01 X6.4571 Y16.9763
G01 X6.4593 Y16.9617
G01 X6.4600 Y16.9470
G00 X6.4600 Y16.9470
G01 F100.00
G01 Z-1.0000
G01 F100.00
G01 X6.4593 Y16.9323
G01 X6.4571 Y16.9177
G01 X6.4535 Y16.9035
G01 X6.4486 Y16.8896
G01 X6.4423 Y16.8763
G01 X6.4347 Y16.8637
G01 X6.4260 Y16.8518
G01 X6.4161 Y16.8409
G01 X6.4052 Y16.8310
G01 X6.3933 Y16.8223
G01 X6.3807 Y16.8147
G01 X6.3674 Y16.8084
G01 X6.3535 Y16.8035
G01 X6.3393 Y16.7999
G01 X6.3247 Y16.7977
G01 X6.3100 Y16.7970
G01 X6.2953 Y16.7977
G01 X6.2807 Y16.7999
G01 X6.2665 Y16.8035
G01 X6.2526 Y16.8084
G01 X6.2393 Y16.8147
G01 X6.2267 Y16.8223
G01 X6.2148 Y16.8310
G01 X6.2039 Y16.8409
G01 X6.1940 Y16.8518
G01 X6.1853 Y16.8637
G01 X6.1777 Y16.8763
G01 X6.1714 Y16.8896
G01 X6.1665 Y16.9035
G01 X6.1629 Y16.9177
G01 X6.1607 Y16.9323
G01 X6.1600 Y16.9470
G01 X6.1607 Y16.9617
G01 X6.1629 Y16.9763
G01 X6.1665 Y16.9905
G01 X6.1714 Y17.0044
G01 X6.1777 Y17.0177
G01 X6.1853 Y17.0303
G01 X6.1940 Y17.0422
G01 X6.2039 Y17.0531
G01 X6.2148 Y17.0630
G01 X6.2267 Y17.0717
G01 X6.2393 Y17.0793
G01 X6.2526 Y17.0856
G01 X6.2665 Y17.0905
G01 X6.2807 Y17.0941
G01 X6.2953 Y17.0963
G01 X6.3100 Y17.0970
G01 X6.3247 Y17.0963
G01 X6.3393 Y17.0941
G01 X6.3535 Y17.0905
G01 X6.3674 Y17.0856
G01 X6.3807 Y17.0793
G01 X6.3933 Y17.0717
G01 X6.4052 Y17.0630
G01 X6.4161 Y17.0531
G01 X6.4260 Y17.0422
G01 X6.4347 Y17.0303
G01 X6.4423 Y17.0177
G01 X6.4486 Y17.0044
G01 X6.4535 Y16.9905
G01 X6.4571 Y16.9763
G01 X6.4593 Y16.9617
G01 X6.4600 Y16.9470
G00 X6.4600 Y16.9470
G01 F100.00
G01 Z-1.2000
G01 F100.00
G01 X6.4593 Y16.9323
G01 X6.4571 Y16.9177
G01 X6.4535 Y16.9035
G01 X6.4486 Y16.8896
G01 X6.4423 Y16.8763
G01 X6.4347 Y16.8637
G01 X6.4260 Y16.8518
G01 X6.4161 Y16.8409
G01 X6.4052 Y16.8310
G01 X6.3933 Y16.8223
G01 X6.3807 Y16.8147
G01 X6.3674 Y16.8084
G01 X6.3535 Y16.8035
G01 X6.3393 Y16.7999
G01 X6.3247 Y16.7977
G01 X6.3100 Y16.7970
G01 X6.2953 Y16.7977
G01 X6.2807 Y16.7999
G01 X6.2665 Y16.8035
G01 X6.2526 Y16.8084
G01 X6.2393 Y16.8147
G01 X6.2267 Y16.8223
G01 X6.2148 Y16.8310
G01 X6.2039 Y16.8409
G01 X6.1940 Y16.8518
G01 X6.1853 Y16.8637
G01 X6.1777 Y16.8763
G01 X6.1714 Y16.8896
G01 X6.1665 Y16.9035
G01 X6.1629 Y16.9177
G01 X6.1607 Y16.9323
G01 X6.1600 Y16.9470
G01 X6.1607 Y16.9617
G01 X6.1629 Y16.9763
G01 X6.1665 Y16.9905
G01 X6.1714 Y17.0044
G01 X6.1777 Y17.0177
G01 X6.1853 Y17.0303
G01 X6.1940 Y17.0422
G01 X6.2039 Y17.0531
G01 X6.2148 Y17.0630
G01 X6.2267 Y17.0717
G01 X6.2393 Y17.0793
G01 X6.2526 Y17.0856
G01 X6.2665 Y17.0905
G01 X6.2807 Y17.0941
G01 X6.2953 Y17.0963
G01 X6.3100 Y17.0970
G01 X6.3247 Y17.0963
G01 X6.3393 Y17.0941
G01 X6.3535 Y17.0905
G01 X6.3674 Y17.0856
G01 X6.3807 Y17.0793
G01 X6.3933 Y17.0717
G01 X6.4052 Y17.0630
G01 X6.4161 Y17.0531
G01 X6.4260 Y17.0422
G01 X6.4347 Y17.0303
G01 X6.4423 Y17.0177
G01 X6.4486 Y17.0044
G01 X6.4535 Y16.9905
G01 X6.4571 Y16.9763
G01 X6.4593 Y16.9617
G01 X6.4600 Y16.9470
G00 X6.4600 Y16.9470
G01 F100.00
G01 Z-1.4000
G01 F100.00
G01 X6.4593 Y16.9323
G01 X6.4571 Y16.9177
G01 X6.4535 Y16.9035
G01 X6.4486 Y16.8896
G01 X6.4423 Y16.8763
G01 X6.4347 Y16.8637
G01 X6.4260 Y16.8518
G01 X6.4161 Y16.8409
G01 X6.4052 Y16.8310
G01 X6.3933 Y16.8223
G01 X6.3807 Y16.8147
G01 X6.3674 Y16.8084
G01 X6.3535 Y16.8035
G01 X6.3393 Y16.7999
G01 X6.3247 Y16.7977
G01 X6.3100 Y16.7970
G01 X6.2953 Y16.7977
G01 X6.2807 Y16.7999
G01 X6.2665 Y16.8035
G01 X6.2526 Y16.8084
G01 X6.2393 Y16.8147
G01 X6.2267 Y16.8223
G01 X6.2148 Y16.8310
G01 X6.2039 Y16.8409
G01 X6.1940 Y16.8518
G01 X6.1853 Y16.8637
G01 X6.1777 Y16.8763
G01 X6.1714 Y16.8896
G01 X6.1665 Y16.9035
G01 X6.1629 Y16.9177
G01 X6.1607 Y16.9323
G01 X6.1600 Y16.9470
G01 X6.1607 Y16.9617
G01 X6.1629 Y16.9763
G01 X6.1665 Y16.9905
G01 X6.1714 Y17.0044
G01 X6.1777 Y17.0177
G01 X6.1853 Y17.0303
G01 X6.1940 Y17.0422
G01 X6.2039 Y17.0531
G01 X6.2148 Y17.0630
G01 X6.2267 Y17.0717
G01 X6.2393 Y17.0793
G01 X6.2526 Y17.0856
G01 X6.2665 Y17.0905
G01 X6.2807 Y17.0941
G01 X6.2953 Y17.0963
G01 X6.3100 Y17.0970
G01 X6.3247 Y17.0963
G01 X6.3393 Y17.0941
G01 X6.3535 Y17.0905
G01 X6.3674 Y17.0856
G01 X6.3807 Y17.0793
G01 X6.3933 Y17.0717
G01 X6.4052 Y17.0630
G01 X6.4161 Y17.0531
G01 X6.4260 Y17.0422
G01 X6.4347 Y17.0303
G01 X6.4423 Y17.0177
G01 X6.4486 Y17.0044
G01 X6.4535 Y16.9905
G01 X6.4571 Y16.9763
G01 X6.4593 Y16.9617
G01 X6.4600 Y16.9470
G00 X6.4600 Y16.9470
G01 F100.00
G01 Z-1.6000
G01 F100.00
G01 X6.4593 Y16.9323
G01 X6.4571 Y16.9177
G01 X6.4535 Y16.9035
G01 X6.4486 Y16.8896
G01 X6.4423 Y16.8763
G01 X6.4347 Y16.8637
G01 X6.4260 Y16.8518
G01 X6.4161 Y16.8409
G01 X6.4052 Y16.8310
G01 X6.3933 Y16.8223
G01 X6.3807 Y16.8147
G01 X6.3674 Y16.8084
G01 X6.3535 Y16.8035
G01 X6.3393 Y16.7999
G01 X6.3247 Y16.7977
G01 X6.3100 Y16.7970
G01 X6.2953 Y16.7977
G01 X6.2807 Y16.7999
G01 X6.2665 Y16.8035
G01 X6.2526 Y16.8084
G01 X6.2393 Y16.8147
G01 X6.2267 Y16.8223
G01 X6.2148 Y16.8310
G01 X6.2039 Y16.8409
G01 X6.1940 Y16.8518
G01 X6.1853 Y16.8637
G01 X6.1777 Y16.8763
G01 X6.1714 Y16.8896
G01 X6.1665 Y16.9035
G01 X6.1629 Y16.9177
G01 X6.1607 Y16.9323
G01 X6.1600 Y16.9470
G01 X6.1607 Y16.9617
G01 X6.1629 Y16.9763
G01 X6.1665 Y16.9905
G01 X6.1714 Y17.0044
G01 X6.1777 Y17.0177
G01 X6.1853 Y17.0303
G01 X6.1940 Y17.0422
G01 X6.2039 Y17.0531
G01 X6.2148 Y17.0630
G01 X6.2267 Y17.0717
G01 X6.2393 Y17.0793
G01 X6.2526 Y17.0856
G01 X6.2665 Y17.0905
G01 X6.2807 Y17.0941
G01 X6.2953 Y17.0963
G01 X6.3100 Y17.0970
G01 X6.3247 Y17.0963
G01 X6.3393 Y17.0941
G01 X6.3535 Y17.0905
G01 X6.3674 Y17.0856
G01 X6.3807 Y17.0793
G01 X6.3933 Y17.0717
G01 X6.4052 Y17.0630
G01 X6.4161 Y17.0531
G01 X6.4260 Y17.0422
G01 X6.4347 Y17.0303
G01 X6.4423 Y17.0177
G01 X6.4486 Y17.0044
G01 X6.4535 Y16.9905
G01 X6.4571 Y16.9763
G01 X6.4593 Y16.9617
G01 X6.4600 Y16.9470
G00 X6.4600 Y16.9470
G01 F100.00
G01 Z-1.8000
G01 F100.00
G01 X6.4593 Y16.9323
G01 X6.4571 Y16.9177
G01 X6.4535 Y16.9035
G01 X6.4486 Y16.8896
G01 X6.4423 Y16.8763
G01 X6.4347 Y16.8637
G01 X6.4260 Y16.8518
G01 X6.4161 Y16.8409
G01 X6.4052 Y16.8310
G01 X6.3933 Y16.8223
G01 X6.3807 Y16.8147
G01 X6.3674 Y16.8084
G01 X6.3535 Y16.8035
G01 X6.3393 Y16.7999
G01 X6.3247 Y16.7977
G01 X6.3100 Y16.7970
G01 X6.2953 Y16.7977
G01 X6.2807 Y16.7999
G01 X6.2665 Y16.8035
G01 X6.2526 Y16.8084
G01 X6.2393 Y16.8147
G01 X6.2267 Y16.8223
G01 X6.2148 Y16.8310
G01 X6.2039 Y16.8409
G01 X6.1940 Y16.8518
G01 X6.1853 Y16.8637
G01 X6.1777 Y16.8763
G01 X6.1714 Y16.8896
G01 X6.1665 Y16.9035
G01 X6.1629 Y16.9177
G01 X6.1607 Y16.9323
G01 X6.1600 Y16.9470
G01 X6.1607 Y16.9617
G01 X6.1629 Y16.9763
G01 X6.1665 Y16.9905
G01 X6.1714 Y17.0044
G01 X6.1777 Y17.0177
G01 X6.1853 Y17.0303
G01 X6.1940 Y17.0422
G01 X6.2039 Y17.0531
G01 X6.2148 Y17.0630
G01 X6.2267 Y17.0717
G01 X6.2393 Y17.0793
G01 X6.2526 Y17.0856
G01 X6.2665 Y17.0905
G01 X6.2807 Y17.0941
G01 X6.2953 Y17.0963
G01 X6.3100 Y17.0970
G01 X6.3247 Y17.0963
G01 X6.3393 Y17.0941
G01 X6.3535 Y17.0905
G01 X6.3674 Y17.0856
G01 X6.3807 Y17.0793
G01 X6.3933 Y17.0717
G01 X6.4052 Y17.0630
G01 X6.4161 Y17.0531
G01 X6.4260 Y17.0422
G01 X6.4347 Y17.0303
G01 X6.4423 Y17.0177
G01 X6.4486 Y17.0044
G01 X6.4535 Y16.9905
G01 X6.4571 Y16.9763
G01 X6.4593 Y16.9617
G01 X6.4600 Y16.9470
G00 X6.4600 Y16.9470
G01 F100.00
G01 Z-2.0000
G01 F100.00
G01 X6.4593 Y16.9323
G01 X6.4571 Y16.9177
G01 X6.4535 Y16.9035
G01 X6.4486 Y16.8896
G01 X6.4423 Y16.8763
G01 X6.4347 Y16.8637
G01 X6.4260 Y16.8518
G01 X6.4161 Y16.8409
G01 X6.4052 Y16.8310
G01 X6.3933 Y16.8223
G01 X6.3807 Y16.8147
G01 X6.3674 Y16.8084
G01 X6.3535 Y16.8035
G01 X6.3393 Y16.7999
G01 X6.3247 Y16.7977
G01 X6.3100 Y16.7970
G01 X6.2953 Y16.7977
G01 X6.2807 Y16.7999
G01 X6.2665 Y16.8035
G01 X6.2526 Y16.8084
G01 X6.2393 Y16.8147
G01 X6.2267 Y16.8223
G01 X6.2148 Y16.8310
G01 X6.2039 Y16.8409
G01 X6.1940 Y16.8518
G01 X6.1853 Y16.8637
G01 X6.1777 Y16.8763
G01 X6.1714 Y16.8896
G01 X6.1665 Y16.9035
G01 X6.1629 Y16.9177
G01 X6.1607 Y16.9323
G01 X6.1600 Y16.9470
G01 X6.1607 Y16.9617
G01 X6.1629 Y16.9763
G01 X6.1665 Y16.9905
G01 X6.1714 Y17.0044
G01 X6.1777 Y17.0177
G01 X6.1853 Y17.0303
G01 X6.1940 Y17.0422
G01 X6.2039 Y17.0531
G01 X6.2148 Y17.0630
G01 X6.2267 Y17.0717
G01 X6.2393 Y17.0793
G01 X6.2526 Y17.0856
G01 X6.2665 Y17.0905
G01 X6.2807 Y17.0941
G01 X6.2953 Y17.0963
G01 X6.3100 Y17.0970
G01 X6.3247 Y17.0963
G01 X6.3393 Y17.0941
G01 X6.3535 Y17.0905
G01 X6.3674 Y17.0856
G01 X6.3807 Y17.0793
G01 X6.3933 Y17.0717
G01 X6.4052 Y17.0630
G01 X6.4161 Y17.0531
G01 X6.4260 Y17.0422
G01 X6.4347 Y17.0303
G01 X6.4423 Y17.0177
G01 X6.4486 Y17.0044
G01 X6.4535 Y16.9905
G01 X6.4571 Y16.9763
G01 X6.4593 Y16.9617
G01 X6.4600 Y16.9470
G00 Z2.0000
M05
G00 Z2.0000
G00 Z20.00
G00 X0.0 Y0.0

M02