(G-CODE GENERATED BY FLATCAM v8.914 - www.flatcam.org - Version Date: 2019/04/23)

(Name: 3pin-Edge.Cuts.gm1_cutout_cnc)
(Type: G-code from Geometry)
(Units: MM)

(Created on Thursday, 02 May 2019 at 16:59)

(TOOL DIAMETER: 0.1 mm)
(Feedrate: 100.0 mm/min)
(Feedrate_Z: 100.0 mm/min)
(Feedrate rapids 200.0 mm/min)

(Z_Cut: -2.0 mm)
(DepthPerCut: 0.2 mm <=>10 passes)
(Z_Move: 2.0 mm)
(Z Toolchange: 25.0 mm)
(X,Y Toolchange: 0.0000, 0.0000 mm)
(Z Start: None mm)
(Z End: 20.0 mm)
(Steps per circle: 64)
(Postprocessor Geometry: default)

(X range:   -0.0750 ...   12.0750  mm)
(Y range:   -0.3250 ...   20.0750  mm)

(Spindle Speed: 5000 RPM)

G21
G90
G94

G01 F100.00
G00 Z2.0000

M03 S5000
G00 X-0.0746 Y1.2198
G01 F100.00
G01 Z-0.2000
G01 F100.00
G01 X-0.0702 Y1.1337
G01 X-0.0655 Y1.0778
G01 X-0.0610 Y1.0417
G01 X-0.0473 Y0.9587
G01 X-0.0364 Y0.9036
G01 X-0.0279 Y0.8682
G01 X-0.0050 Y0.7873
G01 X0.0121 Y0.7338
G01 X0.0349 Y0.6735
G01 X0.0674 Y0.5959
G01 X0.0829 Y0.5629
G01 X0.1086 Y0.5130
G01 X0.1497 Y0.4396
G01 X0.1687 Y0.4085
G01 X0.1999 Y0.3619
G01 X0.2489 Y0.2934
G01 X0.2891 Y0.2431
G01 X0.3449 Y0.1801
G01 X0.3834 Y0.1393
G01 X0.4095 Y0.1138
G01 X0.4719 Y0.0575
G01 X0.5148 Y0.0213
G01 X0.5436 Y-0.0012
G01 X0.6119 Y-0.0501
G01 X0.6585 Y-0.0813
G01 X0.6896 Y-0.1003
G01 X0.7630 Y-0.1414
G01 X0.8129 Y-0.1671
G01 X0.8459 Y-0.1826
G01 X0.9235 Y-0.2151
G01 X0.9759 Y-0.2352
G01 X1.0105 Y-0.2468
G01 X1.0911 Y-0.2705
G01 X1.1454 Y-0.2845
G01 X1.1811 Y-0.2922
G01 X1.2639 Y-0.3067
G01 X1.3195 Y-0.3145
G01 X1.3558 Y-0.3182
G01 X1.4720 Y-0.3246
G01 X4.7500 Y-0.3250
G00 X4.7500 Y-0.3250
G01 F100.00
G01 Z-0.4000
G01 F100.00
G01 X1.4720 Y-0.3246
G01 X1.3558 Y-0.3182
G01 X1.3195 Y-0.3145
G01 X1.2639 Y-0.3067
G01 X1.1811 Y-0.2922
G01 X1.1454 Y-0.2845
G01 X1.0911 Y-0.2705
G01 X1.0105 Y-0.2468
G01 X0.9759 Y-0.2352
G01 X0.9235 Y-0.2151
G01 X0.8459 Y-0.1826
G01 X0.8129 Y-0.1671
G01 X0.7630 Y-0.1414
G01 X0.6896 Y-0.1003
G01 X0.6585 Y-0.0813
G01 X0.6119 Y-0.0501
G01 X0.5436 Y-0.0012
G01 X0.5148 Y0.0213
G01 X0.4719 Y0.0575
G01 X0.4095 Y0.1138
G01 X0.3834 Y0.1393
G01 X0.3449 Y0.1801
G01 X0.2891 Y0.2431
G01 X0.2489 Y0.2934
G01 X0.1999 Y0.3619
G01 X0.1687 Y0.4085
G01 X0.1497 Y0.4396
G01 X0.1086 Y0.5130
G01 X0.0829 Y0.5629
G01 X0.0674 Y0.5959
G01 X0.0349 Y0.6735
G01 X0.0121 Y0.7338
G01 X-0.0050 Y0.7873
G01 X-0.0279 Y0.8682
G01 X-0.0364 Y0.9036
G01 X-0.0473 Y0.9587
G01 X-0.0610 Y1.0417
G01 X-0.0655 Y1.0778
G01 X-0.0702 Y1.1337
G01 X-0.0746 Y1.2198
G00 X-0.0746 Y1.2198
G01 F100.00
G01 Z-0.6000
G01 F100.00
G01 X-0.0702 Y1.1337
G01 X-0.0655 Y1.0778
G01 X-0.0610 Y1.0417
G01 X-0.0473 Y0.9587
G01 X-0.0364 Y0.9036
G01 X-0.0279 Y0.8682
G01 X-0.0050 Y0.7873
G01 X0.0121 Y0.7338
G01 X0.0349 Y0.6735
G01 X0.0674 Y0.5959
G01 X0.0829 Y0.5629
G01 X0.1086 Y0.5130
G01 X0.1497 Y0.4396
G01 X0.1687 Y0.4085
G01 X0.1999 Y0.3619
G01 X0.2489 Y0.2934
G01 X0.2891 Y0.2431
G01 X0.3449 Y0.1801
G01 X0.3834 Y0.1393
G01 X0.4095 Y0.1138
G01 X0.4719 Y0.0575
G01 X0.5148 Y0.0213
G01 X0.5436 Y-0.0012
G01 X0.6119 Y-0.0501
G01 X0.6585 Y-0.0813
G01 X0.6896 Y-0.1003
G01 X0.7630 Y-0.1414
G01 X0.8129 Y-0.1671
G01 X0.8459 Y-0.1826
G01 X0.9235 Y-0.2151
G01 X0.9759 Y-0.2352
G01 X1.0105 Y-0.2468
G01 X1.0911 Y-0.2705
G01 X1.1454 Y-0.2845
G01 X1.1811 Y-0.2922
G01 X1.2639 Y-0.3067
G01 X1.3195 Y-0.3145
G01 X1.3558 Y-0.3182
G01 X1.4720 Y-0.3246
G01 X4.7500 Y-0.3250
G00 X4.7500 Y-0.3250
G01 F100.00
G01 Z-0.8000
G01 F100.00
G01 X1.4720 Y-0.3246
G01 X1.3558 Y-0.3182
G01 X1.3195 Y-0.3145
G01 X1.2639 Y-0.3067
G01 X1.1811 Y-0.2922
G01 X1.1454 Y-0.2845
G01 X1.0911 Y-0.2705
G01 X1.0105 Y-0.2468
G01 X0.9759 Y-0.2352
G01 X0.9235 Y-0.2151
G01 X0.8459 Y-0.1826
G01 X0.8129 Y-0.1671
G01 X0.7630 Y-0.1414
G01 X0.6896 Y-0.1003
G01 X0.6585 Y-0.0813
G01 X0.6119 Y-0.0501
G01 X0.5436 Y-0.0012
G01 X0.5148 Y0.0213
G01 X0.4719 Y0.0575
G01 X0.4095 Y0.1138
G01 X0.3834 Y0.1393
G01 X0.3449 Y0.1801
G01 X0.2891 Y0.2431
G01 X0.2489 Y0.2934
G01 X0.1999 Y0.3619
G01 X0.1687 Y0.4085
G01 X0.1497 Y0.4396
G01 X0.1086 Y0.5130
G01 X0.0829 Y0.5629
G01 X0.0674 Y0.5959
G01 X0.0349 Y0.6735
G01 X0.0121 Y0.7338
G01 X-0.0050 Y0.7873
G01 X-0.0279 Y0.8682
G01 X-0.0364 Y0.9036
G01 X-0.0473 Y0.9587
G01 X-0.0610 Y1.0417
G01 X-0.0655 Y1.0778
G01 X-0.0702 Y1.1337
G01 X-0.0746 Y1.2198
G00 X-0.0746 Y1.2198
G01 F100.00
G01 Z-1.0000
G01 F100.00
G01 X-0.0702 Y1.1337
G01 X-0.0655 Y1.0778
G01 X-0.0610 Y1.0417
G01 X-0.0473 Y0.9587
G01 X-0.0364 Y0.9036
G01 X-0.0279 Y0.8682
G01 X-0.0050 Y0.7873
G01 X0.0121 Y0.7338
G01 X0.0349 Y0.6735
G01 X0.0674 Y0.5959
G01 X0.0829 Y0.5629
G01 X0.1086 Y0.5130
G01 X0.1497 Y0.4396
G01 X0.1687 Y0.4085
G01 X0.1999 Y0.3619
G01 X0.2489 Y0.2934
G01 X0.2891 Y0.2431
G01 X0.3449 Y0.1801
G01 X0.3834 Y0.1393
G01 X0.4095 Y0.1138
G01 X0.4719 Y0.0575
G01 X0.5148 Y0.0213
G01 X0.5436 Y-0.0012
G01 X0.6119 Y-0.0501
G01 X0.6585 Y-0.0813
G01 X0.6896 Y-0.1003
G01 X0.7630 Y-0.1414
G01 X0.8129 Y-0.1671
G01 X0.8459 Y-0.1826
G01 X0.9235 Y-0.2151
G01 X0.9759 Y-0.2352
G01 X1.0105 Y-0.2468
G01 X1.0911 Y-0.2705
G01 X1.1454 Y-0.2845
G01 X1.1811 Y-0.2922
G01 X1.2639 Y-0.3067
G01 X1.3195 Y-0.3145
G01 X1.3558 Y-0.3182
G01 X1.4720 Y-0.3246
G01 X4.7500 Y-0.3250
G00 X4.7500 Y-0.3250
G01 F100.00
G01 Z-1.2000
G01 F100.00
G01 X1.4720 Y-0.3246
G01 X1.3558 Y-0.3182
G01 X1.3195 Y-0.3145
G01 X1.2639 Y-0.3067
G01 X1.1811 Y-0.2922
G01 X1.1454 Y-0.2845
G01 X1.0911 Y-0.2705
G01 X1.0105 Y-0.2468
G01 X0.9759 Y-0.2352
G01 X0.9235 Y-0.2151
G01 X0.8459 Y-0.1826
G01 X0.8129 Y-0.1671
G01 X0.7630 Y-0.1414
G01 X0.6896 Y-0.1003
G01 X0.6585 Y-0.0813
G01 X0.6119 Y-0.0501
G01 X0.5436 Y-0.0012
G01 X0.5148 Y0.0213
G01 X0.4719 Y0.0575
G01 X0.4095 Y0.1138
G01 X0.3834 Y0.1393
G01 X0.3449 Y0.1801
G01 X0.2891 Y0.2431
G01 X0.2489 Y0.2934
G01 X0.1999 Y0.3619
G01 X0.1687 Y0.4085
G01 X0.1497 Y0.4396
G01 X0.1086 Y0.5130
G01 X0.0829 Y0.5629
G01 X0.0674 Y0.5959
G01 X0.0349 Y0.6735
G01 X0.0121 Y0.7338
G01 X-0.0050 Y0.7873
G01 X-0.0279 Y0.8682
G01 X-0.0364 Y0.9036
G01 X-0.0473 Y0.9587
G01 X-0.0610 Y1.0417
G01 X-0.0655 Y1.0778
G01 X-0.0702 Y1.1337
G01 X-0.0746 Y1.2198
G00 X-0.0746 Y1.2198
G01 F100.00
G01 Z-1.4000
G01 F100.00
G01 X-0.0702 Y1.1337
G01 X-0.0655 Y1.0778
G01 X-0.0610 Y1.0417
G01 X-0.0473 Y0.9587
G01 X-0.0364 Y0.9036
G01 X-0.0279 Y0.8682
G01 X-0.0050 Y0.7873
G01 X0.0121 Y0.7338
G01 X0.0349 Y0.6735
G01 X0.0674 Y0.5959
G01 X0.0829 Y0.5629
G01 X0.1086 Y0.5130
G01 X0.1497 Y0.4396
G01 X0.1687 Y0.4085
G01 X0.1999 Y0.3619
G01 X0.2489 Y0.2934
G01 X0.2891 Y0.2431
G01 X0.3449 Y0.1801
G01 X0.3834 Y0.1393
G01 X0.4095 Y0.1138
G01 X0.4719 Y0.0575
G01 X0.5148 Y0.0213
G01 X0.5436 Y-0.0012
G01 X0.6119 Y-0.0501
G01 X0.6585 Y-0.0813
G01 X0.6896 Y-0.1003
G01 X0.7630 Y-0.1414
G01 X0.8129 Y-0.1671
G01 X0.8459 Y-0.1826
G01 X0.9235 Y-0.2151
G01 X0.9759 Y-0.2352
G01 X1.0105 Y-0.2468
G01 X1.0911 Y-0.2705
G01 X1.1454 Y-0.2845
G01 X1.1811 Y-0.2922
G01 X1.2639 Y-0.3067
G01 X1.3195 Y-0.3145
G01 X1.3558 Y-0.3182
G01 X1.4720 Y-0.3246
G01 X4.7500 Y-0.3250
G00 X4.7500 Y-0.3250
G01 F100.00
G01 Z-1.6000
G01 F100.00
G01 X1.4720 Y-0.3246
G01 X1.3558 Y-0.3182
G01 X1.3195 Y-0.3145
G01 X1.2639 Y-0.3067
G01 X1.1811 Y-0.2922
G01 X1.1454 Y-0.2845
G01 X1.0911 Y-0.2705
G01 X1.0105 Y-0.2468
G01 X0.9759 Y-0.2352
G01 X0.9235 Y-0.2151
G01 X0.8459 Y-0.1826
G01 X0.8129 Y-0.1671
G01 X0.7630 Y-0.1414
G01 X0.6896 Y-0.1003
G01 X0.6585 Y-0.0813
G01 X0.6119 Y-0.0501
G01 X0.5436 Y-0.0012
G01 X0.5148 Y0.0213
G01 X0.4719 Y0.0575
G01 X0.4095 Y0.1138
G01 X0.3834 Y0.1393
G01 X0.3449 Y0.1801
G01 X0.2891 Y0.2431
G01 X0.2489 Y0.2934
G01 X0.1999 Y0.3619
G01 X0.1687 Y0.4085
G01 X0.1497 Y0.4396
G01 X0.1086 Y0.5130
G01 X0.0829 Y0.5629
G01 X0.0674 Y0.5959
G01 X0.0349 Y0.6735
G01 X0.0121 Y0.7338
G01 X-0.0050 Y0.7873
G01 X-0.0279 Y0.8682
G01 X-0.0364 Y0.9036
G01 X-0.0473 Y0.9587
G01 X-0.0610 Y1.0417
G01 X-0.0655 Y1.0778
G01 X-0.0702 Y1.1337
G01 X-0.0746 Y1.2198
G00 X-0.0746 Y1.2198
G01 F100.00
G01 Z-1.8000
G01 F100.00
G01 X-0.0702 Y1.1337
G01 X-0.0655 Y1.0778
G01 X-0.0610 Y1.0417
G01 X-0.0473 Y0.9587
G01 X-0.0364 Y0.9036
G01 X-0.0279 Y0.8682
G01 X-0.0050 Y0.7873
G01 X0.0121 Y0.7338
G01 X0.0349 Y0.6735
G01 X0.0674 Y0.5959
G01 X0.0829 Y0.5629
G01 X0.1086 Y0.5130
G01 X0.1497 Y0.4396
G01 X0.1687 Y0.4085
G01 X0.1999 Y0.3619
G01 X0.2489 Y0.2934
G01 X0.2891 Y0.2431
G01 X0.3449 Y0.1801
G01 X0.3834 Y0.1393
G01 X0.4095 Y0.1138
G01 X0.4719 Y0.0575
G01 X0.5148 Y0.0213
G01 X0.5436 Y-0.0012
G01 X0.6119 Y-0.0501
G01 X0.6585 Y-0.0813
G01 X0.6896 Y-0.1003
G01 X0.7630 Y-0.1414
G01 X0.8129 Y-0.1671
G01 X0.8459 Y-0.1826
G01 X0.9235 Y-0.2151
G01 X0.9759 Y-0.2352
G01 X1.0105 Y-0.2468
G01 X1.0911 Y-0.2705
G01 X1.1454 Y-0.2845
G01 X1.1811 Y-0.2922
G01 X1.2639 Y-0.3067
G01 X1.3195 Y-0.3145
G01 X1.3558 Y-0.3182
G01 X1.4720 Y-0.3246
G01 X4.7500 Y-0.3250
G00 X4.7500 Y-0.3250
G01 F100.00
G01 Z-2.0000
G01 F100.00
G01 X1.4720 Y-0.3246
G01 X1.3558 Y-0.3182
G01 X1.3195 Y-0.3145
G01 X1.2639 Y-0.3067
G01 X1.1811 Y-0.2922
G01 X1.1454 Y-0.2845
G01 X1.0911 Y-0.2705
G01 X1.0105 Y-0.2468
G01 X0.9759 Y-0.2352
G01 X0.9235 Y-0.2151
G01 X0.8459 Y-0.1826
G01 X0.8129 Y-0.1671
G01 X0.7630 Y-0.1414
G01 X0.6896 Y-0.1003
G01 X0.6585 Y-0.0813
G01 X0.6119 Y-0.0501
G01 X0.5436 Y-0.0012
G01 X0.5148 Y0.0213
G01 X0.4719 Y0.0575
G01 X0.4095 Y0.1138
G01 X0.3834 Y0.1393
G01 X0.3449 Y0.1801
G01 X0.2891 Y0.2431
G01 X0.2489 Y0.2934
G01 X0.1999 Y0.3619
G01 X0.1687 Y0.4085
G01 X0.1497 Y0.4396
G01 X0.1086 Y0.5130
G01 X0.0829 Y0.5629
G01 X0.0674 Y0.5959
G01 X0.0349 Y0.6735
G01 X0.0121 Y0.7338
G01 X-0.0050 Y0.7873
G01 X-0.0279 Y0.8682
G01 X-0.0364 Y0.9036
G01 X-0.0473 Y0.9587
G01 X-0.0610 Y1.0417
G01 X-0.0655 Y1.0778
G01 X-0.0702 Y1.1337
G01 X-0.0746 Y1.2198
G00 Z2.0000
G00 X-0.0746 Y1.2198
G01 F100.00
G01 Z-0.2000
G01 F100.00
G01 X-0.0750 Y8.6250
G00 X-0.0750 Y8.6250
G01 F100.00
G01 Z-0.4000
G01 F100.00
G01 X-0.0746 Y1.2198
G00 X-0.0746 Y1.2198
G01 F100.00
G01 Z-0.6000
G01 F100.00
G01 X-0.0750 Y8.6250
G00 X-0.0750 Y8.6250
G01 F100.00
G01 Z-0.8000
G01 F100.00
G01 X-0.0746 Y1.2198
G00 X-0.0746 Y1.2198
G01 F100.00
G01 Z-1.0000
G01 F100.00
G01 X-0.0750 Y8.6250
G00 X-0.0750 Y8.6250
G01 F100.00
G01 Z-1.2000
G01 F100.00
G01 X-0.0746 Y1.2198
G00 X-0.0746 Y1.2198
G01 F100.00
G01 Z-1.4000
G01 F100.00
G01 X-0.0750 Y8.6250
G00 X-0.0750 Y8.6250
G01 F100.00
G01 Z-1.6000
G01 F100.00
G01 X-0.0746 Y1.2198
G00 X-0.0746 Y1.2198
G01 F100.00
G01 Z-1.8000
G01 F100.00
G01 X-0.0750 Y8.6250
G00 X-0.0750 Y8.6250
G01 F100.00
G01 Z-2.0000
G01 F100.00
G01 X-0.0746 Y1.2198
G00 Z2.0000
G00 X7.2500 Y-0.3250
G01 F100.00
G01 Z-0.2000
G01 F100.00
G01 X10.5000 Y-0.3250
G01 X10.5603 Y-0.3233
G01 X10.6442 Y-0.3182
G01 X10.7083 Y-0.3110
G01 X10.7913 Y-0.2973
G01 X10.8464 Y-0.2864
G01 X10.8819 Y-0.2779
G01 X10.9895 Y-0.2468
G01 X11.0505 Y-0.2255
G01 X11.1541 Y-0.1826
G01 X11.2122 Y-0.1546
G01 X11.3104 Y-0.1003
G01 X11.3650 Y-0.0660
G01 X11.4564 Y-0.0012
G01 X11.5069 Y0.0391
G01 X11.5905 Y0.1138
G01 X11.6362 Y0.1594
G01 X11.7109 Y0.2431
G01 X11.7511 Y0.2934
G01 X11.8160 Y0.3849
G01 X11.8503 Y0.4396
G01 X11.8914 Y0.5130
G01 X11.9171 Y0.5629
G01 X11.9326 Y0.5959
G01 X11.9755 Y0.6996
G01 X11.9968 Y0.7604
G01 X12.0279 Y0.8682
G01 X12.0422 Y0.9310
G01 X12.0610 Y1.0417
G01 X12.0682 Y1.1058
G01 X12.0746 Y1.2220
G01 X12.0750 Y8.6250
G00 X12.0750 Y8.6250
G01 F100.00
G01 Z-0.4000
G01 F100.00
G01 X12.0746 Y1.2220
G01 X12.0682 Y1.1058
G01 X12.0610 Y1.0417
G01 X12.0422 Y0.9310
G01 X12.0279 Y0.8682
G01 X11.9968 Y0.7604
G01 X11.9755 Y0.6996
G01 X11.9326 Y0.5959
G01 X11.9171 Y0.5629
G01 X11.8914 Y0.5130
G01 X11.8503 Y0.4396
G01 X11.8160 Y0.3849
G01 X11.7511 Y0.2934
G01 X11.7109 Y0.2431
G01 X11.6362 Y0.1594
G01 X11.5905 Y0.1138
G01 X11.5069 Y0.0391
G01 X11.4564 Y-0.0012
G01 X11.3650 Y-0.0660
G01 X11.3104 Y-0.1003
G01 X11.2122 Y-0.1546
G01 X11.1541 Y-0.1826
G01 X11.0505 Y-0.2255
G01 X10.9895 Y-0.2468
G01 X10.8819 Y-0.2779
G01 X10.8464 Y-0.2864
G01 X10.7913 Y-0.2973
G01 X10.7083 Y-0.3110
G01 X10.6442 Y-0.3182
G01 X10.5603 Y-0.3233
G01 X10.5000 Y-0.3250
G01 X7.2500 Y-0.3250
G00 X7.2500 Y-0.3250
G01 F100.00
G01 Z-0.6000
G01 F100.00
G01 X10.5000 Y-0.3250
G01 X10.5603 Y-0.3233
G01 X10.6442 Y-0.3182
G01 X10.7083 Y-0.3110
G01 X10.7913 Y-0.2973
G01 X10.8464 Y-0.2864
G01 X10.8819 Y-0.2779
G01 X10.9895 Y-0.2468
G01 X11.0505 Y-0.2255
G01 X11.1541 Y-0.1826
G01 X11.2122 Y-0.1546
G01 X11.3104 Y-0.1003
G01 X11.3650 Y-0.0660
G01 X11.4564 Y-0.0012
G01 X11.5069 Y0.0391
G01 X11.5905 Y0.1138
G01 X11.6362 Y0.1594
G01 X11.7109 Y0.2431
G01 X11.7511 Y0.2934
G01 X11.8160 Y0.3849
G01 X11.8503 Y0.4396
G01 X11.8914 Y0.5130
G01 X11.9171 Y0.5629
G01 X11.9326 Y0.5959
G01 X11.9755 Y0.6996
G01 X11.9968 Y0.7604
G01 X12.0279 Y0.8682
G01 X12.0422 Y0.9310
G01 X12.0610 Y1.0417
G01 X12.0682 Y1.1058
G01 X12.0746 Y1.2220
G01 X12.0750 Y8.6250
G00 X12.0750 Y8.6250
G01 F100.00
G01 Z-0.8000
G01 F100.00
G01 X12.0746 Y1.2220
G01 X12.0682 Y1.1058
G01 X12.0610 Y1.0417
G01 X12.0422 Y0.9310
G01 X12.0279 Y0.8682
G01 X11.9968 Y0.7604
G01 X11.9755 Y0.6996
G01 X11.9326 Y0.5959
G01 X11.9171 Y0.5629
G01 X11.8914 Y0.5130
G01 X11.8503 Y0.4396
G01 X11.8160 Y0.3849
G01 X11.7511 Y0.2934
G01 X11.7109 Y0.2431
G01 X11.6362 Y0.1594
G01 X11.5905 Y0.1138
G01 X11.5069 Y0.0391
G01 X11.4564 Y-0.0012
G01 X11.3650 Y-0.0660
G01 X11.3104 Y-0.1003
G01 X11.2122 Y-0.1546
G01 X11.1541 Y-0.1826
G01 X11.0505 Y-0.2255
G01 X10.9895 Y-0.2468
G01 X10.8819 Y-0.2779
G01 X10.8464 Y-0.2864
G01 X10.7913 Y-0.2973
G01 X10.7083 Y-0.3110
G01 X10.6442 Y-0.3182
G01 X10.5603 Y-0.3233
G01 X10.5000 Y-0.3250
G01 X7.2500 Y-0.3250
G00 X7.2500 Y-0.3250
G01 F100.00
G01 Z-1.0000
G01 F100.00
G01 X10.5000 Y-0.3250
G01 X10.5603 Y-0.3233
G01 X10.6442 Y-0.3182
G01 X10.7083 Y-0.3110
G01 X10.7913 Y-0.2973
G01 X10.8464 Y-0.2864
G01 X10.8819 Y-0.2779
G01 X10.9895 Y-0.2468
G01 X11.0505 Y-0.2255
G01 X11.1541 Y-0.1826
G01 X11.2122 Y-0.1546
G01 X11.3104 Y-0.1003
G01 X11.3650 Y-0.0660
G01 X11.4564 Y-0.0012
G01 X11.5069 Y0.0391
G01 X11.5905 Y0.1138
G01 X11.6362 Y0.1594
G01 X11.7109 Y0.2431
G01 X11.7511 Y0.2934
G01 X11.8160 Y0.3849
G01 X11.8503 Y0.4396
G01 X11.8914 Y0.5130
G01 X11.9171 Y0.5629
G01 X11.9326 Y0.5959
G01 X11.9755 Y0.6996
G01 X11.9968 Y0.7604
G01 X12.0279 Y0.8682
G01 X12.0422 Y0.9310
G01 X12.0610 Y1.0417
G01 X12.0682 Y1.1058
G01 X12.0746 Y1.2220
G01 X12.0750 Y8.6250
G00 X12.0750 Y8.6250
G01 F100.00
G01 Z-1.2000
G01 F100.00
G01 X12.0746 Y1.2220
G01 X12.0682 Y1.1058
G01 X12.0610 Y1.0417
G01 X12.0422 Y0.9310
G01 X12.0279 Y0.8682
G01 X11.9968 Y0.7604
G01 X11.9755 Y0.6996
G01 X11.9326 Y0.5959
G01 X11.9171 Y0.5629
G01 X11.8914 Y0.5130
G01 X11.8503 Y0.4396
G01 X11.8160 Y0.3849
G01 X11.7511 Y0.2934
G01 X11.7109 Y0.2431
G01 X11.6362 Y0.1594
G01 X11.5905 Y0.1138
G01 X11.5069 Y0.0391
G01 X11.4564 Y-0.0012
G01 X11.3650 Y-0.0660
G01 X11.3104 Y-0.1003
G01 X11.2122 Y-0.1546
G01 X11.1541 Y-0.1826
G01 X11.0505 Y-0.2255
G01 X10.9895 Y-0.2468
G01 X10.8819 Y-0.2779
G01 X10.8464 Y-0.2864
G01 X10.7913 Y-0.2973
G01 X10.7083 Y-0.3110
G01 X10.6442 Y-0.3182
G01 X10.5603 Y-0.3233
G01 X10.5000 Y-0.3250
G01 X7.2500 Y-0.3250
G00 X7.2500 Y-0.3250
G01 F100.00
G01 Z-1.4000
G01 F100.00
G01 X10.5000 Y-0.3250
G01 X10.5603 Y-0.3233
G01 X10.6442 Y-0.3182
G01 X10.7083 Y-0.3110
G01 X10.7913 Y-0.2973
G01 X10.8464 Y-0.2864
G01 X10.8819 Y-0.2779
G01 X10.9895 Y-0.2468
G01 X11.0505 Y-0.2255
G01 X11.1541 Y-0.1826
G01 X11.2122 Y-0.1546
G01 X11.3104 Y-0.1003
G01 X11.3650 Y-0.0660
G01 X11.4564 Y-0.0012
G01 X11.5069 Y0.0391
G01 X11.5905 Y0.1138
G01 X11.6362 Y0.1594
G01 X11.7109 Y0.2431
G01 X11.7511 Y0.2934
G01 X11.8160 Y0.3849
G01 X11.8503 Y0.4396
G01 X11.8914 Y0.5130
G01 X11.9171 Y0.5629
G01 X11.9326 Y0.5959
G01 X11.9755 Y0.6996
G01 X11.9968 Y0.7604
G01 X12.0279 Y0.8682
G01 X12.0422 Y0.9310
G01 X12.0610 Y1.0417
G01 X12.0682 Y1.1058
G01 X12.0746 Y1.2220
G01 X12.0750 Y8.6250
G00 X12.0750 Y8.6250
G01 F100.00
G01 Z-1.6000
G01 F100.00
G01 X12.0746 Y1.2220
G01 X12.0682 Y1.1058
G01 X12.0610 Y1.0417
G01 X12.0422 Y0.9310
G01 X12.0279 Y0.8682
G01 X11.9968 Y0.7604
G01 X11.9755 Y0.6996
G01 X11.9326 Y0.5959
G01 X11.9171 Y0.5629
G01 X11.8914 Y0.5130
G01 X11.8503 Y0.4396
G01 X11.8160 Y0.3849
G01 X11.7511 Y0.2934
G01 X11.7109 Y0.2431
G01 X11.6362 Y0.1594
G01 X11.5905 Y0.1138
G01 X11.5069 Y0.0391
G01 X11.4564 Y-0.0012
G01 X11.3650 Y-0.0660
G01 X11.3104 Y-0.1003
G01 X11.2122 Y-0.1546
G01 X11.1541 Y-0.1826
G01 X11.0505 Y-0.2255
G01 X10.9895 Y-0.2468
G01 X10.8819 Y-0.2779
G01 X10.8464 Y-0.2864
G01 X10.7913 Y-0.2973
G01 X10.7083 Y-0.3110
G01 X10.6442 Y-0.3182
G01 X10.5603 Y-0.3233
G01 X10.5000 Y-0.3250
G01 X7.2500 Y-0.3250
G00 X7.2500 Y-0.3250
G01 F100.00
G01 Z-1.8000
G01 F100.00
G01 X10.5000 Y-0.3250
G01 X10.5603 Y-0.3233
G01 X10.6442 Y-0.3182
G01 X10.7083 Y-0.3110
G01 X10.7913 Y-0.2973
G01 X10.8464 Y-0.2864
G01 X10.8819 Y-0.2779
G01 X10.9895 Y-0.2468
G01 X11.0505 Y-0.2255
G01 X11.1541 Y-0.1826
G01 X11.2122 Y-0.1546
G01 X11.3104 Y-0.1003
G01 X11.3650 Y-0.0660
G01 X11.4564 Y-0.0012
G01 X11.5069 Y0.0391
G01 X11.5905 Y0.1138
G01 X11.6362 Y0.1594
G01 X11.7109 Y0.2431
G01 X11.7511 Y0.2934
G01 X11.8160 Y0.3849
G01 X11.8503 Y0.4396
G01 X11.8914 Y0.5130
G01 X11.9171 Y0.5629
G01 X11.9326 Y0.5959
G01 X11.9755 Y0.6996
G01 X11.9968 Y0.7604
G01 X12.0279 Y0.8682
G01 X12.0422 Y0.9310
G01 X12.0610 Y1.0417
G01 X12.0682 Y1.1058
G01 X12.0746 Y1.2220
G01 X12.0750 Y8.6250
G00 X12.0750 Y8.6250
G01 F100.00
G01 Z-2.0000
G01 F100.00
G01 X12.0746 Y1.2220
G01 X12.0682 Y1.1058
G01 X12.0610 Y1.0417
G01 X12.0422 Y0.9310
G01 X12.0279 Y0.8682
G01 X11.9968 Y0.7604
G01 X11.9755 Y0.6996
G01 X11.9326 Y0.5959
G01 X11.9171 Y0.5629
G01 X11.8914 Y0.5130
G01 X11.8503 Y0.4396
G01 X11.8160 Y0.3849
G01 X11.7511 Y0.2934
G01 X11.7109 Y0.2431
G01 X11.6362 Y0.1594
G01 X11.5905 Y0.1138
G01 X11.5069 Y0.0391
G01 X11.4564 Y-0.0012
G01 X11.3650 Y-0.0660
G01 X11.3104 Y-0.1003
G01 X11.2122 Y-0.1546
G01 X11.1541 Y-0.1826
G01 X11.0505 Y-0.2255
G01 X10.9895 Y-0.2468
G01 X10.8819 Y-0.2779
G01 X10.8464 Y-0.2864
G01 X10.7913 Y-0.2973
G01 X10.7083 Y-0.3110
G01 X10.6442 Y-0.3182
G01 X10.5603 Y-0.3233
G01 X10.5000 Y-0.3250
G01 X7.2500 Y-0.3250
G00 Z2.0000
G00 X12.0750 Y11.1250
G01 F100.00
G01 Z-0.2000
G01 F100.00
G01 X12.0750 Y16.0000
G01 X12.0733 Y16.0603
G01 X12.0545 Y16.3962
G01 X12.0488 Y16.4604
G01 X12.0410 Y16.5160
G01 X11.9795 Y16.8753
G01 X11.9718 Y16.9109
G01 X11.9578 Y16.9652
G01 X11.8647 Y17.2884
G01 X11.8476 Y17.3419
G01 X11.8249 Y17.4022
G01 X11.6850 Y17.7388
G01 X11.6696 Y17.7718
G01 X11.6438 Y17.8217
G01 X11.4811 Y18.1161
G01 X11.4481 Y18.1716
G01 X11.4169 Y18.2182
G01 X11.2223 Y18.4926
G01 X11.1833 Y18.5440
G01 X11.1471 Y18.5868
G01 X10.9229 Y18.8377
G01 X10.8784 Y18.8844
G01 X10.8377 Y18.9229
G01 X10.5868 Y19.1471
G01 X10.5440 Y19.1833
G01 X10.4926 Y19.2223
G01 X10.2182 Y19.4169
G01 X10.1644 Y19.4526
G01 X10.1161 Y19.4811
G01 X9.7969 Y19.6570
G01 X9.7643 Y19.6732
G01 X9.7131 Y19.6961
G01 X9.4022 Y19.8249
G01 X9.3498 Y19.8449
G01 X9.2884 Y19.8647
G01 X8.9652 Y19.9578
G01 X8.9027 Y19.9737
G01 X8.8476 Y19.9846
G01 X8.5160 Y20.0410
G01 X8.4521 Y20.0498
G01 X8.3962 Y20.0545
G01 X8.0280 Y20.0746
G01 X7.2500 Y20.0750
G00 X7.2500 Y20.0750
G01 F100.00
G01 Z-0.4000
G01 F100.00
G01 X8.0280 Y20.0746
G01 X8.3962 Y20.0545
G01 X8.4521 Y20.0498
G01 X8.5160 Y20.0410
G01 X8.8476 Y19.9846
G01 X8.9027 Y19.9737
G01 X8.9652 Y19.9578
G01 X9.2884 Y19.8647
G01 X9.3498 Y19.8449
G01 X9.4022 Y19.8249
G01 X9.7131 Y19.6961
G01 X9.7643 Y19.6732
G01 X9.7969 Y19.6570
G01 X10.1161 Y19.4811
G01 X10.1644 Y19.4526
G01 X10.2182 Y19.4169
G01 X10.4926 Y19.2223
G01 X10.5440 Y19.1833
G01 X10.5868 Y19.1471
G01 X10.8377 Y18.9229
G01 X10.8784 Y18.8844
G01 X10.9229 Y18.8377
G01 X11.1471 Y18.5868
G01 X11.1833 Y18.5440
G01 X11.2223 Y18.4926
G01 X11.4169 Y18.2182
G01 X11.4481 Y18.1716
G01 X11.4811 Y18.1161
G01 X11.6438 Y17.8217
G01 X11.6696 Y17.7718
G01 X11.6850 Y17.7388
G01 X11.8249 Y17.4022
G01 X11.8476 Y17.3419
G01 X11.8647 Y17.2884
G01 X11.9578 Y16.9652
G01 X11.9718 Y16.9109
G01 X11.9795 Y16.8753
G01 X12.0410 Y16.5160
G01 X12.0488 Y16.4604
G01 X12.0545 Y16.3962
G01 X12.0733 Y16.0603
G01 X12.0750 Y16.0000
G01 X12.0750 Y11.1250
G00 X12.0750 Y11.1250
G01 F100.00
G01 Z-0.6000
G01 F100.00
G01 X12.0750 Y16.0000
G01 X12.0733 Y16.0603
G01 X12.0545 Y16.3962
G01 X12.0488 Y16.4604
G01 X12.0410 Y16.5160
G01 X11.9795 Y16.8753
G01 X11.9718 Y16.9109
G01 X11.9578 Y16.9652
G01 X11.8647 Y17.2884
G01 X11.8476 Y17.3419
G01 X11.8249 Y17.4022
G01 X11.6850 Y17.7388
G01 X11.6696 Y17.7718
G01 X11.6438 Y17.8217
G01 X11.4811 Y18.1161
G01 X11.4481 Y18.1716
G01 X11.4169 Y18.2182
G01 X11.2223 Y18.4926
G01 X11.1833 Y18.5440
G01 X11.1471 Y18.5868
G01 X10.9229 Y18.8377
G01 X10.8784 Y18.8844
G01 X10.8377 Y18.9229
G01 X10.5868 Y19.1471
G01 X10.5440 Y19.1833
G01 X10.4926 Y19.2223
G01 X10.2182 Y19.4169
G01 X10.1644 Y19.4526
G01 X10.1161 Y19.4811
G01 X9.7969 Y19.6570
G01 X9.7643 Y19.6732
G01 X9.7131 Y19.6961
G01 X9.4022 Y19.8249
G01 X9.3498 Y19.8449
G01 X9.2884 Y19.8647
G01 X8.9652 Y19.9578
G01 X8.9027 Y19.9737
G01 X8.8476 Y19.9846
G01 X8.5160 Y20.0410
G01 X8.4521 Y20.0498
G01 X8.3962 Y20.0545
G01 X8.0280 Y20.0746
G01 X7.2500 Y20.0750
G00 X7.2500 Y20.0750
G01 F100.00
G01 Z-0.8000
G01 F100.00
G01 X8.0280 Y20.0746
G01 X8.3962 Y20.0545
G01 X8.4521 Y20.0498
G01 X8.5160 Y20.0410
G01 X8.8476 Y19.9846
G01 X8.9027 Y19.9737
G01 X8.9652 Y19.9578
G01 X9.2884 Y19.8647
G01 X9.3498 Y19.8449
G01 X9.4022 Y19.8249
G01 X9.7131 Y19.6961
G01 X9.7643 Y19.6732
G01 X9.7969 Y19.6570
G01 X10.1161 Y19.4811
G01 X10.1644 Y19.4526
G01 X10.2182 Y19.4169
G01 X10.4926 Y19.2223
G01 X10.5440 Y19.1833
G01 X10.5868 Y19.1471
G01 X10.8377 Y18.9229
G01 X10.8784 Y18.8844
G01 X10.9229 Y18.8377
G01 X11.1471 Y18.5868
G01 X11.1833 Y18.5440
G01 X11.2223 Y18.4926
G01 X11.4169 Y18.2182
G01 X11.4481 Y18.1716
G01 X11.4811 Y18.1161
G01 X11.6438 Y17.8217
G01 X11.6696 Y17.7718
G01 X11.6850 Y17.7388
G01 X11.8249 Y17.4022
G01 X11.8476 Y17.3419
G01 X11.8647 Y17.2884
G01 X11.9578 Y16.9652
G01 X11.9718 Y16.9109
G01 X11.9795 Y16.8753
G01 X12.0410 Y16.5160
G01 X12.0488 Y16.4604
G01 X12.0545 Y16.3962
G01 X12.0733 Y16.0603
G01 X12.0750 Y16.0000
G01 X12.0750 Y11.1250
G00 X12.0750 Y11.1250
G01 F100.00
G01 Z-1.0000
G01 F100.00
G01 X12.0750 Y16.0000
G01 X12.0733 Y16.0603
G01 X12.0545 Y16.3962
G01 X12.0488 Y16.4604
G01 X12.0410 Y16.5160
G01 X11.9795 Y16.8753
G01 X11.9718 Y16.9109
G01 X11.9578 Y16.9652
G01 X11.8647 Y17.2884
G01 X11.8476 Y17.3419
G01 X11.8249 Y17.4022
G01 X11.6850 Y17.7388
G01 X11.6696 Y17.7718
G01 X11.6438 Y17.8217
G01 X11.4811 Y18.1161
G01 X11.4481 Y18.1716
G01 X11.4169 Y18.2182
G01 X11.2223 Y18.4926
G01 X11.1833 Y18.5440
G01 X11.1471 Y18.5868
G01 X10.9229 Y18.8377
G01 X10.8784 Y18.8844
G01 X10.8377 Y18.9229
G01 X10.5868 Y19.1471
G01 X10.5440 Y19.1833
G01 X10.4926 Y19.2223
G01 X10.2182 Y19.4169
G01 X10.1644 Y19.4526
G01 X10.1161 Y19.4811
G01 X9.7969 Y19.6570
G01 X9.7643 Y19.6732
G01 X9.7131 Y19.6961
G01 X9.4022 Y19.8249
G01 X9.3498 Y19.8449
G01 X9.2884 Y19.8647
G01 X8.9652 Y19.9578
G01 X8.9027 Y19.9737
G01 X8.8476 Y19.9846
G01 X8.5160 Y20.0410
G01 X8.4521 Y20.0498
G01 X8.3962 Y20.0545
G01 X8.0280 Y20.0746
G01 X7.2500 Y20.0750
G00 X7.2500 Y20.0750
G01 F100.00
G01 Z-1.2000
G01 F100.00
G01 X8.0280 Y20.0746
G01 X8.3962 Y20.0545
G01 X8.4521 Y20.0498
G01 X8.5160 Y20.0410
G01 X8.8476 Y19.9846
G01 X8.9027 Y19.9737
G01 X8.9652 Y19.9578
G01 X9.2884 Y19.8647
G01 X9.3498 Y19.8449
G01 X9.4022 Y19.8249
G01 X9.7131 Y19.6961
G01 X9.7643 Y19.6732
G01 X9.7969 Y19.6570
G01 X10.1161 Y19.4811
G01 X10.1644 Y19.4526
G01 X10.2182 Y19.4169
G01 X10.4926 Y19.2223
G01 X10.5440 Y19.1833
G01 X10.5868 Y19.1471
G01 X10.8377 Y18.9229
G01 X10.8784 Y18.8844
G01 X10.9229 Y18.8377
G01 X11.1471 Y18.5868
G01 X11.1833 Y18.5440
G01 X11.2223 Y18.4926
G01 X11.4169 Y18.2182
G01 X11.4481 Y18.1716
G01 X11.4811 Y18.1161
G01 X11.6438 Y17.8217
G01 X11.6696 Y17.7718
G01 X11.6850 Y17.7388
G01 X11.8249 Y17.4022
G01 X11.8476 Y17.3419
G01 X11.8647 Y17.2884
G01 X11.9578 Y16.9652
G01 X11.9718 Y16.9109
G01 X11.9795 Y16.8753
G01 X12.0410 Y16.5160
G01 X12.0488 Y16.4604
G01 X12.0545 Y16.3962
G01 X12.0733 Y16.0603
G01 X12.0750 Y16.0000
G01 X12.0750 Y11.1250
G00 X12.0750 Y11.1250
G01 F100.00
G01 Z-1.4000
G01 F100.00
G01 X12.0750 Y16.0000
G01 X12.0733 Y16.0603
G01 X12.0545 Y16.3962
G01 X12.0488 Y16.4604
G01 X12.0410 Y16.5160
G01 X11.9795 Y16.8753
G01 X11.9718 Y16.9109
G01 X11.9578 Y16.9652
G01 X11.8647 Y17.2884
G01 X11.8476 Y17.3419
G01 X11.8249 Y17.4022
G01 X11.6850 Y17.7388
G01 X11.6696 Y17.7718
G01 X11.6438 Y17.8217
G01 X11.4811 Y18.1161
G01 X11.4481 Y18.1716
G01 X11.4169 Y18.2182
G01 X11.2223 Y18.4926
G01 X11.1833 Y18.5440
G01 X11.1471 Y18.5868
G01 X10.9229 Y18.8377
G01 X10.8784 Y18.8844
G01 X10.8377 Y18.9229
G01 X10.5868 Y19.1471
G01 X10.5440 Y19.1833
G01 X10.4926 Y19.2223
G01 X10.2182 Y19.4169
G01 X10.1644 Y19.4526
G01 X10.1161 Y19.4811
G01 X9.7969 Y19.6570
G01 X9.7643 Y19.6732
G01 X9.7131 Y19.6961
G01 X9.4022 Y19.8249
G01 X9.3498 Y19.8449
G01 X9.2884 Y19.8647
G01 X8.9652 Y19.9578
G01 X8.9027 Y19.9737
G01 X8.8476 Y19.9846
G01 X8.5160 Y20.0410
G01 X8.4521 Y20.0498
G01 X8.3962 Y20.0545
G01 X8.0280 Y20.0746
G01 X7.2500 Y20.0750
G00 X7.2500 Y20.0750
G01 F100.00
G01 Z-1.6000
G01 F100.00
G01 X8.0280 Y20.0746
G01 X8.3962 Y20.0545
G01 X8.4521 Y20.0498
G01 X8.5160 Y20.0410
G01 X8.8476 Y19.9846
G01 X8.9027 Y19.9737
G01 X8.9652 Y19.9578
G01 X9.2884 Y19.8647
G01 X9.3498 Y19.8449
G01 X9.4022 Y19.8249
G01 X9.7131 Y19.6961
G01 X9.7643 Y19.6732
G01 X9.7969 Y19.6570
G01 X10.1161 Y19.4811
G01 X10.1644 Y19.4526
G01 X10.2182 Y19.4169
G01 X10.4926 Y19.2223
G01 X10.5440 Y19.1833
G01 X10.5868 Y19.1471
G01 X10.8377 Y18.9229
G01 X10.8784 Y18.8844
G01 X10.9229 Y18.8377
G01 X11.1471 Y18.5868
G01 X11.1833 Y18.5440
G01 X11.2223 Y18.4926
G01 X11.4169 Y18.2182
G01 X11.4481 Y18.1716
G01 X11.4811 Y18.1161
G01 X11.6438 Y17.8217
G01 X11.6696 Y17.7718
G01 X11.6850 Y17.7388
G01 X11.8249 Y17.4022
G01 X11.8476 Y17.3419
G01 X11.8647 Y17.2884
G01 X11.9578 Y16.9652
G01 X11.9718 Y16.9109
G01 X11.9795 Y16.8753
G01 X12.0410 Y16.5160
G01 X12.0488 Y16.4604
G01 X12.0545 Y16.3962
G01 X12.0733 Y16.0603
G01 X12.0750 Y16.0000
G01 X12.0750 Y11.1250
G00 X12.0750 Y11.1250
G01 F100.00
G01 Z-1.8000
G01 F100.00
G01 X12.0750 Y16.0000
G01 X12.0733 Y16.0603
G01 X12.0545 Y16.3962
G01 X12.0488 Y16.4604
G01 X12.0410 Y16.5160
G01 X11.9795 Y16.8753
G01 X11.9718 Y16.9109
G01 X11.9578 Y16.9652
G01 X11.8647 Y17.2884
G01 X11.8476 Y17.3419
G01 X11.8249 Y17.4022
G01 X11.6850 Y17.7388
G01 X11.6696 Y17.7718
G01 X11.6438 Y17.8217
G01 X11.4811 Y18.1161
G01 X11.4481 Y18.1716
G01 X11.4169 Y18.2182
G01 X11.2223 Y18.4926
G01 X11.1833 Y18.5440
G01 X11.1471 Y18.5868
G01 X10.9229 Y18.8377
G01 X10.8784 Y18.8844
G01 X10.8377 Y18.9229
G01 X10.5868 Y19.1471
G01 X10.5440 Y19.1833
G01 X10.4926 Y19.2223
G01 X10.2182 Y19.4169
G01 X10.1644 Y19.4526
G01 X10.1161 Y19.4811
G01 X9.7969 Y19.6570
G01 X9.7643 Y19.6732
G01 X9.7131 Y19.6961
G01 X9.4022 Y19.8249
G01 X9.3498 Y19.8449
G01 X9.2884 Y19.8647
G01 X8.9652 Y19.9578
G01 X8.9027 Y19.9737
G01 X8.8476 Y19.9846
G01 X8.5160 Y20.0410
G01 X8.4521 Y20.0498
G01 X8.3962 Y20.0545
G01 X8.0280 Y20.0746
G01 X7.2500 Y20.0750
G00 X7.2500 Y20.0750
G01 F100.00
G01 Z-2.0000
G01 F100.00
G01 X8.0280 Y20.0746
G01 X8.3962 Y20.0545
G01 X8.4521 Y20.0498
G01 X8.5160 Y20.0410
G01 X8.8476 Y19.9846
G01 X8.9027 Y19.9737
G01 X8.9652 Y19.9578
G01 X9.2884 Y19.8647
G01 X9.3498 Y19.8449
G01 X9.4022 Y19.8249
G01 X9.7131 Y19.6961
G01 X9.7643 Y19.6732
G01 X9.7969 Y19.6570
G01 X10.1161 Y19.4811
G01 X10.1644 Y19.4526
G01 X10.2182 Y19.4169
G01 X10.4926 Y19.2223
G01 X10.5440 Y19.1833
G01 X10.5868 Y19.1471
G01 X10.8377 Y18.9229
G01 X10.8784 Y18.8844
G01 X10.9229 Y18.8377
G01 X11.1471 Y18.5868
G01 X11.1833 Y18.5440
G01 X11.2223 Y18.4926
G01 X11.4169 Y18.2182
G01 X11.4481 Y18.1716
G01 X11.4811 Y18.1161
G01 X11.6438 Y17.8217
G01 X11.6696 Y17.7718
G01 X11.6850 Y17.7388
G01 X11.8249 Y17.4022
G01 X11.8476 Y17.3419
G01 X11.8647 Y17.2884
G01 X11.9578 Y16.9652
G01 X11.9718 Y16.9109
G01 X11.9795 Y16.8753
G01 X12.0410 Y16.5160
G01 X12.0488 Y16.4604
G01 X12.0545 Y16.3962
G01 X12.0733 Y16.0603
G01 X12.0750 Y16.0000
G01 X12.0750 Y11.1250
G00 Z2.0000
G00 X4.7500 Y20.0750
G01 F100.00
G01 Z-0.2000
G01 F100.00
G01 X3.9720 Y20.0746
G01 X3.6038 Y20.0545
G01 X3.5479 Y20.0498
G01 X3.4840 Y20.0410
G01 X3.1524 Y19.9846
G01 X3.0973 Y19.9737
G01 X3.0348 Y19.9578
G01 X2.7116 Y19.8647
G01 X2.6502 Y19.8449
G01 X2.5978 Y19.8249
G01 X2.2869 Y19.6961
G01 X2.2357 Y19.6732
G01 X2.2031 Y19.6570
G01 X1.8839 Y19.4811
G01 X1.8356 Y19.4526
G01 X1.7818 Y19.4169
G01 X1.5074 Y19.2223
G01 X1.4560 Y19.1833
G01 X1.4132 Y19.1471
G01 X1.1623 Y18.9229
G01 X1.1216 Y18.8844
G01 X1.0771 Y18.8377
G01 X0.8529 Y18.5868
G01 X0.8167 Y18.5440
G01 X0.7777 Y18.4926
G01 X0.5831 Y18.2182
G01 X0.5519 Y18.1716
G01 X0.5189 Y18.1161
G01 X0.3562 Y17.8217
G01 X0.3304 Y17.7718
G01 X0.3150 Y17.7388
G01 X0.1751 Y17.4022
G01 X0.1524 Y17.3419
G01 X0.1353 Y17.2884
G01 X0.0422 Y16.9652
G01 X0.0282 Y16.9109
G01 X0.0205 Y16.8753
G01 X-0.0410 Y16.5160
G01 X-0.0488 Y16.4604
G01 X-0.0545 Y16.3962
G01 X-0.0733 Y16.0603
G01 X-0.0750 Y16.0000
G01 X-0.0750 Y11.1250
G00 X-0.0750 Y11.1250
G01 F100.00
G01 Z-0.4000
G01 F100.00
G01 X-0.0750 Y16.0000
G01 X-0.0733 Y16.0603
G01 X-0.0545 Y16.3962
G01 X-0.0488 Y16.4604
G01 X-0.0410 Y16.5160
G01 X0.0205 Y16.8753
G01 X0.0282 Y16.9109
G01 X0.0422 Y16.9652
G01 X0.1353 Y17.2884
G01 X0.1524 Y17.3419
G01 X0.1751 Y17.4022
G01 X0.3150 Y17.7388
G01 X0.3304 Y17.7718
G01 X0.3562 Y17.8217
G01 X0.5189 Y18.1161
G01 X0.5519 Y18.1716
G01 X0.5831 Y18.2182
G01 X0.7777 Y18.4926
G01 X0.8167 Y18.5440
G01 X0.8529 Y18.5868
G01 X1.0771 Y18.8377
G01 X1.1216 Y18.8844
G01 X1.1623 Y18.9229
G01 X1.4132 Y19.1471
G01 X1.4560 Y19.1833
G01 X1.5074 Y19.2223
G01 X1.7818 Y19.4169
G01 X1.8356 Y19.4526
G01 X1.8839 Y19.4811
G01 X2.2031 Y19.6570
G01 X2.2357 Y19.6732
G01 X2.2869 Y19.6961
G01 X2.5978 Y19.8249
G01 X2.6502 Y19.8449
G01 X2.7116 Y19.8647
G01 X3.0348 Y19.9578
G01 X3.0973 Y19.9737
G01 X3.1524 Y19.9846
G01 X3.4840 Y20.0410
G01 X3.5479 Y20.0498
G01 X3.6038 Y20.0545
G01 X3.9720 Y20.0746
G01 X4.7500 Y20.0750
G00 X4.7500 Y20.0750
G01 F100.00
G01 Z-0.6000
G01 F100.00
G01 X3.9720 Y20.0746
G01 X3.6038 Y20.0545
G01 X3.5479 Y20.0498
G01 X3.4840 Y20.0410
G01 X3.1524 Y19.9846
G01 X3.0973 Y19.9737
G01 X3.0348 Y19.9578
G01 X2.7116 Y19.8647
G01 X2.6502 Y19.8449
G01 X2.5978 Y19.8249
G01 X2.2869 Y19.6961
G01 X2.2357 Y19.6732
G01 X2.2031 Y19.6570
G01 X1.8839 Y19.4811
G01 X1.8356 Y19.4526
G01 X1.7818 Y19.4169
G01 X1.5074 Y19.2223
G01 X1.4560 Y19.1833
G01 X1.4132 Y19.1471
G01 X1.1623 Y18.9229
G01 X1.1216 Y18.8844
G01 X1.0771 Y18.8377
G01 X0.8529 Y18.5868
G01 X0.8167 Y18.5440
G01 X0.7777 Y18.4926
G01 X0.5831 Y18.2182
G01 X0.5519 Y18.1716
G01 X0.5189 Y18.1161
G01 X0.3562 Y17.8217
G01 X0.3304 Y17.7718
G01 X0.3150 Y17.7388
G01 X0.1751 Y17.4022
G01 X0.1524 Y17.3419
G01 X0.1353 Y17.2884
G01 X0.0422 Y16.9652
G01 X0.0282 Y16.9109
G01 X0.0205 Y16.8753
G01 X-0.0410 Y16.5160
G01 X-0.0488 Y16.4604
G01 X-0.0545 Y16.3962
G01 X-0.0733 Y16.0603
G01 X-0.0750 Y16.0000
G01 X-0.0750 Y11.1250
G00 X-0.0750 Y11.1250
G01 F100.00
G01 Z-0.8000
G01 F100.00
G01 X-0.0750 Y16.0000
G01 X-0.0733 Y16.0603
G01 X-0.0545 Y16.3962
G01 X-0.0488 Y16.4604
G01 X-0.0410 Y16.5160
G01 X0.0205 Y16.8753
G01 X0.0282 Y16.9109
G01 X0.0422 Y16.9652
G01 X0.1353 Y17.2884
G01 X0.1524 Y17.3419
G01 X0.1751 Y17.4022
G01 X0.3150 Y17.7388
G01 X0.3304 Y17.7718
G01 X0.3562 Y17.8217
G01 X0.5189 Y18.1161
G01 X0.5519 Y18.1716
G01 X0.5831 Y18.2182
G01 X0.7777 Y18.4926
G01 X0.8167 Y18.5440
G01 X0.8529 Y18.5868
G01 X1.0771 Y18.8377
G01 X1.1216 Y18.8844
G01 X1.1623 Y18.9229
G01 X1.4132 Y19.1471
G01 X1.4560 Y19.1833
G01 X1.5074 Y19.2223
G01 X1.7818 Y19.4169
G01 X1.8356 Y19.4526
G01 X1.8839 Y19.4811
G01 X2.2031 Y19.6570
G01 X2.2357 Y19.6732
G01 X2.2869 Y19.6961
G01 X2.5978 Y19.8249
G01 X2.6502 Y19.8449
G01 X2.7116 Y19.8647
G01 X3.0348 Y19.9578
G01 X3.0973 Y19.9737
G01 X3.1524 Y19.9846
G01 X3.4840 Y20.0410
G01 X3.5479 Y20.0498
G01 X3.6038 Y20.0545
G01 X3.9720 Y20.0746
G01 X4.7500 Y20.0750
G00 X4.7500 Y20.0750
G01 F100.00
G01 Z-1.0000
G01 F100.00
G01 X3.9720 Y20.0746
G01 X3.6038 Y20.0545
G01 X3.5479 Y20.0498
G01 X3.4840 Y20.0410
G01 X3.1524 Y19.9846
G01 X3.0973 Y19.9737
G01 X3.0348 Y19.9578
G01 X2.7116 Y19.8647
G01 X2.6502 Y19.8449
G01 X2.5978 Y19.8249
G01 X2.2869 Y19.6961
G01 X2.2357 Y19.6732
G01 X2.2031 Y19.6570
G01 X1.8839 Y19.4811
G01 X1.8356 Y19.4526
G01 X1.7818 Y19.4169
G01 X1.5074 Y19.2223
G01 X1.4560 Y19.1833
G01 X1.4132 Y19.1471
G01 X1.1623 Y18.9229
G01 X1.1216 Y18.8844
G01 X1.0771 Y18.8377
G01 X0.8529 Y18.5868
G01 X0.8167 Y18.5440
G01 X0.7777 Y18.4926
G01 X0.5831 Y18.2182
G01 X0.5519 Y18.1716
G01 X0.5189 Y18.1161
G01 X0.3562 Y17.8217
G01 X0.3304 Y17.7718
G01 X0.3150 Y17.7388
G01 X0.1751 Y17.4022
G01 X0.1524 Y17.3419
G01 X0.1353 Y17.2884
G01 X0.0422 Y16.9652
G01 X0.0282 Y16.9109
G01 X0.0205 Y16.8753
G01 X-0.0410 Y16.5160
G01 X-0.0488 Y16.4604
G01 X-0.0545 Y16.3962
G01 X-0.0733 Y16.0603
G01 X-0.0750 Y16.0000
G01 X-0.0750 Y11.1250
G00 X-0.0750 Y11.1250
G01 F100.00
G01 Z-1.2000
G01 F100.00
G01 X-0.0750 Y16.0000
G01 X-0.0733 Y16.0603
G01 X-0.0545 Y16.3962
G01 X-0.0488 Y16.4604
G01 X-0.0410 Y16.5160
G01 X0.0205 Y16.8753
G01 X0.0282 Y16.9109
G01 X0.0422 Y16.9652
G01 X0.1353 Y17.2884
G01 X0.1524 Y17.3419
G01 X0.1751 Y17.4022
G01 X0.3150 Y17.7388
G01 X0.3304 Y17.7718
G01 X0.3562 Y17.8217
G01 X0.5189 Y18.1161
G01 X0.5519 Y18.1716
G01 X0.5831 Y18.2182
G01 X0.7777 Y18.4926
G01 X0.8167 Y18.5440
G01 X0.8529 Y18.5868
G01 X1.0771 Y18.8377
G01 X1.1216 Y18.8844
G01 X1.1623 Y18.9229
G01 X1.4132 Y19.1471
G01 X1.4560 Y19.1833
G01 X1.5074 Y19.2223
G01 X1.7818 Y19.4169
G01 X1.8356 Y19.4526
G01 X1.8839 Y19.4811
G01 X2.2031 Y19.6570
G01 X2.2357 Y19.6732
G01 X2.2869 Y19.6961
G01 X2.5978 Y19.8249
G01 X2.6502 Y19.8449
G01 X2.7116 Y19.8647
G01 X3.0348 Y19.9578
G01 X3.0973 Y19.9737
G01 X3.1524 Y19.9846
G01 X3.4840 Y20.0410
G01 X3.5479 Y20.0498
G01 X3.6038 Y20.0545
G01 X3.9720 Y20.0746
G01 X4.7500 Y20.0750
G00 X4.7500 Y20.0750
G01 F100.00
G01 Z-1.4000
G01 F100.00
G01 X3.9720 Y20.0746
G01 X3.6038 Y20.0545
G01 X3.5479 Y20.0498
G01 X3.4840 Y20.0410
G01 X3.1524 Y19.9846
G01 X3.0973 Y19.9737
G01 X3.0348 Y19.9578
G01 X2.7116 Y19.8647
G01 X2.6502 Y19.8449
G01 X2.5978 Y19.8249
G01 X2.2869 Y19.6961
G01 X2.2357 Y19.6732
G01 X2.2031 Y19.6570
G01 X1.8839 Y19.4811
G01 X1.8356 Y19.4526
G01 X1.7818 Y19.4169
G01 X1.5074 Y19.2223
G01 X1.4560 Y19.1833
G01 X1.4132 Y19.1471
G01 X1.1623 Y18.9229
G01 X1.1216 Y18.8844
G01 X1.0771 Y18.8377
G01 X0.8529 Y18.5868
G01 X0.8167 Y18.5440
G01 X0.7777 Y18.4926
G01 X0.5831 Y18.2182
G01 X0.5519 Y18.1716
G01 X0.5189 Y18.1161
G01 X0.3562 Y17.8217
G01 X0.3304 Y17.7718
G01 X0.3150 Y17.7388
G01 X0.1751 Y17.4022
G01 X0.1524 Y17.3419
G01 X0.1353 Y17.2884
G01 X0.0422 Y16.9652
G01 X0.0282 Y16.9109
G01 X0.0205 Y16.8753
G01 X-0.0410 Y16.5160
G01 X-0.0488 Y16.4604
G01 X-0.0545 Y16.3962
G01 X-0.0733 Y16.0603
G01 X-0.0750 Y16.0000
G01 X-0.0750 Y11.1250
G00 X-0.0750 Y11.1250
G01 F100.00
G01 Z-1.6000
G01 F100.00
G01 X-0.0750 Y16.0000
G01 X-0.0733 Y16.0603
G01 X-0.0545 Y16.3962
G01 X-0.0488 Y16.4604
G01 X-0.0410 Y16.5160
G01 X0.0205 Y16.8753
G01 X0.0282 Y16.9109
G01 X0.0422 Y16.9652
G01 X0.1353 Y17.2884
G01 X0.1524 Y17.3419
G01 X0.1751 Y17.4022
G01 X0.3150 Y17.7388
G01 X0.3304 Y17.7718
G01 X0.3562 Y17.8217
G01 X0.5189 Y18.1161
G01 X0.5519 Y18.1716
G01 X0.5831 Y18.2182
G01 X0.7777 Y18.4926
G01 X0.8167 Y18.5440
G01 X0.8529 Y18.5868
G01 X1.0771 Y18.8377
G01 X1.1216 Y18.8844
G01 X1.1623 Y18.9229
G01 X1.4132 Y19.1471
G01 X1.4560 Y19.1833
G01 X1.5074 Y19.2223
G01 X1.7818 Y19.4169
G01 X1.8356 Y19.4526
G01 X1.8839 Y19.4811
G01 X2.2031 Y19.6570
G01 X2.2357 Y19.6732
G01 X2.2869 Y19.6961
G01 X2.5978 Y19.8249
G01 X2.6502 Y19.8449
G01 X2.7116 Y19.8647
G01 X3.0348 Y19.9578
G01 X3.0973 Y19.9737
G01 X3.1524 Y19.9846
G01 X3.4840 Y20.0410
G01 X3.5479 Y20.0498
G01 X3.6038 Y20.0545
G01 X3.9720 Y20.0746
G01 X4.7500 Y20.0750
G00 X4.7500 Y20.0750
G01 F100.00
G01 Z-1.8000
G01 F100.00
G01 X3.9720 Y20.0746
G01 X3.6038 Y20.0545
G01 X3.5479 Y20.0498
G01 X3.4840 Y20.0410
G01 X3.1524 Y19.9846
G01 X3.0973 Y19.9737
G01 X3.0348 Y19.9578
G01 X2.7116 Y19.8647
G01 X2.6502 Y19.8449
G01 X2.5978 Y19.8249
G01 X2.2869 Y19.6961
G01 X2.2357 Y19.6732
G01 X2.2031 Y19.6570
G01 X1.8839 Y19.4811
G01 X1.8356 Y19.4526
G01 X1.7818 Y19.4169
G01 X1.5074 Y19.2223
G01 X1.4560 Y19.1833
G01 X1.4132 Y19.1471
G01 X1.1623 Y18.9229
G01 X1.1216 Y18.8844
G01 X1.0771 Y18.8377
G01 X0.8529 Y18.5868
G01 X0.8167 Y18.5440
G01 X0.7777 Y18.4926
G01 X0.5831 Y18.2182
G01 X0.5519 Y18.1716
G01 X0.5189 Y18.1161
G01 X0.3562 Y17.8217
G01 X0.3304 Y17.7718
G01 X0.3150 Y17.7388
G01 X0.1751 Y17.4022
G01 X0.1524 Y17.3419
G01 X0.1353 Y17.2884
G01 X0.0422 Y16.9652
G01 X0.0282 Y16.9109
G01 X0.0205 Y16.8753
G01 X-0.0410 Y16.5160
G01 X-0.0488 Y16.4604
G01 X-0.0545 Y16.3962
G01 X-0.0733 Y16.0603
G01 X-0.0750 Y16.0000
G01 X-0.0750 Y11.1250
G00 X-0.0750 Y11.1250
G01 F100.00
G01 Z-2.0000
G01 F100.00
G01 X-0.0750 Y16.0000
G01 X-0.0733 Y16.0603
G01 X-0.0545 Y16.3962
G01 X-0.0488 Y16.4604
G01 X-0.0410 Y16.5160
G01 X0.0205 Y16.8753
G01 X0.0282 Y16.9109
G01 X0.0422 Y16.9652
G01 X0.1353 Y17.2884
G01 X0.1524 Y17.3419
G01 X0.1751 Y17.4022
G01 X0.3150 Y17.7388
G01 X0.3304 Y17.7718
G01 X0.3562 Y17.8217
G01 X0.5189 Y18.1161
G01 X0.5519 Y18.1716
G01 X0.5831 Y18.2182
G01 X0.7777 Y18.4926
G01 X0.8167 Y18.5440
G01 X0.8529 Y18.5868
G01 X1.0771 Y18.8377
G01 X1.1216 Y18.8844
G01 X1.1623 Y18.9229
G01 X1.4132 Y19.1471
G01 X1.4560 Y19.1833
G01 X1.5074 Y19.2223
G01 X1.7818 Y19.4169
G01 X1.8356 Y19.4526
G01 X1.8839 Y19.4811
G01 X2.2031 Y19.6570
G01 X2.2357 Y19.6732
G01 X2.2869 Y19.6961
G01 X2.5978 Y19.8249
G01 X2.6502 Y19.8449
G01 X2.7116 Y19.8647
G01 X3.0348 Y19.9578
G01 X3.0973 Y19.9737
G01 X3.1524 Y19.9846
G01 X3.4840 Y20.0410
G01 X3.5479 Y20.0498
G01 X3.6038 Y20.0545
G01 X3.9720 Y20.0746
G01 X4.7500 Y20.0750
G00 Z2.0000
M05
G00 Z2.0000
G00 Z20.00
G00 X0.0 Y0.0

M02