(G-CODE GENERATED BY FLATCAM v8.914 - www.flatcam.org - Version Date: 2019/04/23)

(Name: 3pin-F.Cu.gtl_iso_cnc)
(Type: G-code from Geometry)
(Units: MM)

(Created on Thursday, 02 May 2019 at 17:00)

(TOOL DIAMETER: 0.1 mm)
(Feedrate: 100.0 mm/min)
(Feedrate_Z: 100.0 mm/min)
(Feedrate rapids 200.0 mm/min)

(Z_Cut: -0.2 mm)
(Z_Move: 2.0 mm)
(Z Toolchange: 25.0 mm)
(X,Y Toolchange: 0.0000, 0.0000 mm)
(Z Start: None mm)
(Z End: 20.0 mm)
(Steps per circle: 64)
(Postprocessor Geometry: default)

(X range:    1.7017 ...    9.9080  mm)
(Y range:    1.1020 ...   18.0954  mm)

(Spindle Speed: 5000 RPM)

G21
G90
G94

G01 F100.00
G00 Z2.0000

M03 S5000
G00 X1.7017 Y11.7500
G01 F100.00
G01 Z-0.2000
G01 F100.00
G01 X1.7017 Y8.2500
G01 X1.7067 Y8.1606
G01 X1.7217 Y8.0724
G01 X1.7465 Y7.9863
G01 X1.7773 Y7.9112
G01 X1.7845 Y7.8962
G01 X1.8240 Y7.8253
G01 X1.8709 Y7.7589
G01 X1.8812 Y7.7459
G01 X1.9298 Y7.6915
G01 X3.2017 Y6.4193
G01 X3.2017 Y2.2458
G01 X3.2067 Y2.1606
G01 X3.2201 Y2.0805
G01 X3.2238 Y2.0643
G01 X3.2440 Y1.9942
G01 X3.2520 Y1.9724
G01 X3.2521 Y1.8458
G01 X3.2560 Y1.7745
G01 X3.2579 Y1.7580
G01 X3.2691 Y1.6917
G01 X3.2728 Y1.6755
G01 X3.2915 Y1.6109
G01 X3.2969 Y1.5952
G01 X3.3261 Y1.5255
G01 X3.3624 Y1.4592
G01 X3.3713 Y1.4451
G01 X3.4152 Y1.3836
G01 X3.4711 Y1.3211
G01 X3.5336 Y1.2652
G01 X3.6020 Y1.2166
G01 X3.6755 Y1.1761
G01 X3.7529 Y1.1440
G01 X3.8336 Y1.1208
G01 X3.9080 Y1.1079
G01 X3.9245 Y1.1060
G01 X3.9917 Y1.1022
G01 X4.0083 Y1.1022
G01 X4.0837 Y1.1067
G01 X4.1664 Y1.1208
G01 X4.2471 Y1.1440
G01 X4.3245 Y1.1761
G01 X4.3980 Y1.2166
G01 X4.4597 Y1.2602
G01 X4.4727 Y1.2705
G01 X4.5229 Y1.3154
G01 X4.5346 Y1.3271
G01 X4.5848 Y1.3836
G01 X4.6334 Y1.4520
G01 X4.6739 Y1.5255
G01 X4.7031 Y1.5952
G01 X4.7085 Y1.6109
G01 X4.7292 Y1.6836
G01 X4.7421 Y1.7580
G01 X4.7440 Y1.7745
G01 X4.7479 Y1.8458
G01 X4.7480 Y1.9724
G01 X4.7560 Y1.9942
G01 X4.7783 Y2.0724
G01 X4.7933 Y2.1606
G01 X4.7983 Y2.2500
G01 X4.7983 Y6.7500
G01 X4.7940 Y6.8311
G01 X4.7921 Y6.8476
G01 X4.7783 Y6.9276
G01 X4.7560 Y7.0058
G01 X4.7506 Y7.0214
G01 X4.7193 Y7.0964
G01 X4.6802 Y7.1676
G01 X4.6713 Y7.1816
G01 X4.6291 Y7.2411
G01 X4.6188 Y7.2541
G01 X4.5645 Y7.3145
G01 X3.2983 Y8.5807
G01 X3.2983 Y11.4193
G01 X3.4807 Y11.6017
G01 X5.5586 Y11.6017
G01 X5.5843 Y11.5973
G01 X5.6764 Y11.5889
G01 X5.7688 Y11.5904
G01 X5.7854 Y11.5916
G01 X5.8688 Y11.6026
G01 X5.8851 Y11.6057
G01 X5.9748 Y11.6281
G01 X6.0616 Y11.6601
G01 X6.1138 Y11.6845
G01 X6.1592 Y11.7086
G01 X6.1847 Y11.7240
G01 X6.2435 Y11.7638
G01 X6.3211 Y11.8280
G01 X6.3854 Y11.8945
G01 X6.3962 Y11.9070
G01 X6.4523 Y11.9805
G01 X6.5043 Y12.0668
G01 X6.5430 Y12.1507
G01 X6.5491 Y12.1662
G01 X6.5778 Y12.2541
G01 X6.5983 Y12.3527
G01 X6.6077 Y12.4530
G01 X6.6063 Y12.5454
G01 X6.6050 Y12.5620
G01 X6.5940 Y12.6454
G01 X6.5909 Y12.6617
G01 X6.5685 Y12.7514
G01 X6.5365 Y12.8382
G01 X6.5299 Y12.8534
G01 X6.4880 Y12.9358
G01 X5.7380 Y14.2348
G01 X5.6828 Y14.3191
G01 X5.6186 Y14.3967
G01 X5.5460 Y14.4666
G01 X5.4728 Y14.5230
G01 X5.4591 Y14.5324
G01 X5.3870 Y14.5758
G01 X5.3723 Y14.5836
G01 X5.2882 Y14.6219
G01 X5.2005 Y14.6510
G01 X5.1844 Y14.6553
G01 X5.0939 Y14.6740
G01 X4.9936 Y14.6834
G01 X4.8929 Y14.6815
G01 X4.7930 Y14.6684
G01 X4.6952 Y14.6441
G01 X4.6007 Y14.6091
G01 X4.5108 Y14.5637
G01 X4.4333 Y14.5132
G01 X4.4200 Y14.5034
G01 X4.3552 Y14.4497
G01 X4.3430 Y14.4384
G01 X4.2791 Y14.3716
G01 X4.2226 Y14.2984
G01 X4.2132 Y14.2847
G01 X4.1657 Y14.2054
G01 X4.1237 Y14.1139
G01 X4.0922 Y14.0182
G01 X4.0731 Y13.9277
G01 X4.0707 Y13.9113
G01 X4.0623 Y13.8192
G01 X4.0637 Y13.7268
G01 X4.0650 Y13.7102
G01 X4.0760 Y13.6268
G01 X4.0791 Y13.6105
G01 X4.1015 Y13.5208
G01 X4.1366 Y13.4264
G01 X4.1800 Y13.3401
G01 X4.2617 Y13.1983
G01 X3.1500 Y13.1983
G01 X3.0689 Y13.1940
G01 X3.0524 Y13.1921
G01 X2.9724 Y13.1783
G01 X2.8863 Y13.1535
G01 X2.8036 Y13.1193
G01 X2.7324 Y13.0802
G01 X2.7184 Y13.0713
G01 X2.6523 Y13.0242
G01 X2.5885 Y12.9674
G01 X1.9355 Y12.3145
G01 X1.8758 Y12.2477
G01 X1.8240 Y12.1747
G01 X1.7845 Y12.1038
G01 X1.7773 Y12.0888
G01 X1.7465 Y12.0137
G01 X1.7238 Y11.9357
G01 X1.7201 Y11.9195
G01 X1.7067 Y11.8394
G01 X1.7017 Y11.7500
G00 Z2.0000
G00 X1.7997 Y11.7500
G01 F100.00
G01 Z-0.2000
G01 F100.00
G01 X1.7997 Y8.2500
G01 X1.8041 Y8.1716
G01 X1.8172 Y8.0942
G01 X1.8390 Y8.0187
G01 X1.8703 Y7.9436
G01 X1.9070 Y7.8774
G01 X1.9508 Y7.8156
G01 X2.0029 Y7.7568
G01 X3.2997 Y6.4599
G01 X3.2997 Y2.2500
G01 X3.3041 Y2.1716
G01 X3.3167 Y2.0969
G01 X3.3381 Y2.0214
G01 X3.3500 Y1.9919
G01 X3.3500 Y1.8486
G01 X3.3545 Y1.7744
G01 X3.3663 Y1.7054
G01 X3.3865 Y1.6353
G01 X3.4144 Y1.5680
G01 X3.4496 Y1.5042
G01 X3.4918 Y1.4447
G01 X3.5404 Y1.3904
G01 X3.5947 Y1.3418
G01 X3.6518 Y1.3012
G01 X3.7180 Y1.2644
G01 X3.7827 Y1.2375
G01 X3.8581 Y1.2157
G01 X3.9272 Y1.2041
G01 X4.0000 Y1.2000
G01 X4.0728 Y1.2041
G01 X4.1446 Y1.2163
G01 X4.2147 Y1.2365
G01 X4.2820 Y1.2644
G01 X4.3458 Y1.2996
G01 X4.4030 Y1.3401
G01 X4.4615 Y1.3924
G01 X4.5082 Y1.4447
G01 X4.5518 Y1.5066
G01 X4.5856 Y1.5680
G01 X4.6125 Y1.6327
G01 X4.6337 Y1.7054
G01 X4.6461 Y1.7800
G01 X4.6500 Y1.8486
G01 X4.6500 Y1.9919
G01 X4.6610 Y2.0187
G01 X4.6828 Y2.0942
G01 X4.6959 Y2.1716
G01 X4.7003 Y2.2500
G01 X4.7003 Y6.7500
G01 X4.6959 Y6.8284
G01 X4.6821 Y6.9086
G01 X4.6610 Y6.9813
G01 X4.6321 Y7.0513
G01 X4.5930 Y7.1226
G01 X4.5457 Y7.1888
G01 X4.4952 Y7.2452
G01 X3.2003 Y8.5401
G01 X3.2003 Y11.4599
G01 X3.4401 Y11.6997
G01 X5.5687 Y11.6997
G01 X5.5935 Y11.6948
G01 X5.6829 Y11.6868
G01 X5.7698 Y11.6885
G01 X5.8560 Y11.6997
G01 X5.9486 Y11.7227
G01 X6.0301 Y11.7530
G01 X6.0524 Y11.7642
G01 X6.0639 Y11.7690
G01 X6.1102 Y11.7935
G01 X6.1326 Y11.8070
G01 X6.1853 Y11.8426
G01 X6.2523 Y11.8980
G01 X6.3184 Y11.9667
G01 X6.3713 Y12.0357
G01 X6.4162 Y12.1102
G01 X6.4560 Y12.1968
G01 X6.4831 Y12.2795
G01 X6.5014 Y12.3673
G01 X6.5098 Y12.4567
G01 X6.5083 Y12.5436
G01 X6.4958 Y12.6381
G01 X6.4748 Y12.7225
G01 X6.4446 Y12.8041
G01 X6.4031 Y12.8868
G01 X5.6531 Y14.1858
G01 X5.6040 Y14.2609
G01 X5.5486 Y14.3279
G01 X5.4821 Y14.3923
G01 X5.4109 Y14.4469
G01 X5.3340 Y14.4933
G01 X5.2498 Y14.5316
G01 X5.1644 Y14.5594
G01 X5.0793 Y14.5771
G01 X4.9927 Y14.5853
G01 X4.9002 Y14.5838
G01 X4.8112 Y14.5721
G01 X4.7214 Y14.5496
G01 X4.6399 Y14.5192
G01 X4.5623 Y14.4801
G01 X4.4847 Y14.4296
G01 X4.4156 Y14.3724
G01 X4.3516 Y14.3055
G01 X4.2987 Y14.2365
G01 X4.2538 Y14.1621
G01 X4.2150 Y14.0781
G01 X4.1869 Y13.9928
G01 X4.1686 Y13.9049
G01 X4.1602 Y13.8128
G01 X4.1622 Y13.7230
G01 X4.1736 Y13.6368
G01 X4.1944 Y13.5524
G01 X4.2264 Y13.4656
G01 X4.2662 Y13.3867
G01 X4.4315 Y13.1003
G01 X3.1472 Y13.1002
G01 X3.0716 Y13.0959
G01 X2.9942 Y13.0828
G01 X2.9187 Y13.0610
G01 X2.8461 Y13.0310
G01 X2.7751 Y12.9914
G01 X2.7134 Y12.9475
G01 X2.6558 Y12.8962
G01 X2.0048 Y12.2452
G01 X1.9525 Y12.1866
G01 X1.9070 Y12.1226
G01 X1.8703 Y12.0564
G01 X1.8390 Y11.9813
G01 X1.8167 Y11.9031
G01 X1.8041 Y11.8284
G01 X1.7997 Y11.7500
G00 Z2.0000
G00 X4.9320 Y10.8573
G01 F100.00
G01 Z-0.2000
G01 F100.00
G01 X4.1820 Y9.5583
G01 X4.1366 Y9.4684
G01 X4.1015 Y9.3739
G01 X4.0791 Y9.2842
G01 X4.0760 Y9.2679
G01 X4.0650 Y9.1845
G01 X4.0637 Y9.1679
G01 X4.0623 Y9.0755
G01 X4.0707 Y8.9834
G01 X4.0731 Y8.9670
G01 X4.0922 Y8.8766
G01 X4.1237 Y8.7809
G01 X4.1657 Y8.6893
G01 X4.2177 Y8.6030
G01 X4.2791 Y8.5231
G01 X4.3489 Y8.4506
G01 X4.4265 Y8.3863
G01 X4.5037 Y8.3354
G01 X4.5181 Y8.3271
G01 X4.6007 Y8.2857
G01 X4.6952 Y8.2506
G01 X4.7930 Y8.2264
G01 X4.8846 Y8.2141
G01 X4.9012 Y8.2129
G01 X4.9936 Y8.2114
G01 X5.0857 Y8.2198
G01 X5.1021 Y8.2222
G01 X5.1844 Y8.2394
G01 X5.2017 Y8.2441
G01 X5.2017 Y2.2500
G01 X5.2067 Y2.1606
G01 X5.2217 Y2.0724
G01 X5.2440 Y1.9942
G01 X5.2520 Y1.9724
G01 X5.2521 Y1.8458
G01 X5.2560 Y1.7745
G01 X5.2579 Y1.7580
G01 X5.2691 Y1.6917
G01 X5.2728 Y1.6755
G01 X5.2940 Y1.6029
G01 X5.3261 Y1.5255
G01 X5.3666 Y1.4520
G01 X5.4152 Y1.3836
G01 X5.4711 Y1.3211
G01 X5.5273 Y1.2705
G01 X5.5403 Y1.2602
G01 X5.5951 Y1.2213
G01 X5.6092 Y1.2124
G01 X5.6755 Y1.1761
G01 X5.7452 Y1.1469
G01 X5.7609 Y1.1415
G01 X5.8336 Y1.1208
G01 X5.9163 Y1.1067
G01 X6.0000 Y1.1020
G01 X6.0837 Y1.1067
G01 X6.1664 Y1.1208
G01 X6.2471 Y1.1440
G01 X6.3245 Y1.1761
G01 X6.3980 Y1.2166
G01 X6.4664 Y1.2652
G01 X6.5289 Y1.3211
G01 X6.5848 Y1.3836
G01 X6.6287 Y1.4451
G01 X6.6376 Y1.4592
G01 X6.6701 Y1.5181
G01 X6.6773 Y1.5330
G01 X6.7060 Y1.6029
G01 X6.7292 Y1.6836
G01 X6.7421 Y1.7580
G01 X6.7440 Y1.7745
G01 X6.7479 Y1.8458
G01 X6.7480 Y1.9724
G01 X6.7560 Y1.9942
G01 X6.7783 Y2.0724
G01 X6.7921 Y2.1524
G01 X6.7940 Y2.1689
G01 X6.7983 Y2.2500
G01 X6.7983 Y10.2547
G01 X6.7933 Y10.3441
G01 X6.7799 Y10.4242
G01 X6.7762 Y10.4404
G01 X6.7535 Y10.5184
G01 X6.7193 Y10.6011
G01 X6.6802 Y10.6723
G01 X6.6713 Y10.6864
G01 X6.6242 Y10.7525
G01 X6.5702 Y10.8132
G01 X6.5585 Y10.8250
G01 X6.4977 Y10.8789
G01 X6.4555 Y10.9091
G01 X6.4474 Y10.9209
G01 X6.3962 Y10.9877
G01 X6.3854 Y11.0003
G01 X6.3211 Y11.0667
G01 X6.2435 Y11.1310
G01 X6.1592 Y11.1862
G01 X6.0768 Y11.2280
G01 X6.0616 Y11.2347
G01 X5.9827 Y11.2639
G01 X5.9668 Y11.2688
G01 X5.8770 Y11.2909
G01 X5.7854 Y11.3032
G01 X5.7688 Y11.3044
G01 X5.6764 Y11.3059
G01 X5.5761 Y11.2965
G01 X5.4856 Y11.2778
G01 X5.4695 Y11.2735
G01 X5.3818 Y11.2444
G01 X5.2902 Y11.2024
G01 X5.2109 Y11.1549
G01 X5.1972 Y11.1455
G01 X5.1240 Y11.0891
G01 X5.0514 Y11.0192
G01 X4.9923 Y10.9482
G01 X4.9824 Y10.9348
G01 X4.9320 Y10.8573
G00 Z2.0000
G00 X5.0169 Y10.8083
G01 F100.00
G01 Z-0.2000
G01 F100.00
G01 X4.2669 Y9.5093
G01 X4.2264 Y9.4292
G01 X4.1952 Y9.3450
G01 X4.1731 Y9.2551
G01 X4.1617 Y9.1661
G01 X4.1602 Y9.0792
G01 X4.1682 Y8.9926
G01 X4.1869 Y8.9020
G01 X4.2150 Y8.8167
G01 X4.2524 Y8.7351
G01 X4.2987 Y8.6582
G01 X4.3533 Y8.5870
G01 X4.4156 Y8.5224
G01 X4.4847 Y8.4651
G01 X4.5623 Y8.4146
G01 X4.6399 Y8.3755
G01 X4.7241 Y8.3443
G01 X4.8112 Y8.3227
G01 X4.9030 Y8.3108
G01 X4.9899 Y8.3093
G01 X5.0821 Y8.3182
G01 X5.1698 Y8.3368
G01 X5.2524 Y8.3641
G01 X5.2997 Y8.3857
G01 X5.2997 Y2.2500
G01 X5.3041 Y2.1716
G01 X5.3172 Y2.0942
G01 X5.3390 Y2.0187
G01 X5.3500 Y1.9919
G01 X5.3500 Y1.8486
G01 X5.3539 Y1.7800
G01 X5.3670 Y1.7026
G01 X5.3865 Y1.6353
G01 X5.4144 Y1.5680
G01 X5.4496 Y1.5042
G01 X5.4918 Y1.4447
G01 X5.5404 Y1.3904
G01 X5.5970 Y1.3401
G01 X5.6566 Y1.2982
G01 X5.7180 Y1.2644
G01 X5.7827 Y1.2375
G01 X5.8554 Y1.2163
G01 X5.9272 Y1.2041
G01 X6.0000 Y1.2000
G01 X6.0728 Y1.2041
G01 X6.1446 Y1.2163
G01 X6.2147 Y1.2365
G01 X6.2820 Y1.2644
G01 X6.3458 Y1.2996
G01 X6.4053 Y1.3418
G01 X6.4596 Y1.3904
G01 X6.5082 Y1.4447
G01 X6.5504 Y1.5042
G01 X6.5856 Y1.5680
G01 X6.6125 Y1.6327
G01 X6.6337 Y1.7054
G01 X6.6461 Y1.7800
G01 X6.6500 Y1.8486
G01 X6.6500 Y1.9919
G01 X6.6610 Y2.0187
G01 X6.6828 Y2.0942
G01 X6.6962 Y2.1744
G01 X6.7003 Y2.2500
G01 X6.7003 Y10.2547
G01 X6.6959 Y10.3332
G01 X6.6821 Y10.4133
G01 X6.6610 Y10.4861
G01 X6.6321 Y10.5560
G01 X6.5930 Y10.6273
G01 X6.5457 Y10.6935
G01 X6.4932 Y10.7519
G01 X6.4366 Y10.8023
G01 X6.3823 Y10.8410
G01 X6.3697 Y10.8613
G01 X6.3148 Y10.9323
G01 X6.2544 Y10.9949
G01 X6.1875 Y11.0504
G01 X6.1077 Y11.1026
G01 X6.0301 Y11.1417
G01 X5.9459 Y11.1730
G01 X5.8588 Y11.1946
G01 X5.7726 Y11.2060
G01 X5.6801 Y11.2080
G01 X5.5907 Y11.1996
G01 X5.5056 Y11.1819
G01 X5.4176 Y11.1532
G01 X5.3360 Y11.1158
G01 X5.2615 Y11.0710
G01 X5.1879 Y11.0148
G01 X5.1233 Y10.9525
G01 X5.0677 Y10.8856
G01 X5.0169 Y10.8083
G00 Z2.0000
G00 X6.8133 Y10.8811
G01 F100.00
G01 Z-0.2000
G01 F100.00
G01 X6.8750 Y10.8124
G01 X6.9438 Y10.7506
G01 X6.9567 Y10.7403
G01 X7.0253 Y10.6916
G01 X7.0394 Y10.6828
G01 X7.1204 Y10.6383
G01 X7.2017 Y10.6044
G01 X7.2017 Y2.2500
G01 X7.2067 Y2.1606
G01 X7.2201 Y2.0805
G01 X7.2238 Y2.0643
G01 X7.2440 Y1.9942
G01 X7.2520 Y1.9724
G01 X7.2521 Y1.8458
G01 X7.2567 Y1.7663
G01 X7.2708 Y1.6836
G01 X7.2915 Y1.6109
G01 X7.2969 Y1.5952
G01 X7.3227 Y1.5330
G01 X7.3299 Y1.5181
G01 X7.3666 Y1.4520
G01 X7.4152 Y1.3836
G01 X7.4711 Y1.3211
G01 X7.5336 Y1.2652
G01 X7.6020 Y1.2166
G01 X7.6755 Y1.1761
G01 X7.7529 Y1.1440
G01 X7.8255 Y1.1228
G01 X7.8417 Y1.1191
G01 X7.9080 Y1.1079
G01 X7.9245 Y1.1060
G01 X8.0000 Y1.1020
G01 X8.0837 Y1.1067
G01 X8.1664 Y1.1208
G01 X8.2471 Y1.1440
G01 X8.3245 Y1.1761
G01 X8.3980 Y1.2166
G01 X8.4664 Y1.2652
G01 X8.5289 Y1.3211
G01 X8.5848 Y1.3836
G01 X8.6287 Y1.4451
G01 X8.6376 Y1.4592
G01 X8.6701 Y1.5181
G01 X8.6773 Y1.5330
G01 X8.7060 Y1.6029
G01 X8.7292 Y1.6836
G01 X8.7421 Y1.7580
G01 X8.7440 Y1.7745
G01 X8.7479 Y1.8458
G01 X8.7480 Y1.9724
G01 X8.7560 Y1.9942
G01 X8.7783 Y2.0724
G01 X8.7921 Y2.1524
G01 X8.7940 Y2.1689
G01 X8.7983 Y2.2500
G01 X8.7983 Y10.5494
G01 X9.0142 Y10.5494
G01 X9.1105 Y10.5550
G01 X9.2098 Y10.5719
G01 X9.2987 Y10.5972
G01 X9.3143 Y10.6027
G01 X9.3996 Y10.6383
G01 X9.4878 Y10.6870
G01 X9.5699 Y10.7453
G01 X9.6450 Y10.8124
G01 X9.7121 Y10.8875
G01 X9.7704 Y10.9696
G01 X9.8191 Y11.0577
G01 X9.8546 Y11.1430
G01 X9.8601 Y11.1587
G01 X9.8855 Y11.2476
G01 X9.9012 Y11.3386
G01 X9.9031 Y11.3551
G01 X9.9078 Y11.4391
G01 X9.9078 Y11.4557
G01 X9.9024 Y11.5479
G01 X9.8855 Y11.6472
G01 X9.8576 Y11.7440
G01 X9.8225 Y11.8294
G01 X9.8153 Y11.8444
G01 X9.7704 Y11.9251
G01 X9.7171 Y12.0006
G01 X9.7067 Y12.0136
G01 X9.6450 Y12.0824
G01 X9.5699 Y12.1495
G01 X9.4947 Y12.2031
G01 X9.4806 Y12.2119
G01 X9.4070 Y12.2526
G01 X9.3921 Y12.2598
G01 X9.3066 Y12.2950
G01 X9.2179 Y12.3208
G01 X9.2017 Y12.3245
G01 X9.1105 Y12.3397
G01 X9.0100 Y12.3454
G01 X7.5100 Y12.3454
G01 X7.4095 Y12.3397
G01 X7.3102 Y12.3229
G01 X7.2134 Y12.2950
G01 X7.1280 Y12.2598
G01 X7.1130 Y12.2526
G01 X7.0394 Y12.2119
G01 X7.0253 Y12.2031
G01 X6.9501 Y12.1495
G01 X6.8811 Y12.0881
G01 X6.8693 Y12.0763
G01 X6.8079 Y12.0073
G01 X6.7496 Y11.9251
G01 X6.7009 Y11.8370
G01 X6.6624 Y11.7440
G01 X6.6345 Y11.6472
G01 X6.6188 Y11.5561
G01 X6.6169 Y11.5396
G01 X6.6120 Y11.4474
G01 X6.6169 Y11.3551
G01 X6.6188 Y11.3386
G01 X6.6329 Y11.2557
G01 X6.6366 Y11.2395
G01 X6.6624 Y11.1508
G01 X6.7009 Y11.0577
G01 X6.7496 Y10.9696
G01 X6.8029 Y10.8941
G01 X6.8133 Y10.8811
G00 Z2.0000
G00 X6.8863 Y10.9464
G01 F100.00
G01 Z-0.2000
G01 F100.00
G01 X6.9443 Y10.8817
G01 X7.0091 Y10.8237
G01 X7.0844 Y10.7700
G01 X7.1655 Y10.7255
G01 X7.2458 Y10.6923
G01 X7.2997 Y10.6767
G01 X7.2997 Y2.2500
G01 X7.3041 Y2.1716
G01 X7.3172 Y2.0942
G01 X7.3390 Y2.0187
G01 X7.3500 Y1.9919
G01 X7.3500 Y1.8486
G01 X7.3539 Y1.7800
G01 X7.3670 Y1.7026
G01 X7.3865 Y1.6353
G01 X7.4144 Y1.5680
G01 X7.4496 Y1.5042
G01 X7.4918 Y1.4447
G01 X7.5404 Y1.3904
G01 X7.5970 Y1.3401
G01 X7.6566 Y1.2982
G01 X7.7180 Y1.2644
G01 X7.7827 Y1.2375
G01 X7.8554 Y1.2163
G01 X7.9272 Y1.2041
G01 X8.0000 Y1.2000
G01 X8.0728 Y1.2041
G01 X8.1446 Y1.2163
G01 X8.2147 Y1.2365
G01 X8.2820 Y1.2644
G01 X8.3458 Y1.2996
G01 X8.4053 Y1.3418
G01 X8.4596 Y1.3904
G01 X8.5082 Y1.4447
G01 X8.5504 Y1.5042
G01 X8.5856 Y1.5680
G01 X8.6125 Y1.6327
G01 X8.6337 Y1.7054
G01 X8.6461 Y1.7800
G01 X8.6500 Y1.8486
G01 X8.6500 Y1.9919
G01 X8.6610 Y2.0187
G01 X8.6828 Y2.0942
G01 X8.6962 Y2.1744
G01 X8.7003 Y2.2500
G01 X8.7003 Y10.6474
G01 X9.0128 Y10.6475
G01 X9.0996 Y10.6524
G01 X9.1907 Y10.6681
G01 X9.2742 Y10.6923
G01 X9.3545 Y10.7255
G01 X9.4332 Y10.7686
G01 X9.5088 Y10.8219
G01 X9.5736 Y10.8798
G01 X9.6355 Y10.9486
G01 X9.6874 Y11.0217
G01 X9.7308 Y11.1003
G01 X9.7660 Y11.1858
G01 X9.7899 Y11.2694
G01 X9.8046 Y11.3550
G01 X9.8099 Y11.4446
G01 X9.8050 Y11.5369
G01 X9.7899 Y11.6254
G01 X9.7651 Y11.7116
G01 X9.7295 Y11.7970
G01 X9.6874 Y11.8730
G01 X9.6372 Y11.9439
G01 X9.5757 Y12.0131
G01 X9.5088 Y12.0728
G01 X9.4332 Y12.1262
G01 X9.3571 Y12.1681
G01 X9.2768 Y12.2015
G01 X9.1880 Y12.2273
G01 X9.0996 Y12.2423
G01 X9.0100 Y12.2474
G01 X7.5100 Y12.2474
G01 X7.4204 Y12.2423
G01 X7.3320 Y12.2273
G01 X7.2458 Y12.2025
G01 X7.1604 Y12.1669
G01 X7.0820 Y12.1232
G01 X7.0112 Y12.0728
G01 X6.9464 Y12.0150
G01 X6.8845 Y11.9462
G01 X6.8326 Y11.8730
G01 X6.7892 Y11.7945
G01 X6.7549 Y11.7116
G01 X6.7301 Y11.6254
G01 X6.7148 Y11.5341
G01 X6.7100 Y11.4474
G01 X6.7148 Y11.3606
G01 X6.7295 Y11.2721
G01 X6.7549 Y11.1831
G01 X6.7892 Y11.1003
G01 X6.8326 Y11.0217
G01 X6.8863 Y10.9464
G00 Z2.0000
G00 X5.4178 Y16.2253
G01 F100.00
G01 Z-0.2000
G01 F100.00
G01 X5.4982 Y16.1356
G01 X5.5942 Y16.0498
G01 X5.6992 Y15.9753
G01 X5.8045 Y15.9169
G01 X5.8195 Y15.9097
G01 X5.9231 Y15.8668
G01 X5.9388 Y15.8613
G01 X6.0545 Y15.8282
G01 X6.1815 Y15.8066
G01 X6.3100 Y15.7994
G01 X6.4303 Y15.8059
G01 X6.4468 Y15.8078
G01 X6.5573 Y15.8265
G01 X6.5735 Y15.8302
G01 X6.6892 Y15.8638
G01 X6.8081 Y15.9131
G01 X6.9208 Y15.9753
G01 X7.0258 Y16.0498
G01 X7.1218 Y16.1356
G01 X7.2075 Y16.2316
G01 X7.2820 Y16.3366
G01 X7.3405 Y16.4419
G01 X7.3477 Y16.4569
G01 X7.3906 Y16.5605
G01 X7.3961 Y16.5761
G01 X7.4292 Y16.6919
G01 X7.4508 Y16.8188
G01 X7.4580 Y16.9474
G01 X7.4508 Y17.0759
G01 X7.4292 Y17.2028
G01 X7.3961 Y17.3186
G01 X7.3906 Y17.3343
G01 X7.3477 Y17.4379
G01 X7.3405 Y17.4528
G01 X7.2820 Y17.5581
G01 X7.2075 Y17.6631
G01 X7.1218 Y17.7591
G01 X7.0258 Y17.8449
G01 X6.9208 Y17.9194
G01 X6.8155 Y17.9779
G01 X6.8005 Y17.9851
G01 X6.6969 Y18.0280
G01 X6.6813 Y18.0335
G01 X6.5655 Y18.0666
G01 X6.4385 Y18.0882
G01 X6.3100 Y18.0954
G01 X6.1897 Y18.0889
G01 X6.1732 Y18.0870
G01 X6.0627 Y18.0682
G01 X6.0465 Y18.0645
G01 X5.9308 Y18.0309
G01 X5.8119 Y17.9817
G01 X5.6992 Y17.9194
G01 X5.5942 Y17.8449
G01 X5.4982 Y17.7591
G01 X5.4125 Y17.6631
G01 X5.3380 Y17.5581
G01 X5.2795 Y17.4528
G01 X5.2723 Y17.4379
G01 X5.2294 Y17.3343
G01 X5.2239 Y17.3186
G01 X5.1908 Y17.2028
G01 X5.1692 Y17.0759
G01 X5.1620 Y16.9474
G01 X5.1692 Y16.8188
G01 X5.1908 Y16.6919
G01 X5.2239 Y16.5761
G01 X5.2294 Y16.5605
G01 X5.2757 Y16.4493
G01 X5.3337 Y16.3438
G01 X5.3426 Y16.3297
G01 X5.4075 Y16.2382
G01 X5.4178 Y16.2253
G00 Z2.0000
G00 X5.4909 Y16.2906
G01 F100.00
G01 Z-0.2000
G01 F100.00
G01 X5.5675 Y16.2049
G01 X5.6553 Y16.1264
G01 X5.7514 Y16.0583
G01 X5.8519 Y16.0026
G01 X5.9659 Y15.9554
G01 X6.0764 Y15.9237
G01 X6.1924 Y15.9040
G01 X6.3100 Y15.8974
G01 X6.4248 Y15.9037
G01 X6.5464 Y15.9244
G01 X6.6568 Y15.9563
G01 X6.7656 Y16.0014
G01 X6.8686 Y16.0583
G01 X6.9647 Y16.1264
G01 X7.0525 Y16.2049
G01 X7.1309 Y16.2927
G01 X7.1991 Y16.3887
G01 X7.2547 Y16.4893
G01 X7.3019 Y16.6033
G01 X7.3337 Y16.7137
G01 X7.3534 Y16.8298
G01 X7.3600 Y16.9474
G01 X7.3534 Y17.0649
G01 X7.3337 Y17.1810
G01 X7.3019 Y17.2915
G01 X7.2547 Y17.4054
G01 X7.1991 Y17.5060
G01 X7.1309 Y17.6020
G01 X7.0525 Y17.6898
G01 X6.9647 Y17.7683
G01 X6.8686 Y17.8364
G01 X6.7681 Y17.8921
G01 X6.6541 Y17.9393
G01 X6.5436 Y17.9710
G01 X6.4276 Y17.9908
G01 X6.3100 Y17.9974
G01 X6.1952 Y17.9910
G01 X6.0736 Y17.9703
G01 X5.9632 Y17.9385
G01 X5.8544 Y17.8934
G01 X5.7514 Y17.8364
G01 X5.6553 Y17.7683
G01 X5.5675 Y17.6898
G01 X5.4891 Y17.6020
G01 X5.4209 Y17.5060
G01 X5.3653 Y17.4054
G01 X5.3181 Y17.2915
G01 X5.2863 Y17.1810
G01 X5.2666 Y17.0649
G01 X5.2600 Y16.9474
G01 X5.2666 Y16.8298
G01 X5.2863 Y16.7137
G01 X5.3181 Y16.6033
G01 X5.3640 Y16.4918
G01 X5.4195 Y16.3912
G01 X5.4909 Y16.2906
G00 Z2.0000
M05
G00 Z2.0000
G00 Z20.00
G00 X0.0 Y0.0

M02