(G-CODE GENERATED BY FLATCAM v8.912 - www.flatcam.org - Version Date: 2019/03/17)

(Name: 3pin-F.Cu.gtl_iso_cnc)
(Type: G-code from Geometry)
(Units: MM)

(Created on Tuesday, 30 April 2019 at 18:45)

(TOOL DIAMETER: 0.1 mm)
(Feedrate: 100.0 mm/min)
(Feedrate_Z: 100.0 mm/min)
(Feedrate rapids 76.2 mm/min)

(Z_Cut: -0.2 mm)
(Z_Move: 2.0 mm)
(Z Toolchange: 25.4 mm)
(X,Y Toolchange: 0.0000, 0.0000 mm)
(Z Start: None mm)
(Z End: 50.8 mm)
(Steps per circle: 64)
(Postprocessor Geometry: default)

(X range:    3.3497 ...   10.2100  mm)
(Y range:    2.4500 ...   17.3703  mm)

(Spindle Speed: 5000 RPM)

G21
G90
G94

G01 F100.00
G00 Z2.0000

M03 S5000
G00 X3.3498 Y6.1472
G01 F100.00
G01 Z-0.2000
G01 F100.00
G01 X3.3541 Y6.0716
G01 X3.3667 Y5.9969
G01 X3.3890 Y5.9187
G01 X3.4190 Y5.8461
G01 X3.4556 Y5.7798
G01 X3.5025 Y5.7134
G01 X3.5548 Y5.6548
G01 X4.2997 Y4.9099
G01 X4.2998 Y3.4972
G01 X4.3041 Y3.4216
G01 X4.3167 Y3.3469
G01 X4.3381 Y3.2714
G01 X4.3500 Y3.2419
G01 X4.3501 Y3.0972
G01 X4.3541 Y3.0272
G01 X4.3657 Y2.9581
G01 X4.3865 Y2.8853
G01 X4.4157 Y2.8155
G01 X4.4496 Y2.7542
G01 X4.4918 Y2.6947
G01 X4.5404 Y2.6404
G01 X4.5926 Y2.5936
G01 X4.6566 Y2.5482
G01 X4.7180 Y2.5144
G01 X4.7853 Y2.4865
G01 X4.8554 Y2.4663
G01 X4.9272 Y2.4541
G01 X5.0000 Y2.4500
G01 X5.0700 Y2.4539
G01 X5.1446 Y2.4663
G01 X5.2120 Y2.4856
G01 X5.2845 Y2.5157
G01 X5.3482 Y2.5512
G01 X5.4053 Y2.5918
G01 X5.4576 Y2.6385
G01 X5.5082 Y2.6947
G01 X5.5488 Y2.7518
G01 X5.5856 Y2.8180
G01 X5.6135 Y2.8853
G01 X5.6337 Y2.9554
G01 X5.6455 Y3.0244
G01 X5.6500 Y3.0986
G01 X5.6500 Y3.2419
G01 X5.6619 Y3.2714
G01 X5.6833 Y3.3469
G01 X5.6959 Y3.4216
G01 X5.7003 Y3.4986
G01 X5.7003 Y5.2014
G01 X5.6959 Y5.2784
G01 X5.6833 Y5.3531
G01 X5.6610 Y5.4313
G01 X5.6310 Y5.5039
G01 X5.5944 Y5.5702
G01 X5.5475 Y5.6366
G01 X5.4952 Y5.6952
G01 X4.7503 Y6.4401
G01 X4.7503 Y15.9697
G01 X5.0299 Y15.9697
G01 X5.8851 Y15.1144
G01 X5.9309 Y15.0352
G01 X5.9855 Y14.9519
G01 X6.0499 Y14.8742
G01 X6.1227 Y14.8041
G01 X6.2028 Y14.7426
G01 X6.2918 Y14.6893
G01 X6.3810 Y14.6484
G01 X6.4743 Y14.6177
G01 X6.5730 Y14.5967
G01 X6.6763 Y14.5868
G01 X6.7773 Y14.5887
G01 X6.8774 Y14.6019
G01 X6.9727 Y14.6254
G01 X7.0726 Y14.6625
G01 X7.1602 Y14.7068
G01 X7.2469 Y14.7639
G01 X7.3224 Y14.8265
G01 X7.3925 Y14.8993
G01 X7.4540 Y14.9794
G01 X7.5061 Y15.0659
G01 X7.5482 Y15.1576
G01 X7.5797 Y15.2536
G01 X7.6004 Y15.3524
G01 X7.6098 Y15.4529
G01 X7.6079 Y15.5539
G01 X7.5941 Y15.6567
G01 X7.5704 Y15.7520
G01 X7.5363 Y15.8441
G01 X7.4911 Y15.9343
G01 X7.0883 Y16.6320
G01 X7.0345 Y16.7141
G01 X6.9719 Y16.7898
G01 X6.8973 Y16.8619
G01 X6.8149 Y16.9249
G01 X6.7307 Y16.9755
G01 X6.6415 Y17.0165
G01 X6.5430 Y17.0492
G01 X6.4442 Y17.0698
G01 X6.3437 Y17.0792
G01 X6.2399 Y17.0770
G01 X6.1399 Y17.0636
G01 X6.0446 Y17.0398
G01 X5.9687 Y17.0118
G01 X5.8132 Y17.1671
G01 X5.7566 Y17.2175
G01 X5.6949 Y17.2614
G01 X5.6239 Y17.3010
G01 X5.5539 Y17.3300
G01 X5.4731 Y17.3533
G01 X5.3984 Y17.3659
G01 X5.3200 Y17.3703
G01 X4.0500 Y17.3703
G01 X3.9716 Y17.3659
G01 X3.8942 Y17.3528
G01 X3.8161 Y17.3300
G01 X3.7461 Y17.3010
G01 X3.6798 Y17.2644
G01 X3.6134 Y17.2175
G01 X3.5548 Y17.1652
G01 X3.5008 Y17.1044
G01 X3.4570 Y17.0426
G01 X3.4203 Y16.9764
G01 X3.3890 Y16.9013
G01 X3.3667 Y16.8231
G01 X3.3541 Y16.7484
G01 X3.3497 Y16.6700
G01 X3.3498 Y6.1472
G00 Z2.0000
G00 X5.9302 Y13.8584
G01 F100.00
G01 Z-0.2000
G01 F100.00
G01 X5.5302 Y13.1655
G01 X5.4847 Y13.0754
G01 X5.4496 Y12.9807
G01 X5.4253 Y12.8827
G01 X5.4121 Y12.7826
G01 X5.4102 Y12.6817
G01 X5.4196 Y12.5811
G01 X5.4396 Y12.4850
G01 X5.4729 Y12.3838
G01 X5.5139 Y12.2946
G01 X5.5660 Y12.2081
G01 X5.6275 Y12.1280
G01 X5.6976 Y12.0553
G01 X5.7753 Y11.9908
G01 X5.8574 Y11.9370
G01 X5.9525 Y11.8890
G01 X6.0446 Y11.8549
G01 X6.1426 Y11.8306
G01 X6.2427 Y11.8174
G01 X6.2997 Y11.8163
G01 X6.2997 Y3.5000
G01 X6.3041 Y3.4216
G01 X6.3172 Y3.3442
G01 X6.3390 Y3.2687
G01 X6.3500 Y3.2419
G01 X6.3500 Y3.0986
G01 X6.3539 Y3.0300
G01 X6.3670 Y2.9526
G01 X6.3865 Y2.8853
G01 X6.4144 Y2.8180
G01 X6.4496 Y2.7542
G01 X6.4918 Y2.6947
G01 X6.5404 Y2.6404
G01 X6.5970 Y2.5901
G01 X6.6566 Y2.5482
G01 X6.7180 Y2.5144
G01 X6.7827 Y2.4875
G01 X6.8554 Y2.4663
G01 X6.9272 Y2.4541
G01 X7.0000 Y2.4500
G01 X7.0728 Y2.4541
G01 X7.1446 Y2.4663
G01 X7.2147 Y2.4865
G01 X7.2820 Y2.5144
G01 X7.3458 Y2.5496
G01 X7.4053 Y2.5918
G01 X7.4596 Y2.6404
G01 X7.5082 Y2.6947
G01 X7.5504 Y2.7542
G01 X7.5856 Y2.8180
G01 X7.6125 Y2.8827
G01 X7.6337 Y2.9554
G01 X7.6461 Y3.0300
G01 X7.6500 Y3.0986
G01 X7.6500 Y3.2419
G01 X7.6610 Y3.2687
G01 X7.6828 Y3.3442
G01 X7.6962 Y3.4244
G01 X7.7003 Y3.5000
G01 X7.7003 Y13.2547
G01 X7.6959 Y13.3332
G01 X7.6821 Y13.4133
G01 X7.6610 Y13.4861
G01 X7.6310 Y13.5586
G01 X7.5930 Y13.6273
G01 X7.5769 Y13.6502
G01 X7.5482 Y13.7371
G01 X7.5061 Y13.8289
G01 X7.4540 Y13.9154
G01 X7.3943 Y13.9933
G01 X7.3224 Y14.0682
G01 X7.2424 Y14.1342
G01 X7.1602 Y14.1879
G01 X7.0726 Y14.2322
G01 X6.9754 Y14.2686
G01 X6.8774 Y14.2929
G01 X6.7801 Y14.3058
G01 X6.6763 Y14.3079
G01 X6.5758 Y14.2985
G01 X6.4797 Y14.2785
G01 X6.3810 Y14.2463
G01 X6.2893 Y14.2042
G01 X6.2051 Y14.1536
G01 X6.1227 Y14.0906
G01 X6.0499 Y14.0206
G01 X5.9872 Y13.9450
G01 X5.9302 Y13.8584
G00 Z2.0000
G00 X7.8082 Y13.8841
G01 F100.00
G01 Z-0.2000
G01 F100.00
G01 X7.8736 Y13.8110
G01 X7.9467 Y13.7455
G01 X8.0312 Y13.6853
G01 X8.1221 Y13.6354
G01 X8.2127 Y13.5979
G01 X8.2997 Y13.5728
G01 X8.2997 Y3.5000
G01 X8.3041 Y3.4216
G01 X8.3172 Y3.3442
G01 X8.3390 Y3.2687
G01 X8.3500 Y3.2419
G01 X8.3500 Y3.0986
G01 X8.3539 Y3.0300
G01 X8.3670 Y2.9526
G01 X8.3865 Y2.8853
G01 X8.4144 Y2.8180
G01 X8.4496 Y2.7542
G01 X8.4918 Y2.6947
G01 X8.5404 Y2.6404
G01 X8.5970 Y2.5901
G01 X8.6566 Y2.5482
G01 X8.7180 Y2.5144
G01 X8.7827 Y2.4875
G01 X8.8554 Y2.4663
G01 X8.9272 Y2.4541
G01 X9.0000 Y2.4500
G01 X9.0728 Y2.4541
G01 X9.1446 Y2.4663
G01 X9.2147 Y2.4865
G01 X9.2820 Y2.5144
G01 X9.3458 Y2.5496
G01 X9.4053 Y2.5918
G01 X9.4596 Y2.6404
G01 X9.5082 Y2.6947
G01 X9.5504 Y2.7542
G01 X9.5856 Y2.8180
G01 X9.6125 Y2.8827
G01 X9.6337 Y2.9554
G01 X9.6461 Y3.0300
G01 X9.6500 Y3.0986
G01 X9.6500 Y3.2419
G01 X9.6610 Y3.2687
G01 X9.6828 Y3.3442
G01 X9.6959 Y3.4216
G01 X9.7003 Y3.5000
G01 X9.7003 Y13.6364
G01 X9.7912 Y13.6869
G01 X9.8711 Y13.7437
G01 X9.9464 Y13.8110
G01 X10.0136 Y13.8862
G01 X10.0705 Y13.9662
G01 X10.1220 Y14.0594
G01 X10.1595 Y14.1501
G01 X10.1874 Y14.2471
G01 X10.2043 Y14.3466
G01 X10.2099 Y14.4446
G01 X10.2039 Y14.5509
G01 X10.1874 Y14.6476
G01 X10.1595 Y14.7446
G01 X10.1209 Y14.8379
G01 X10.0721 Y14.9262
G01 X10.0136 Y15.0085
G01 X9.9444 Y15.0857
G01 X9.8711 Y15.1510
G01 X9.7864 Y15.2108
G01 X9.6979 Y15.2594
G01 X9.6073 Y15.2969
G01 X9.5130 Y15.3241
G01 X9.4108 Y15.3417
G01 X9.3114 Y15.3474
G01 X8.5086 Y15.3474
G01 X8.4092 Y15.3417
G01 X8.3125 Y15.3254
G01 X8.2127 Y15.2969
G01 X8.1195 Y15.2582
G01 X8.0312 Y15.2094
G01 X7.9489 Y15.1510
G01 X7.8717 Y15.0817
G01 X7.8047 Y15.0063
G01 X7.7479 Y14.9262
G01 X7.7004 Y14.8404
G01 X7.6605 Y14.7446
G01 X7.6333 Y14.6504
G01 X7.6157 Y14.5481
G01 X7.6100 Y14.4474
G01 X7.6157 Y14.3466
G01 X7.6326 Y14.2471
G01 X7.6605 Y14.1501
G01 X7.6991 Y14.0569
G01 X7.7479 Y13.9685
G01 X7.8082 Y13.8841
G00 Z2.0000
M05
G00 Z2.0000
G00 Z50.80
G00 X0.0 Y0.0

