(G-CODE GENERATED BY FLATCAM v8.912 - www.flatcam.org - Version Date: 2019/03/17)

(Name: 3pin-Edge.Cuts.gm1_cutout_cnc)
(Type: G-code from Geometry)
(Units: MM)

(Created on Tuesday, 30 April 2019 at 18:52)

(TOOL DIAMETER: 0.41 mm)
(Feedrate: 100.0 mm/min)
(Feedrate_Z: 100.0 mm/min)
(Feedrate rapids 76.2 mm/min)

(Z_Cut: -0.2 mm)
(Z_Move: 2.0 mm)
(Z Toolchange: 25.4 mm)
(X,Y Toolchange: 0.0000, 0.0000 mm)
(Z Start: None mm)
(Z End: 50.8 mm)
(Steps per circle: 64)
(Postprocessor Geometry: default)

(X range:    0.9250 ...   13.0750  mm)
(Y range:    0.9250 ...   23.0750  mm)

(Spindle Speed: 5000 RPM)

G21
G90
G94

G01 F100.00
G00 Z2.0000

M03 S5000
G00 X2.5000 Y0.9250
G01 F100.00
G01 Z-0.2000
G01 F100.00
G01 X5.9800 Y0.9250
G00 Z2.0000
G00 X8.0200 Y0.9250
G01 F100.00
G01 Z-0.2000
G01 F100.00
G01 X11.5000 Y0.9250
G01 X11.5603 Y0.9267
G01 X11.6442 Y0.9318
G01 X11.7083 Y0.9390
G01 X11.7913 Y0.9527
G01 X11.8464 Y0.9636
G01 X11.8819 Y0.9721
G01 X11.9895 Y1.0032
G01 X12.0505 Y1.0245
G01 X12.1541 Y1.0674
G01 X12.2122 Y1.0954
G01 X12.3104 Y1.1497
G01 X12.3650 Y1.1840
G01 X12.4564 Y1.2488
G01 X12.5069 Y1.2891
G01 X12.5905 Y1.3638
G01 X12.6362 Y1.4094
G01 X12.7109 Y1.4931
G01 X12.7511 Y1.5434
G01 X12.8160 Y1.6349
G01 X12.8503 Y1.6896
G01 X12.9046 Y1.7878
G01 X12.9326 Y1.8459
G01 X12.9755 Y1.9496
G01 X12.9968 Y2.0104
G01 X13.0279 Y2.1182
G01 X13.0422 Y2.1810
G01 X13.0610 Y2.2917
G01 X13.0682 Y2.3558
G01 X13.0746 Y2.4720
G01 X13.0750 Y10.9800
G00 Z2.0000
G00 X13.0750 Y13.0200
G01 F100.00
G01 Z-0.2000
G01 F100.00
G01 X13.0750 Y19.0000
G01 X13.0733 Y19.0603
G01 X13.0545 Y19.3962
G01 X13.0488 Y19.4604
G01 X13.0410 Y19.5160
G01 X12.9846 Y19.8476
G01 X12.9718 Y19.9109
G01 X12.9578 Y19.9652
G01 X12.8647 Y20.2884
G01 X12.8449 Y20.3498
G01 X12.8249 Y20.4022
G01 X12.6961 Y20.7131
G01 X12.6732 Y20.7643
G01 X12.6570 Y20.7969
G01 X12.4811 Y21.1161
G01 X12.4526 Y21.1644
G01 X12.4169 Y21.2182
G01 X12.2223 Y21.4926
G01 X12.1833 Y21.5440
G01 X12.1471 Y21.5868
G01 X11.9229 Y21.8377
G01 X11.8784 Y21.8844
G01 X11.8377 Y21.9229
G01 X11.5868 Y22.1471
G01 X11.5440 Y22.1833
G01 X11.4926 Y22.2223
G01 X11.2182 Y22.4169
G01 X11.1716 Y22.4481
G01 X11.1161 Y22.4811
G01 X10.8217 Y22.6438
G01 X10.7718 Y22.6696
G01 X10.7131 Y22.6961
G01 X10.4022 Y22.8249
G01 X10.3498 Y22.8449
G01 X10.2884 Y22.8647
G01 X9.9652 Y22.9578
G01 X9.9027 Y22.9737
G01 X9.8476 Y22.9846
G01 X9.4883 Y23.0453
G01 X9.4521 Y23.0498
G01 X9.3962 Y23.0545
G01 X9.0280 Y23.0746
G01 X8.0200 Y23.0750
G00 Z2.0000
G00 X5.9800 Y23.0750
G01 F100.00
G01 Z-0.2000
G01 F100.00
G01 X4.9720 Y23.0746
G01 X4.6038 Y23.0545
G01 X4.5479 Y23.0498
G01 X4.5117 Y23.0453
G01 X4.1524 Y22.9846
G01 X4.0973 Y22.9737
G01 X4.0348 Y22.9578
G01 X3.7116 Y22.8647
G01 X3.6502 Y22.8449
G01 X3.5978 Y22.8249
G01 X3.2869 Y22.6961
G01 X3.2282 Y22.6696
G01 X3.1783 Y22.6438
G01 X2.8839 Y22.4811
G01 X2.8284 Y22.4481
G01 X2.7818 Y22.4169
G01 X2.5074 Y22.2223
G01 X2.4560 Y22.1833
G01 X2.4132 Y22.1471
G01 X2.1623 Y21.9229
G01 X2.1216 Y21.8844
G01 X2.0771 Y21.8377
G01 X1.8529 Y21.5868
G01 X1.8167 Y21.5440
G01 X1.7777 Y21.4926
G01 X1.5831 Y21.2182
G01 X1.5474 Y21.1644
G01 X1.5189 Y21.1161
G01 X1.3430 Y20.7969
G01 X1.3268 Y20.7643
G01 X1.3039 Y20.7131
G01 X1.1751 Y20.4022
G01 X1.1551 Y20.3498
G01 X1.1353 Y20.2884
G01 X1.0422 Y19.9652
G01 X1.0282 Y19.9109
G01 X1.0154 Y19.8476
G01 X0.9590 Y19.5160
G01 X0.9512 Y19.4604
G01 X0.9455 Y19.3962
G01 X0.9267 Y19.0603
G01 X0.9250 Y19.0000
G01 X0.9250 Y13.0200
G00 Z2.0000
G00 X0.9250 Y10.9800
G01 F100.00
G01 Z-0.2000
G01 F100.00
G01 X0.9250 Y2.5000
G01 X0.9267 Y2.4397
G01 X0.9318 Y2.3558
G01 X0.9355 Y2.3195
G01 X0.9433 Y2.2639
G01 X0.9578 Y2.1810
G01 X0.9721 Y2.1182
G01 X0.9950 Y2.0373
G01 X1.0121 Y1.9838
G01 X1.0349 Y1.9235
G01 X1.0674 Y1.8459
G01 X1.0954 Y1.7878
G01 X1.1357 Y1.7140
G01 X1.1687 Y1.6585
G01 X1.1999 Y1.6119
G01 X1.2489 Y1.5434
G01 X1.2891 Y1.4931
G01 X1.3449 Y1.4301
G01 X1.3834 Y1.3893
G01 X1.4301 Y1.3449
G01 X1.4931 Y1.2891
G01 X1.5436 Y1.2488
G01 X1.6119 Y1.1999
G01 X1.6585 Y1.1687
G01 X1.7140 Y1.1357
G01 X1.7878 Y1.0954
G01 X1.8459 Y1.0674
G01 X1.9235 Y1.0349
G01 X1.9759 Y1.0148
G01 X2.0373 Y0.9950
G01 X2.1182 Y0.9721
G01 X2.1536 Y0.9636
G01 X2.2087 Y0.9527
G01 X2.2917 Y0.9390
G01 X2.3558 Y0.9318
G01 X2.4397 Y0.9267
G01 X2.5000 Y0.9250
G00 Z2.0000
M05
G00 Z2.0000
G00 Z50.80
G00 X0.0 Y0.0

