(G-CODE GENERATED BY FLATCAM v8.912 - www.flatcam.org - Version Date: 2019/03/17)

(Name: 3pin-PTH.drl_mill_cnc)
(Type: G-code from Geometry)
(Units: MM)

(Created on Tuesday, 30 April 2019 at 19:06)

(TOOL DIAMETER: 0.41 mm)
(Feedrate: 76.2 mm/min)
(Feedrate_Z: 76.2 mm/min)
(Feedrate rapids 76.2 mm/min)

(Z_Cut: -2.0 mm)
(DepthPerCut: 0.1 mm <=>20 passes)
(Z_Move: 2.54 mm)
(Z Toolchange: 25.4 mm)
(X,Y Toolchange: 0.0000, 0.0000 mm)
(Z Start: None mm)
(Z End: 50.8 mm)
(Steps per circle: 64)
(Postprocessor Geometry: default)

(X range:    6.6100 ...    8.5600  mm)
(Y range:   13.3450 ...   15.5500  mm)

(Spindle Speed: 5000 RPM)

G21
G90
G94

G01 F76.20
G00 Z2.5400

M03 S5000
G00 X6.9100 Y13.4950
G01 F76.20
G01 Z-0.1000
G01 F76.20
G01 X6.9093 Y13.4803
G01 X6.9071 Y13.4657
G01 X6.9035 Y13.4515
G01 X6.8986 Y13.4376
G01 X6.8923 Y13.4243
G01 X6.8847 Y13.4117
G01 X6.8760 Y13.3998
G01 X6.8661 Y13.3889
G01 X6.8552 Y13.3790
G01 X6.8433 Y13.3703
G01 X6.8307 Y13.3627
G01 X6.8174 Y13.3564
G01 X6.8035 Y13.3515
G01 X6.7893 Y13.3479
G01 X6.7747 Y13.3457
G01 X6.7600 Y13.3450
G01 X6.7453 Y13.3457
G01 X6.7307 Y13.3479
G01 X6.7165 Y13.3515
G01 X6.7026 Y13.3564
G01 X6.6893 Y13.3627
G01 X6.6767 Y13.3703
G01 X6.6648 Y13.3790
G01 X6.6539 Y13.3889
G01 X6.6440 Y13.3998
G01 X6.6353 Y13.4117
G01 X6.6277 Y13.4243
G01 X6.6214 Y13.4376
G01 X6.6165 Y13.4515
G01 X6.6129 Y13.4657
G01 X6.6107 Y13.4803
G01 X6.6100 Y13.4950
G01 X6.6107 Y13.5097
G01 X6.6129 Y13.5243
G01 X6.6165 Y13.5385
G01 X6.6214 Y13.5524
G01 X6.6277 Y13.5657
G01 X6.6353 Y13.5783
G01 X6.6440 Y13.5902
G01 X6.6539 Y13.6011
G01 X6.6648 Y13.6110
G01 X6.6767 Y13.6197
G01 X6.6893 Y13.6273
G01 X6.7026 Y13.6336
G01 X6.7165 Y13.6385
G01 X6.7307 Y13.6421
G01 X6.7453 Y13.6443
G01 X6.7600 Y13.6450
G01 X6.7747 Y13.6443
G01 X6.7893 Y13.6421
G01 X6.8035 Y13.6385
G01 X6.8174 Y13.6336
G01 X6.8307 Y13.6273
G01 X6.8433 Y13.6197
G01 X6.8552 Y13.6110
G01 X6.8661 Y13.6011
G01 X6.8760 Y13.5902
G01 X6.8847 Y13.5783
G01 X6.8923 Y13.5657
G01 X6.8986 Y13.5524
G01 X6.9035 Y13.5385
G01 X6.9071 Y13.5243
G01 X6.9093 Y13.5097
G01 X6.9100 Y13.4950
G00 X6.9100 Y13.4950
G01 F76.20
G01 Z-0.2000
G01 F76.20
G01 X6.9093 Y13.4803
G01 X6.9071 Y13.4657
G01 X6.9035 Y13.4515
G01 X6.8986 Y13.4376
G01 X6.8923 Y13.4243
G01 X6.8847 Y13.4117
G01 X6.8760 Y13.3998
G01 X6.8661 Y13.3889
G01 X6.8552 Y13.3790
G01 X6.8433 Y13.3703
G01 X6.8307 Y13.3627
G01 X6.8174 Y13.3564
G01 X6.8035 Y13.3515
G01 X6.7893 Y13.3479
G01 X6.7747 Y13.3457
G01 X6.7600 Y13.3450
G01 X6.7453 Y13.3457
G01 X6.7307 Y13.3479
G01 X6.7165 Y13.3515
G01 X6.7026 Y13.3564
G01 X6.6893 Y13.3627
G01 X6.6767 Y13.3703
G01 X6.6648 Y13.3790
G01 X6.6539 Y13.3889
G01 X6.6440 Y13.3998
G01 X6.6353 Y13.4117
G01 X6.6277 Y13.4243
G01 X6.6214 Y13.4376
G01 X6.6165 Y13.4515
G01 X6.6129 Y13.4657
G01 X6.6107 Y13.4803
G01 X6.6100 Y13.4950
G01 X6.6107 Y13.5097
G01 X6.6129 Y13.5243
G01 X6.6165 Y13.5385
G01 X6.6214 Y13.5524
G01 X6.6277 Y13.5657
G01 X6.6353 Y13.5783
G01 X6.6440 Y13.5902
G01 X6.6539 Y13.6011
G01 X6.6648 Y13.6110
G01 X6.6767 Y13.6197
G01 X6.6893 Y13.6273
G01 X6.7026 Y13.6336
G01 X6.7165 Y13.6385
G01 X6.7307 Y13.6421
G01 X6.7453 Y13.6443
G01 X6.7600 Y13.6450
G01 X6.7747 Y13.6443
G01 X6.7893 Y13.6421
G01 X6.8035 Y13.6385
G01 X6.8174 Y13.6336
G01 X6.8307 Y13.6273
G01 X6.8433 Y13.6197
G01 X6.8552 Y13.6110
G01 X6.8661 Y13.6011
G01 X6.8760 Y13.5902
G01 X6.8847 Y13.5783
G01 X6.8923 Y13.5657
G01 X6.8986 Y13.5524
G01 X6.9035 Y13.5385
G01 X6.9071 Y13.5243
G01 X6.9093 Y13.5097
G01 X6.9100 Y13.4950
G00 X6.9100 Y13.4950
G01 F76.20
G01 Z-0.3000
G01 F76.20
G01 X6.9093 Y13.4803
G01 X6.9071 Y13.4657
G01 X6.9035 Y13.4515
G01 X6.8986 Y13.4376
G01 X6.8923 Y13.4243
G01 X6.8847 Y13.4117
G01 X6.8760 Y13.3998
G01 X6.8661 Y13.3889
G01 X6.8552 Y13.3790
G01 X6.8433 Y13.3703
G01 X6.8307 Y13.3627
G01 X6.8174 Y13.3564
G01 X6.8035 Y13.3515
G01 X6.7893 Y13.3479
G01 X6.7747 Y13.3457
G01 X6.7600 Y13.3450
G01 X6.7453 Y13.3457
G01 X6.7307 Y13.3479
G01 X6.7165 Y13.3515
G01 X6.7026 Y13.3564
G01 X6.6893 Y13.3627
G01 X6.6767 Y13.3703
G01 X6.6648 Y13.3790
G01 X6.6539 Y13.3889
G01 X6.6440 Y13.3998
G01 X6.6353 Y13.4117
G01 X6.6277 Y13.4243
G01 X6.6214 Y13.4376
G01 X6.6165 Y13.4515
G01 X6.6129 Y13.4657
G01 X6.6107 Y13.4803
G01 X6.6100 Y13.4950
G01 X6.6107 Y13.5097
G01 X6.6129 Y13.5243
G01 X6.6165 Y13.5385
G01 X6.6214 Y13.5524
G01 X6.6277 Y13.5657
G01 X6.6353 Y13.5783
G01 X6.6440 Y13.5902
G01 X6.6539 Y13.6011
G01 X6.6648 Y13.6110
G01 X6.6767 Y13.6197
G01 X6.6893 Y13.6273
G01 X6.7026 Y13.6336
G01 X6.7165 Y13.6385
G01 X6.7307 Y13.6421
G01 X6.7453 Y13.6443
G01 X6.7600 Y13.6450
G01 X6.7747 Y13.6443
G01 X6.7893 Y13.6421
G01 X6.8035 Y13.6385
G01 X6.8174 Y13.6336
G01 X6.8307 Y13.6273
G01 X6.8433 Y13.6197
G01 X6.8552 Y13.6110
G01 X6.8661 Y13.6011
G01 X6.8760 Y13.5902
G01 X6.8847 Y13.5783
G01 X6.8923 Y13.5657
G01 X6.8986 Y13.5524
G01 X6.9035 Y13.5385
G01 X6.9071 Y13.5243
G01 X6.9093 Y13.5097
G01 X6.9100 Y13.4950
G00 X6.9100 Y13.4950
G01 F76.20
G01 Z-0.4000
G01 F76.20
G01 X6.9093 Y13.4803
G01 X6.9071 Y13.4657
G01 X6.9035 Y13.4515
G01 X6.8986 Y13.4376
G01 X6.8923 Y13.4243
G01 X6.8847 Y13.4117
G01 X6.8760 Y13.3998
G01 X6.8661 Y13.3889
G01 X6.8552 Y13.3790
G01 X6.8433 Y13.3703
G01 X6.8307 Y13.3627
G01 X6.8174 Y13.3564
G01 X6.8035 Y13.3515
G01 X6.7893 Y13.3479
G01 X6.7747 Y13.3457
G01 X6.7600 Y13.3450
G01 X6.7453 Y13.3457
G01 X6.7307 Y13.3479
G01 X6.7165 Y13.3515
G01 X6.7026 Y13.3564
G01 X6.6893 Y13.3627
G01 X6.6767 Y13.3703
G01 X6.6648 Y13.3790
G01 X6.6539 Y13.3889
G01 X6.6440 Y13.3998
G01 X6.6353 Y13.4117
G01 X6.6277 Y13.4243
G01 X6.6214 Y13.4376
G01 X6.6165 Y13.4515
G01 X6.6129 Y13.4657
G01 X6.6107 Y13.4803
G01 X6.6100 Y13.4950
G01 X6.6107 Y13.5097
G01 X6.6129 Y13.5243
G01 X6.6165 Y13.5385
G01 X6.6214 Y13.5524
G01 X6.6277 Y13.5657
G01 X6.6353 Y13.5783
G01 X6.6440 Y13.5902
G01 X6.6539 Y13.6011
G01 X6.6648 Y13.6110
G01 X6.6767 Y13.6197
G01 X6.6893 Y13.6273
G01 X6.7026 Y13.6336
G01 X6.7165 Y13.6385
G01 X6.7307 Y13.6421
G01 X6.7453 Y13.6443
G01 X6.7600 Y13.6450
G01 X6.7747 Y13.6443
G01 X6.7893 Y13.6421
G01 X6.8035 Y13.6385
G01 X6.8174 Y13.6336
G01 X6.8307 Y13.6273
G01 X6.8433 Y13.6197
G01 X6.8552 Y13.6110
G01 X6.8661 Y13.6011
G01 X6.8760 Y13.5902
G01 X6.8847 Y13.5783
G01 X6.8923 Y13.5657
G01 X6.8986 Y13.5524
G01 X6.9035 Y13.5385
G01 X6.9071 Y13.5243
G01 X6.9093 Y13.5097
G01 X6.9100 Y13.4950
G00 X6.9100 Y13.4950
G01 F76.20
G01 Z-0.5000
G01 F76.20
G01 X6.9093 Y13.4803
G01 X6.9071 Y13.4657
G01 X6.9035 Y13.4515
G01 X6.8986 Y13.4376
G01 X6.8923 Y13.4243
G01 X6.8847 Y13.4117
G01 X6.8760 Y13.3998
G01 X6.8661 Y13.3889
G01 X6.8552 Y13.3790
G01 X6.8433 Y13.3703
G01 X6.8307 Y13.3627
G01 X6.8174 Y13.3564
G01 X6.8035 Y13.3515
G01 X6.7893 Y13.3479
G01 X6.7747 Y13.3457
G01 X6.7600 Y13.3450
G01 X6.7453 Y13.3457
G01 X6.7307 Y13.3479
G01 X6.7165 Y13.3515
G01 X6.7026 Y13.3564
G01 X6.6893 Y13.3627
G01 X6.6767 Y13.3703
G01 X6.6648 Y13.3790
G01 X6.6539 Y13.3889
G01 X6.6440 Y13.3998
G01 X6.6353 Y13.4117
G01 X6.6277 Y13.4243
G01 X6.6214 Y13.4376
G01 X6.6165 Y13.4515
G01 X6.6129 Y13.4657
G01 X6.6107 Y13.4803
G01 X6.6100 Y13.4950
G01 X6.6107 Y13.5097
G01 X6.6129 Y13.5243
G01 X6.6165 Y13.5385
G01 X6.6214 Y13.5524
G01 X6.6277 Y13.5657
G01 X6.6353 Y13.5783
G01 X6.6440 Y13.5902
G01 X6.6539 Y13.6011
G01 X6.6648 Y13.6110
G01 X6.6767 Y13.6197
G01 X6.6893 Y13.6273
G01 X6.7026 Y13.6336
G01 X6.7165 Y13.6385
G01 X6.7307 Y13.6421
G01 X6.7453 Y13.6443
G01 X6.7600 Y13.6450
G01 X6.7747 Y13.6443
G01 X6.7893 Y13.6421
G01 X6.8035 Y13.6385
G01 X6.8174 Y13.6336
G01 X6.8307 Y13.6273
G01 X6.8433 Y13.6197
G01 X6.8552 Y13.6110
G01 X6.8661 Y13.6011
G01 X6.8760 Y13.5902
G01 X6.8847 Y13.5783
G01 X6.8923 Y13.5657
G01 X6.8986 Y13.5524
G01 X6.9035 Y13.5385
G01 X6.9071 Y13.5243
G01 X6.9093 Y13.5097
G01 X6.9100 Y13.4950
G00 X6.9100 Y13.4950
G01 F76.20
G01 Z-0.6000
G01 F76.20
G01 X6.9093 Y13.4803
G01 X6.9071 Y13.4657
G01 X6.9035 Y13.4515
G01 X6.8986 Y13.4376
G01 X6.8923 Y13.4243
G01 X6.8847 Y13.4117
G01 X6.8760 Y13.3998
G01 X6.8661 Y13.3889
G01 X6.8552 Y13.3790
G01 X6.8433 Y13.3703
G01 X6.8307 Y13.3627
G01 X6.8174 Y13.3564
G01 X6.8035 Y13.3515
G01 X6.7893 Y13.3479
G01 X6.7747 Y13.3457
G01 X6.7600 Y13.3450
G01 X6.7453 Y13.3457
G01 X6.7307 Y13.3479
G01 X6.7165 Y13.3515
G01 X6.7026 Y13.3564
G01 X6.6893 Y13.3627
G01 X6.6767 Y13.3703
G01 X6.6648 Y13.3790
G01 X6.6539 Y13.3889
G01 X6.6440 Y13.3998
G01 X6.6353 Y13.4117
G01 X6.6277 Y13.4243
G01 X6.6214 Y13.4376
G01 X6.6165 Y13.4515
G01 X6.6129 Y13.4657
G01 X6.6107 Y13.4803
G01 X6.6100 Y13.4950
G01 X6.6107 Y13.5097
G01 X6.6129 Y13.5243
G01 X6.6165 Y13.5385
G01 X6.6214 Y13.5524
G01 X6.6277 Y13.5657
G01 X6.6353 Y13.5783
G01 X6.6440 Y13.5902
G01 X6.6539 Y13.6011
G01 X6.6648 Y13.6110
G01 X6.6767 Y13.6197
G01 X6.6893 Y13.6273
G01 X6.7026 Y13.6336
G01 X6.7165 Y13.6385
G01 X6.7307 Y13.6421
G01 X6.7453 Y13.6443
G01 X6.7600 Y13.6450
G01 X6.7747 Y13.6443
G01 X6.7893 Y13.6421
G01 X6.8035 Y13.6385
G01 X6.8174 Y13.6336
G01 X6.8307 Y13.6273
G01 X6.8433 Y13.6197
G01 X6.8552 Y13.6110
G01 X6.8661 Y13.6011
G01 X6.8760 Y13.5902
G01 X6.8847 Y13.5783
G01 X6.8923 Y13.5657
G01 X6.8986 Y13.5524
G01 X6.9035 Y13.5385
G01 X6.9071 Y13.5243
G01 X6.9093 Y13.5097
G01 X6.9100 Y13.4950
G00 X6.9100 Y13.4950
G01 F76.20
G01 Z-0.7000
G01 F76.20
G01 X6.9093 Y13.4803
G01 X6.9071 Y13.4657
G01 X6.9035 Y13.4515
G01 X6.8986 Y13.4376
G01 X6.8923 Y13.4243
G01 X6.8847 Y13.4117
G01 X6.8760 Y13.3998
G01 X6.8661 Y13.3889
G01 X6.8552 Y13.3790
G01 X6.8433 Y13.3703
G01 X6.8307 Y13.3627
G01 X6.8174 Y13.3564
G01 X6.8035 Y13.3515
G01 X6.7893 Y13.3479
G01 X6.7747 Y13.3457
G01 X6.7600 Y13.3450
G01 X6.7453 Y13.3457
G01 X6.7307 Y13.3479
G01 X6.7165 Y13.3515
G01 X6.7026 Y13.3564
G01 X6.6893 Y13.3627
G01 X6.6767 Y13.3703
G01 X6.6648 Y13.3790
G01 X6.6539 Y13.3889
G01 X6.6440 Y13.3998
G01 X6.6353 Y13.4117
G01 X6.6277 Y13.4243
G01 X6.6214 Y13.4376
G01 X6.6165 Y13.4515
G01 X6.6129 Y13.4657
G01 X6.6107 Y13.4803
G01 X6.6100 Y13.4950
G01 X6.6107 Y13.5097
G01 X6.6129 Y13.5243
G01 X6.6165 Y13.5385
G01 X6.6214 Y13.5524
G01 X6.6277 Y13.5657
G01 X6.6353 Y13.5783
G01 X6.6440 Y13.5902
G01 X6.6539 Y13.6011
G01 X6.6648 Y13.6110
G01 X6.6767 Y13.6197
G01 X6.6893 Y13.6273
G01 X6.7026 Y13.6336
G01 X6.7165 Y13.6385
G01 X6.7307 Y13.6421
G01 X6.7453 Y13.6443
G01 X6.7600 Y13.6450
G01 X6.7747 Y13.6443
G01 X6.7893 Y13.6421
G01 X6.8035 Y13.6385
G01 X6.8174 Y13.6336
G01 X6.8307 Y13.6273
G01 X6.8433 Y13.6197
G01 X6.8552 Y13.6110
G01 X6.8661 Y13.6011
G01 X6.8760 Y13.5902
G01 X6.8847 Y13.5783
G01 X6.8923 Y13.5657
G01 X6.8986 Y13.5524
G01 X6.9035 Y13.5385
G01 X6.9071 Y13.5243
G01 X6.9093 Y13.5097
G01 X6.9100 Y13.4950
G00 X6.9100 Y13.4950
G01 F76.20
G01 Z-0.8000
G01 F76.20
G01 X6.9093 Y13.4803
G01 X6.9071 Y13.4657
G01 X6.9035 Y13.4515
G01 X6.8986 Y13.4376
G01 X6.8923 Y13.4243
G01 X6.8847 Y13.4117
G01 X6.8760 Y13.3998
G01 X6.8661 Y13.3889
G01 X6.8552 Y13.3790
G01 X6.8433 Y13.3703
G01 X6.8307 Y13.3627
G01 X6.8174 Y13.3564
G01 X6.8035 Y13.3515
G01 X6.7893 Y13.3479
G01 X6.7747 Y13.3457
G01 X6.7600 Y13.3450
G01 X6.7453 Y13.3457
G01 X6.7307 Y13.3479
G01 X6.7165 Y13.3515
G01 X6.7026 Y13.3564
G01 X6.6893 Y13.3627
G01 X6.6767 Y13.3703
G01 X6.6648 Y13.3790
G01 X6.6539 Y13.3889
G01 X6.6440 Y13.3998
G01 X6.6353 Y13.4117
G01 X6.6277 Y13.4243
G01 X6.6214 Y13.4376
G01 X6.6165 Y13.4515
G01 X6.6129 Y13.4657
G01 X6.6107 Y13.4803
G01 X6.6100 Y13.4950
G01 X6.6107 Y13.5097
G01 X6.6129 Y13.5243
G01 X6.6165 Y13.5385
G01 X6.6214 Y13.5524
G01 X6.6277 Y13.5657
G01 X6.6353 Y13.5783
G01 X6.6440 Y13.5902
G01 X6.6539 Y13.6011
G01 X6.6648 Y13.6110
G01 X6.6767 Y13.6197
G01 X6.6893 Y13.6273
G01 X6.7026 Y13.6336
G01 X6.7165 Y13.6385
G01 X6.7307 Y13.6421
G01 X6.7453 Y13.6443
G01 X6.7600 Y13.6450
G01 X6.7747 Y13.6443
G01 X6.7893 Y13.6421
G01 X6.8035 Y13.6385
G01 X6.8174 Y13.6336
G01 X6.8307 Y13.6273
G01 X6.8433 Y13.6197
G01 X6.8552 Y13.6110
G01 X6.8661 Y13.6011
G01 X6.8760 Y13.5902
G01 X6.8847 Y13.5783
G01 X6.8923 Y13.5657
G01 X6.8986 Y13.5524
G01 X6.9035 Y13.5385
G01 X6.9071 Y13.5243
G01 X6.9093 Y13.5097
G01 X6.9100 Y13.4950
G00 X6.9100 Y13.4950
G01 F76.20
G01 Z-0.9000
G01 F76.20
G01 X6.9093 Y13.4803
G01 X6.9071 Y13.4657
G01 X6.9035 Y13.4515
G01 X6.8986 Y13.4376
G01 X6.8923 Y13.4243
G01 X6.8847 Y13.4117
G01 X6.8760 Y13.3998
G01 X6.8661 Y13.3889
G01 X6.8552 Y13.3790
G01 X6.8433 Y13.3703
G01 X6.8307 Y13.3627
G01 X6.8174 Y13.3564
G01 X6.8035 Y13.3515
G01 X6.7893 Y13.3479
G01 X6.7747 Y13.3457
G01 X6.7600 Y13.3450
G01 X6.7453 Y13.3457
G01 X6.7307 Y13.3479
G01 X6.7165 Y13.3515
G01 X6.7026 Y13.3564
G01 X6.6893 Y13.3627
G01 X6.6767 Y13.3703
G01 X6.6648 Y13.3790
G01 X6.6539 Y13.3889
G01 X6.6440 Y13.3998
G01 X6.6353 Y13.4117
G01 X6.6277 Y13.4243
G01 X6.6214 Y13.4376
G01 X6.6165 Y13.4515
G01 X6.6129 Y13.4657
G01 X6.6107 Y13.4803
G01 X6.6100 Y13.4950
G01 X6.6107 Y13.5097
G01 X6.6129 Y13.5243
G01 X6.6165 Y13.5385
G01 X6.6214 Y13.5524
G01 X6.6277 Y13.5657
G01 X6.6353 Y13.5783
G01 X6.6440 Y13.5902
G01 X6.6539 Y13.6011
G01 X6.6648 Y13.6110
G01 X6.6767 Y13.6197
G01 X6.6893 Y13.6273
G01 X6.7026 Y13.6336
G01 X6.7165 Y13.6385
G01 X6.7307 Y13.6421
G01 X6.7453 Y13.6443
G01 X6.7600 Y13.6450
G01 X6.7747 Y13.6443
G01 X6.7893 Y13.6421
G01 X6.8035 Y13.6385
G01 X6.8174 Y13.6336
G01 X6.8307 Y13.6273
G01 X6.8433 Y13.6197
G01 X6.8552 Y13.6110
G01 X6.8661 Y13.6011
G01 X6.8760 Y13.5902
G01 X6.8847 Y13.5783
G01 X6.8923 Y13.5657
G01 X6.8986 Y13.5524
G01 X6.9035 Y13.5385
G01 X6.9071 Y13.5243
G01 X6.9093 Y13.5097
G01 X6.9100 Y13.4950
G00 X6.9100 Y13.4950
G01 F76.20
G01 Z-1.0000
G01 F76.20
G01 X6.9093 Y13.4803
G01 X6.9071 Y13.4657
G01 X6.9035 Y13.4515
G01 X6.8986 Y13.4376
G01 X6.8923 Y13.4243
G01 X6.8847 Y13.4117
G01 X6.8760 Y13.3998
G01 X6.8661 Y13.3889
G01 X6.8552 Y13.3790
G01 X6.8433 Y13.3703
G01 X6.8307 Y13.3627
G01 X6.8174 Y13.3564
G01 X6.8035 Y13.3515
G01 X6.7893 Y13.3479
G01 X6.7747 Y13.3457
G01 X6.7600 Y13.3450
G01 X6.7453 Y13.3457
G01 X6.7307 Y13.3479
G01 X6.7165 Y13.3515
G01 X6.7026 Y13.3564
G01 X6.6893 Y13.3627
G01 X6.6767 Y13.3703
G01 X6.6648 Y13.3790
G01 X6.6539 Y13.3889
G01 X6.6440 Y13.3998
G01 X6.6353 Y13.4117
G01 X6.6277 Y13.4243
G01 X6.6214 Y13.4376
G01 X6.6165 Y13.4515
G01 X6.6129 Y13.4657
G01 X6.6107 Y13.4803
G01 X6.6100 Y13.4950
G01 X6.6107 Y13.5097
G01 X6.6129 Y13.5243
G01 X6.6165 Y13.5385
G01 X6.6214 Y13.5524
G01 X6.6277 Y13.5657
G01 X6.6353 Y13.5783
G01 X6.6440 Y13.5902
G01 X6.6539 Y13.6011
G01 X6.6648 Y13.6110
G01 X6.6767 Y13.6197
G01 X6.6893 Y13.6273
G01 X6.7026 Y13.6336
G01 X6.7165 Y13.6385
G01 X6.7307 Y13.6421
G01 X6.7453 Y13.6443
G01 X6.7600 Y13.6450
G01 X6.7747 Y13.6443
G01 X6.7893 Y13.6421
G01 X6.8035 Y13.6385
G01 X6.8174 Y13.6336
G01 X6.8307 Y13.6273
G01 X6.8433 Y13.6197
G01 X6.8552 Y13.6110
G01 X6.8661 Y13.6011
G01 X6.8760 Y13.5902
G01 X6.8847 Y13.5783
G01 X6.8923 Y13.5657
G01 X6.8986 Y13.5524
G01 X6.9035 Y13.5385
G01 X6.9071 Y13.5243
G01 X6.9093 Y13.5097
G01 X6.9100 Y13.4950
G00 X6.9100 Y13.4950
G01 F76.20
G01 Z-1.1000
G01 F76.20
G01 X6.9093 Y13.4803
G01 X6.9071 Y13.4657
G01 X6.9035 Y13.4515
G01 X6.8986 Y13.4376
G01 X6.8923 Y13.4243
G01 X6.8847 Y13.4117
G01 X6.8760 Y13.3998
G01 X6.8661 Y13.3889
G01 X6.8552 Y13.3790
G01 X6.8433 Y13.3703
G01 X6.8307 Y13.3627
G01 X6.8174 Y13.3564
G01 X6.8035 Y13.3515
G01 X6.7893 Y13.3479
G01 X6.7747 Y13.3457
G01 X6.7600 Y13.3450
G01 X6.7453 Y13.3457
G01 X6.7307 Y13.3479
G01 X6.7165 Y13.3515
G01 X6.7026 Y13.3564
G01 X6.6893 Y13.3627
G01 X6.6767 Y13.3703
G01 X6.6648 Y13.3790
G01 X6.6539 Y13.3889
G01 X6.6440 Y13.3998
G01 X6.6353 Y13.4117
G01 X6.6277 Y13.4243
G01 X6.6214 Y13.4376
G01 X6.6165 Y13.4515
G01 X6.6129 Y13.4657
G01 X6.6107 Y13.4803
G01 X6.6100 Y13.4950
G01 X6.6107 Y13.5097
G01 X6.6129 Y13.5243
G01 X6.6165 Y13.5385
G01 X6.6214 Y13.5524
G01 X6.6277 Y13.5657
G01 X6.6353 Y13.5783
G01 X6.6440 Y13.5902
G01 X6.6539 Y13.6011
G01 X6.6648 Y13.6110
G01 X6.6767 Y13.6197
G01 X6.6893 Y13.6273
G01 X6.7026 Y13.6336
G01 X6.7165 Y13.6385
G01 X6.7307 Y13.6421
G01 X6.7453 Y13.6443
G01 X6.7600 Y13.6450
G01 X6.7747 Y13.6443
G01 X6.7893 Y13.6421
G01 X6.8035 Y13.6385
G01 X6.8174 Y13.6336
G01 X6.8307 Y13.6273
G01 X6.8433 Y13.6197
G01 X6.8552 Y13.6110
G01 X6.8661 Y13.6011
G01 X6.8760 Y13.5902
G01 X6.8847 Y13.5783
G01 X6.8923 Y13.5657
G01 X6.8986 Y13.5524
G01 X6.9035 Y13.5385
G01 X6.9071 Y13.5243
G01 X6.9093 Y13.5097
G01 X6.9100 Y13.4950
G00 X6.9100 Y13.4950
G01 F76.20
G01 Z-1.2000
G01 F76.20
G01 X6.9093 Y13.4803
G01 X6.9071 Y13.4657
G01 X6.9035 Y13.4515
G01 X6.8986 Y13.4376
G01 X6.8923 Y13.4243
G01 X6.8847 Y13.4117
G01 X6.8760 Y13.3998
G01 X6.8661 Y13.3889
G01 X6.8552 Y13.3790
G01 X6.8433 Y13.3703
G01 X6.8307 Y13.3627
G01 X6.8174 Y13.3564
G01 X6.8035 Y13.3515
G01 X6.7893 Y13.3479
G01 X6.7747 Y13.3457
G01 X6.7600 Y13.3450
G01 X6.7453 Y13.3457
G01 X6.7307 Y13.3479
G01 X6.7165 Y13.3515
G01 X6.7026 Y13.3564
G01 X6.6893 Y13.3627
G01 X6.6767 Y13.3703
G01 X6.6648 Y13.3790
G01 X6.6539 Y13.3889
G01 X6.6440 Y13.3998
G01 X6.6353 Y13.4117
G01 X6.6277 Y13.4243
G01 X6.6214 Y13.4376
G01 X6.6165 Y13.4515
G01 X6.6129 Y13.4657
G01 X6.6107 Y13.4803
G01 X6.6100 Y13.4950
G01 X6.6107 Y13.5097
G01 X6.6129 Y13.5243
G01 X6.6165 Y13.5385
G01 X6.6214 Y13.5524
G01 X6.6277 Y13.5657
G01 X6.6353 Y13.5783
G01 X6.6440 Y13.5902
G01 X6.6539 Y13.6011
G01 X6.6648 Y13.6110
G01 X6.6767 Y13.6197
G01 X6.6893 Y13.6273
G01 X6.7026 Y13.6336
G01 X6.7165 Y13.6385
G01 X6.7307 Y13.6421
G01 X6.7453 Y13.6443
G01 X6.7600 Y13.6450
G01 X6.7747 Y13.6443
G01 X6.7893 Y13.6421
G01 X6.8035 Y13.6385
G01 X6.8174 Y13.6336
G01 X6.8307 Y13.6273
G01 X6.8433 Y13.6197
G01 X6.8552 Y13.6110
G01 X6.8661 Y13.6011
G01 X6.8760 Y13.5902
G01 X6.8847 Y13.5783
G01 X6.8923 Y13.5657
G01 X6.8986 Y13.5524
G01 X6.9035 Y13.5385
G01 X6.9071 Y13.5243
G01 X6.9093 Y13.5097
G01 X6.9100 Y13.4950
G00 X6.9100 Y13.4950
G01 F76.20
G01 Z-1.3000
G01 F76.20
G01 X6.9093 Y13.4803
G01 X6.9071 Y13.4657
G01 X6.9035 Y13.4515
G01 X6.8986 Y13.4376
G01 X6.8923 Y13.4243
G01 X6.8847 Y13.4117
G01 X6.8760 Y13.3998
G01 X6.8661 Y13.3889
G01 X6.8552 Y13.3790
G01 X6.8433 Y13.3703
G01 X6.8307 Y13.3627
G01 X6.8174 Y13.3564
G01 X6.8035 Y13.3515
G01 X6.7893 Y13.3479
G01 X6.7747 Y13.3457
G01 X6.7600 Y13.3450
G01 X6.7453 Y13.3457
G01 X6.7307 Y13.3479
G01 X6.7165 Y13.3515
G01 X6.7026 Y13.3564
G01 X6.6893 Y13.3627
G01 X6.6767 Y13.3703
G01 X6.6648 Y13.3790
G01 X6.6539 Y13.3889
G01 X6.6440 Y13.3998
G01 X6.6353 Y13.4117
G01 X6.6277 Y13.4243
G01 X6.6214 Y13.4376
G01 X6.6165 Y13.4515
G01 X6.6129 Y13.4657
G01 X6.6107 Y13.4803
G01 X6.6100 Y13.4950
G01 X6.6107 Y13.5097
G01 X6.6129 Y13.5243
G01 X6.6165 Y13.5385
G01 X6.6214 Y13.5524
G01 X6.6277 Y13.5657
G01 X6.6353 Y13.5783
G01 X6.6440 Y13.5902
G01 X6.6539 Y13.6011
G01 X6.6648 Y13.6110
G01 X6.6767 Y13.6197
G01 X6.6893 Y13.6273
G01 X6.7026 Y13.6336
G01 X6.7165 Y13.6385
G01 X6.7307 Y13.6421
G01 X6.7453 Y13.6443
G01 X6.7600 Y13.6450
G01 X6.7747 Y13.6443
G01 X6.7893 Y13.6421
G01 X6.8035 Y13.6385
G01 X6.8174 Y13.6336
G01 X6.8307 Y13.6273
G01 X6.8433 Y13.6197
G01 X6.8552 Y13.6110
G01 X6.8661 Y13.6011
G01 X6.8760 Y13.5902
G01 X6.8847 Y13.5783
G01 X6.8923 Y13.5657
G01 X6.8986 Y13.5524
G01 X6.9035 Y13.5385
G01 X6.9071 Y13.5243
G01 X6.9093 Y13.5097
G01 X6.9100 Y13.4950
G00 X6.9100 Y13.4950
G01 F76.20
G01 Z-1.4000
G01 F76.20
G01 X6.9093 Y13.4803
G01 X6.9071 Y13.4657
G01 X6.9035 Y13.4515
G01 X6.8986 Y13.4376
G01 X6.8923 Y13.4243
G01 X6.8847 Y13.4117
G01 X6.8760 Y13.3998
G01 X6.8661 Y13.3889
G01 X6.8552 Y13.3790
G01 X6.8433 Y13.3703
G01 X6.8307 Y13.3627
G01 X6.8174 Y13.3564
G01 X6.8035 Y13.3515
G01 X6.7893 Y13.3479
G01 X6.7747 Y13.3457
G01 X6.7600 Y13.3450
G01 X6.7453 Y13.3457
G01 X6.7307 Y13.3479
G01 X6.7165 Y13.3515
G01 X6.7026 Y13.3564
G01 X6.6893 Y13.3627
G01 X6.6767 Y13.3703
G01 X6.6648 Y13.3790
G01 X6.6539 Y13.3889
G01 X6.6440 Y13.3998
G01 X6.6353 Y13.4117
G01 X6.6277 Y13.4243
G01 X6.6214 Y13.4376
G01 X6.6165 Y13.4515
G01 X6.6129 Y13.4657
G01 X6.6107 Y13.4803
G01 X6.6100 Y13.4950
G01 X6.6107 Y13.5097
G01 X6.6129 Y13.5243
G01 X6.6165 Y13.5385
G01 X6.6214 Y13.5524
G01 X6.6277 Y13.5657
G01 X6.6353 Y13.5783
G01 X6.6440 Y13.5902
G01 X6.6539 Y13.6011
G01 X6.6648 Y13.6110
G01 X6.6767 Y13.6197
G01 X6.6893 Y13.6273
G01 X6.7026 Y13.6336
G01 X6.7165 Y13.6385
G01 X6.7307 Y13.6421
G01 X6.7453 Y13.6443
G01 X6.7600 Y13.6450
G01 X6.7747 Y13.6443
G01 X6.7893 Y13.6421
G01 X6.8035 Y13.6385
G01 X6.8174 Y13.6336
G01 X6.8307 Y13.6273
G01 X6.8433 Y13.6197
G01 X6.8552 Y13.6110
G01 X6.8661 Y13.6011
G01 X6.8760 Y13.5902
G01 X6.8847 Y13.5783
G01 X6.8923 Y13.5657
G01 X6.8986 Y13.5524
G01 X6.9035 Y13.5385
G01 X6.9071 Y13.5243
G01 X6.9093 Y13.5097
G01 X6.9100 Y13.4950
G00 X6.9100 Y13.4950
G01 F76.20
G01 Z-1.5000
G01 F76.20
G01 X6.9093 Y13.4803
G01 X6.9071 Y13.4657
G01 X6.9035 Y13.4515
G01 X6.8986 Y13.4376
G01 X6.8923 Y13.4243
G01 X6.8847 Y13.4117
G01 X6.8760 Y13.3998
G01 X6.8661 Y13.3889
G01 X6.8552 Y13.3790
G01 X6.8433 Y13.3703
G01 X6.8307 Y13.3627
G01 X6.8174 Y13.3564
G01 X6.8035 Y13.3515
G01 X6.7893 Y13.3479
G01 X6.7747 Y13.3457
G01 X6.7600 Y13.3450
G01 X6.7453 Y13.3457
G01 X6.7307 Y13.3479
G01 X6.7165 Y13.3515
G01 X6.7026 Y13.3564
G01 X6.6893 Y13.3627
G01 X6.6767 Y13.3703
G01 X6.6648 Y13.3790
G01 X6.6539 Y13.3889
G01 X6.6440 Y13.3998
G01 X6.6353 Y13.4117
G01 X6.6277 Y13.4243
G01 X6.6214 Y13.4376
G01 X6.6165 Y13.4515
G01 X6.6129 Y13.4657
G01 X6.6107 Y13.4803
G01 X6.6100 Y13.4950
G01 X6.6107 Y13.5097
G01 X6.6129 Y13.5243
G01 X6.6165 Y13.5385
G01 X6.6214 Y13.5524
G01 X6.6277 Y13.5657
G01 X6.6353 Y13.5783
G01 X6.6440 Y13.5902
G01 X6.6539 Y13.6011
G01 X6.6648 Y13.6110
G01 X6.6767 Y13.6197
G01 X6.6893 Y13.6273
G01 X6.7026 Y13.6336
G01 X6.7165 Y13.6385
G01 X6.7307 Y13.6421
G01 X6.7453 Y13.6443
G01 X6.7600 Y13.6450
G01 X6.7747 Y13.6443
G01 X6.7893 Y13.6421
G01 X6.8035 Y13.6385
G01 X6.8174 Y13.6336
G01 X6.8307 Y13.6273
G01 X6.8433 Y13.6197
G01 X6.8552 Y13.6110
G01 X6.8661 Y13.6011
G01 X6.8760 Y13.5902
G01 X6.8847 Y13.5783
G01 X6.8923 Y13.5657
G01 X6.8986 Y13.5524
G01 X6.9035 Y13.5385
G01 X6.9071 Y13.5243
G01 X6.9093 Y13.5097
G01 X6.9100 Y13.4950
G00 X6.9100 Y13.4950
G01 F76.20
G01 Z-1.6000
G01 F76.20
G01 X6.9093 Y13.4803
G01 X6.9071 Y13.4657
G01 X6.9035 Y13.4515
G01 X6.8986 Y13.4376
G01 X6.8923 Y13.4243
G01 X6.8847 Y13.4117
G01 X6.8760 Y13.3998
G01 X6.8661 Y13.3889
G01 X6.8552 Y13.3790
G01 X6.8433 Y13.3703
G01 X6.8307 Y13.3627
G01 X6.8174 Y13.3564
G01 X6.8035 Y13.3515
G01 X6.7893 Y13.3479
G01 X6.7747 Y13.3457
G01 X6.7600 Y13.3450
G01 X6.7453 Y13.3457
G01 X6.7307 Y13.3479
G01 X6.7165 Y13.3515
G01 X6.7026 Y13.3564
G01 X6.6893 Y13.3627
G01 X6.6767 Y13.3703
G01 X6.6648 Y13.3790
G01 X6.6539 Y13.3889
G01 X6.6440 Y13.3998
G01 X6.6353 Y13.4117
G01 X6.6277 Y13.4243
G01 X6.6214 Y13.4376
G01 X6.6165 Y13.4515
G01 X6.6129 Y13.4657
G01 X6.6107 Y13.4803
G01 X6.6100 Y13.4950
G01 X6.6107 Y13.5097
G01 X6.6129 Y13.5243
G01 X6.6165 Y13.5385
G01 X6.6214 Y13.5524
G01 X6.6277 Y13.5657
G01 X6.6353 Y13.5783
G01 X6.6440 Y13.5902
G01 X6.6539 Y13.6011
G01 X6.6648 Y13.6110
G01 X6.6767 Y13.6197
G01 X6.6893 Y13.6273
G01 X6.7026 Y13.6336
G01 X6.7165 Y13.6385
G01 X6.7307 Y13.6421
G01 X6.7453 Y13.6443
G01 X6.7600 Y13.6450
G01 X6.7747 Y13.6443
G01 X6.7893 Y13.6421
G01 X6.8035 Y13.6385
G01 X6.8174 Y13.6336
G01 X6.8307 Y13.6273
G01 X6.8433 Y13.6197
G01 X6.8552 Y13.6110
G01 X6.8661 Y13.6011
G01 X6.8760 Y13.5902
G01 X6.8847 Y13.5783
G01 X6.8923 Y13.5657
G01 X6.8986 Y13.5524
G01 X6.9035 Y13.5385
G01 X6.9071 Y13.5243
G01 X6.9093 Y13.5097
G01 X6.9100 Y13.4950
G00 X6.9100 Y13.4950
G01 F76.20
G01 Z-1.7000
G01 F76.20
G01 X6.9093 Y13.4803
G01 X6.9071 Y13.4657
G01 X6.9035 Y13.4515
G01 X6.8986 Y13.4376
G01 X6.8923 Y13.4243
G01 X6.8847 Y13.4117
G01 X6.8760 Y13.3998
G01 X6.8661 Y13.3889
G01 X6.8552 Y13.3790
G01 X6.8433 Y13.3703
G01 X6.8307 Y13.3627
G01 X6.8174 Y13.3564
G01 X6.8035 Y13.3515
G01 X6.7893 Y13.3479
G01 X6.7747 Y13.3457
G01 X6.7600 Y13.3450
G01 X6.7453 Y13.3457
G01 X6.7307 Y13.3479
G01 X6.7165 Y13.3515
G01 X6.7026 Y13.3564
G01 X6.6893 Y13.3627
G01 X6.6767 Y13.3703
G01 X6.6648 Y13.3790
G01 X6.6539 Y13.3889
G01 X6.6440 Y13.3998
G01 X6.6353 Y13.4117
G01 X6.6277 Y13.4243
G01 X6.6214 Y13.4376
G01 X6.6165 Y13.4515
G01 X6.6129 Y13.4657
G01 X6.6107 Y13.4803
G01 X6.6100 Y13.4950
G01 X6.6107 Y13.5097
G01 X6.6129 Y13.5243
G01 X6.6165 Y13.5385
G01 X6.6214 Y13.5524
G01 X6.6277 Y13.5657
G01 X6.6353 Y13.5783
G01 X6.6440 Y13.5902
G01 X6.6539 Y13.6011
G01 X6.6648 Y13.6110
G01 X6.6767 Y13.6197
G01 X6.6893 Y13.6273
G01 X6.7026 Y13.6336
G01 X6.7165 Y13.6385
G01 X6.7307 Y13.6421
G01 X6.7453 Y13.6443
G01 X6.7600 Y13.6450
G01 X6.7747 Y13.6443
G01 X6.7893 Y13.6421
G01 X6.8035 Y13.6385
G01 X6.8174 Y13.6336
G01 X6.8307 Y13.6273
G01 X6.8433 Y13.6197
G01 X6.8552 Y13.6110
G01 X6.8661 Y13.6011
G01 X6.8760 Y13.5902
G01 X6.8847 Y13.5783
G01 X6.8923 Y13.5657
G01 X6.8986 Y13.5524
G01 X6.9035 Y13.5385
G01 X6.9071 Y13.5243
G01 X6.9093 Y13.5097
G01 X6.9100 Y13.4950
G00 X6.9100 Y13.4950
G01 F76.20
G01 Z-1.8000
G01 F76.20
G01 X6.9093 Y13.4803
G01 X6.9071 Y13.4657
G01 X6.9035 Y13.4515
G01 X6.8986 Y13.4376
G01 X6.8923 Y13.4243
G01 X6.8847 Y13.4117
G01 X6.8760 Y13.3998
G01 X6.8661 Y13.3889
G01 X6.8552 Y13.3790
G01 X6.8433 Y13.3703
G01 X6.8307 Y13.3627
G01 X6.8174 Y13.3564
G01 X6.8035 Y13.3515
G01 X6.7893 Y13.3479
G01 X6.7747 Y13.3457
G01 X6.7600 Y13.3450
G01 X6.7453 Y13.3457
G01 X6.7307 Y13.3479
G01 X6.7165 Y13.3515
G01 X6.7026 Y13.3564
G01 X6.6893 Y13.3627
G01 X6.6767 Y13.3703
G01 X6.6648 Y13.3790
G01 X6.6539 Y13.3889
G01 X6.6440 Y13.3998
G01 X6.6353 Y13.4117
G01 X6.6277 Y13.4243
G01 X6.6214 Y13.4376
G01 X6.6165 Y13.4515
G01 X6.6129 Y13.4657
G01 X6.6107 Y13.4803
G01 X6.6100 Y13.4950
G01 X6.6107 Y13.5097
G01 X6.6129 Y13.5243
G01 X6.6165 Y13.5385
G01 X6.6214 Y13.5524
G01 X6.6277 Y13.5657
G01 X6.6353 Y13.5783
G01 X6.6440 Y13.5902
G01 X6.6539 Y13.6011
G01 X6.6648 Y13.6110
G01 X6.6767 Y13.6197
G01 X6.6893 Y13.6273
G01 X6.7026 Y13.6336
G01 X6.7165 Y13.6385
G01 X6.7307 Y13.6421
G01 X6.7453 Y13.6443
G01 X6.7600 Y13.6450
G01 X6.7747 Y13.6443
G01 X6.7893 Y13.6421
G01 X6.8035 Y13.6385
G01 X6.8174 Y13.6336
G01 X6.8307 Y13.6273
G01 X6.8433 Y13.6197
G01 X6.8552 Y13.6110
G01 X6.8661 Y13.6011
G01 X6.8760 Y13.5902
G01 X6.8847 Y13.5783
G01 X6.8923 Y13.5657
G01 X6.8986 Y13.5524
G01 X6.9035 Y13.5385
G01 X6.9071 Y13.5243
G01 X6.9093 Y13.5097
G01 X6.9100 Y13.4950
G00 X6.9100 Y13.4950
G01 F76.20
G01 Z-1.9000
G01 F76.20
G01 X6.9093 Y13.4803
G01 X6.9071 Y13.4657
G01 X6.9035 Y13.4515
G01 X6.8986 Y13.4376
G01 X6.8923 Y13.4243
G01 X6.8847 Y13.4117
G01 X6.8760 Y13.3998
G01 X6.8661 Y13.3889
G01 X6.8552 Y13.3790
G01 X6.8433 Y13.3703
G01 X6.8307 Y13.3627
G01 X6.8174 Y13.3564
G01 X6.8035 Y13.3515
G01 X6.7893 Y13.3479
G01 X6.7747 Y13.3457
G01 X6.7600 Y13.3450
G01 X6.7453 Y13.3457
G01 X6.7307 Y13.3479
G01 X6.7165 Y13.3515
G01 X6.7026 Y13.3564
G01 X6.6893 Y13.3627
G01 X6.6767 Y13.3703
G01 X6.6648 Y13.3790
G01 X6.6539 Y13.3889
G01 X6.6440 Y13.3998
G01 X6.6353 Y13.4117
G01 X6.6277 Y13.4243
G01 X6.6214 Y13.4376
G01 X6.6165 Y13.4515
G01 X6.6129 Y13.4657
G01 X6.6107 Y13.4803
G01 X6.6100 Y13.4950
G01 X6.6107 Y13.5097
G01 X6.6129 Y13.5243
G01 X6.6165 Y13.5385
G01 X6.6214 Y13.5524
G01 X6.6277 Y13.5657
G01 X6.6353 Y13.5783
G01 X6.6440 Y13.5902
G01 X6.6539 Y13.6011
G01 X6.6648 Y13.6110
G01 X6.6767 Y13.6197
G01 X6.6893 Y13.6273
G01 X6.7026 Y13.6336
G01 X6.7165 Y13.6385
G01 X6.7307 Y13.6421
G01 X6.7453 Y13.6443
G01 X6.7600 Y13.6450
G01 X6.7747 Y13.6443
G01 X6.7893 Y13.6421
G01 X6.8035 Y13.6385
G01 X6.8174 Y13.6336
G01 X6.8307 Y13.6273
G01 X6.8433 Y13.6197
G01 X6.8552 Y13.6110
G01 X6.8661 Y13.6011
G01 X6.8760 Y13.5902
G01 X6.8847 Y13.5783
G01 X6.8923 Y13.5657
G01 X6.8986 Y13.5524
G01 X6.9035 Y13.5385
G01 X6.9071 Y13.5243
G01 X6.9093 Y13.5097
G01 X6.9100 Y13.4950
G00 X6.9100 Y13.4950
G01 F76.20
G01 Z-2.0000
G01 F76.20
G01 X6.9093 Y13.4803
G01 X6.9071 Y13.4657
G01 X6.9035 Y13.4515
G01 X6.8986 Y13.4376
G01 X6.8923 Y13.4243
G01 X6.8847 Y13.4117
G01 X6.8760 Y13.3998
G01 X6.8661 Y13.3889
G01 X6.8552 Y13.3790
G01 X6.8433 Y13.3703
G01 X6.8307 Y13.3627
G01 X6.8174 Y13.3564
G01 X6.8035 Y13.3515
G01 X6.7893 Y13.3479
G01 X6.7747 Y13.3457
G01 X6.7600 Y13.3450
G01 X6.7453 Y13.3457
G01 X6.7307 Y13.3479
G01 X6.7165 Y13.3515
G01 X6.7026 Y13.3564
G01 X6.6893 Y13.3627
G01 X6.6767 Y13.3703
G01 X6.6648 Y13.3790
G01 X6.6539 Y13.3889
G01 X6.6440 Y13.3998
G01 X6.6353 Y13.4117
G01 X6.6277 Y13.4243
G01 X6.6214 Y13.4376
G01 X6.6165 Y13.4515
G01 X6.6129 Y13.4657
G01 X6.6107 Y13.4803
G01 X6.6100 Y13.4950
G01 X6.6107 Y13.5097
G01 X6.6129 Y13.5243
G01 X6.6165 Y13.5385
G01 X6.6214 Y13.5524
G01 X6.6277 Y13.5657
G01 X6.6353 Y13.5783
G01 X6.6440 Y13.5902
G01 X6.6539 Y13.6011
G01 X6.6648 Y13.6110
G01 X6.6767 Y13.6197
G01 X6.6893 Y13.6273
G01 X6.7026 Y13.6336
G01 X6.7165 Y13.6385
G01 X6.7307 Y13.6421
G01 X6.7453 Y13.6443
G01 X6.7600 Y13.6450
G01 X6.7747 Y13.6443
G01 X6.7893 Y13.6421
G01 X6.8035 Y13.6385
G01 X6.8174 Y13.6336
G01 X6.8307 Y13.6273
G01 X6.8433 Y13.6197
G01 X6.8552 Y13.6110
G01 X6.8661 Y13.6011
G01 X6.8760 Y13.5902
G01 X6.8847 Y13.5783
G01 X6.8923 Y13.5657
G01 X6.8986 Y13.5524
G01 X6.9035 Y13.5385
G01 X6.9071 Y13.5243
G01 X6.9093 Y13.5097
G01 X6.9100 Y13.4950
G00 Z2.5400
G00 X8.5600 Y14.4470
G01 F76.20
G01 Z-0.1000
G01 F76.20
G01 X8.5593 Y14.4323
G01 X8.5571 Y14.4177
G01 X8.5535 Y14.4035
G01 X8.5486 Y14.3896
G01 X8.5423 Y14.3763
G01 X8.5347 Y14.3637
G01 X8.5260 Y14.3518
G01 X8.5161 Y14.3409
G01 X8.5052 Y14.3310
G01 X8.4933 Y14.3223
G01 X8.4807 Y14.3147
G01 X8.4674 Y14.3084
G01 X8.4535 Y14.3035
G01 X8.4393 Y14.2999
G01 X8.4247 Y14.2977
G01 X8.4100 Y14.2970
G01 X8.3953 Y14.2977
G01 X8.3807 Y14.2999
G01 X8.3665 Y14.3035
G01 X8.3526 Y14.3084
G01 X8.3393 Y14.3147
G01 X8.3267 Y14.3223
G01 X8.3148 Y14.3310
G01 X8.3039 Y14.3409
G01 X8.2940 Y14.3518
G01 X8.2853 Y14.3637
G01 X8.2777 Y14.3763
G01 X8.2714 Y14.3896
G01 X8.2665 Y14.4035
G01 X8.2629 Y14.4177
G01 X8.2607 Y14.4323
G01 X8.2600 Y14.4470
G01 X8.2607 Y14.4617
G01 X8.2629 Y14.4763
G01 X8.2665 Y14.4905
G01 X8.2714 Y14.5044
G01 X8.2777 Y14.5177
G01 X8.2853 Y14.5303
G01 X8.2940 Y14.5422
G01 X8.3039 Y14.5531
G01 X8.3148 Y14.5630
G01 X8.3267 Y14.5717
G01 X8.3393 Y14.5793
G01 X8.3526 Y14.5856
G01 X8.3665 Y14.5905
G01 X8.3807 Y14.5941
G01 X8.3953 Y14.5963
G01 X8.4100 Y14.5970
G01 X8.4247 Y14.5963
G01 X8.4393 Y14.5941
G01 X8.4535 Y14.5905
G01 X8.4674 Y14.5856
G01 X8.4807 Y14.5793
G01 X8.4933 Y14.5717
G01 X8.5052 Y14.5630
G01 X8.5161 Y14.5531
G01 X8.5260 Y14.5422
G01 X8.5347 Y14.5303
G01 X8.5423 Y14.5177
G01 X8.5486 Y14.5044
G01 X8.5535 Y14.4905
G01 X8.5571 Y14.4763
G01 X8.5593 Y14.4617
G01 X8.5600 Y14.4470
G00 X8.5600 Y14.4470
G01 F76.20
G01 Z-0.2000
G01 F76.20
G01 X8.5593 Y14.4323
G01 X8.5571 Y14.4177
G01 X8.5535 Y14.4035
G01 X8.5486 Y14.3896
G01 X8.5423 Y14.3763
G01 X8.5347 Y14.3637
G01 X8.5260 Y14.3518
G01 X8.5161 Y14.3409
G01 X8.5052 Y14.3310
G01 X8.4933 Y14.3223
G01 X8.4807 Y14.3147
G01 X8.4674 Y14.3084
G01 X8.4535 Y14.3035
G01 X8.4393 Y14.2999
G01 X8.4247 Y14.2977
G01 X8.4100 Y14.2970
G01 X8.3953 Y14.2977
G01 X8.3807 Y14.2999
G01 X8.3665 Y14.3035
G01 X8.3526 Y14.3084
G01 X8.3393 Y14.3147
G01 X8.3267 Y14.3223
G01 X8.3148 Y14.3310
G01 X8.3039 Y14.3409
G01 X8.2940 Y14.3518
G01 X8.2853 Y14.3637
G01 X8.2777 Y14.3763
G01 X8.2714 Y14.3896
G01 X8.2665 Y14.4035
G01 X8.2629 Y14.4177
G01 X8.2607 Y14.4323
G01 X8.2600 Y14.4470
G01 X8.2607 Y14.4617
G01 X8.2629 Y14.4763
G01 X8.2665 Y14.4905
G01 X8.2714 Y14.5044
G01 X8.2777 Y14.5177
G01 X8.2853 Y14.5303
G01 X8.2940 Y14.5422
G01 X8.3039 Y14.5531
G01 X8.3148 Y14.5630
G01 X8.3267 Y14.5717
G01 X8.3393 Y14.5793
G01 X8.3526 Y14.5856
G01 X8.3665 Y14.5905
G01 X8.3807 Y14.5941
G01 X8.3953 Y14.5963
G01 X8.4100 Y14.5970
G01 X8.4247 Y14.5963
G01 X8.4393 Y14.5941
G01 X8.4535 Y14.5905
G01 X8.4674 Y14.5856
G01 X8.4807 Y14.5793
G01 X8.4933 Y14.5717
G01 X8.5052 Y14.5630
G01 X8.5161 Y14.5531
G01 X8.5260 Y14.5422
G01 X8.5347 Y14.5303
G01 X8.5423 Y14.5177
G01 X8.5486 Y14.5044
G01 X8.5535 Y14.4905
G01 X8.5571 Y14.4763
G01 X8.5593 Y14.4617
G01 X8.5600 Y14.4470
G00 X8.5600 Y14.4470
G01 F76.20
G01 Z-0.3000
G01 F76.20
G01 X8.5593 Y14.4323
G01 X8.5571 Y14.4177
G01 X8.5535 Y14.4035
G01 X8.5486 Y14.3896
G01 X8.5423 Y14.3763
G01 X8.5347 Y14.3637
G01 X8.5260 Y14.3518
G01 X8.5161 Y14.3409
G01 X8.5052 Y14.3310
G01 X8.4933 Y14.3223
G01 X8.4807 Y14.3147
G01 X8.4674 Y14.3084
G01 X8.4535 Y14.3035
G01 X8.4393 Y14.2999
G01 X8.4247 Y14.2977
G01 X8.4100 Y14.2970
G01 X8.3953 Y14.2977
G01 X8.3807 Y14.2999
G01 X8.3665 Y14.3035
G01 X8.3526 Y14.3084
G01 X8.3393 Y14.3147
G01 X8.3267 Y14.3223
G01 X8.3148 Y14.3310
G01 X8.3039 Y14.3409
G01 X8.2940 Y14.3518
G01 X8.2853 Y14.3637
G01 X8.2777 Y14.3763
G01 X8.2714 Y14.3896
G01 X8.2665 Y14.4035
G01 X8.2629 Y14.4177
G01 X8.2607 Y14.4323
G01 X8.2600 Y14.4470
G01 X8.2607 Y14.4617
G01 X8.2629 Y14.4763
G01 X8.2665 Y14.4905
G01 X8.2714 Y14.5044
G01 X8.2777 Y14.5177
G01 X8.2853 Y14.5303
G01 X8.2940 Y14.5422
G01 X8.3039 Y14.5531
G01 X8.3148 Y14.5630
G01 X8.3267 Y14.5717
G01 X8.3393 Y14.5793
G01 X8.3526 Y14.5856
G01 X8.3665 Y14.5905
G01 X8.3807 Y14.5941
G01 X8.3953 Y14.5963
G01 X8.4100 Y14.5970
G01 X8.4247 Y14.5963
G01 X8.4393 Y14.5941
G01 X8.4535 Y14.5905
G01 X8.4674 Y14.5856
G01 X8.4807 Y14.5793
G01 X8.4933 Y14.5717
G01 X8.5052 Y14.5630
G01 X8.5161 Y14.5531
G01 X8.5260 Y14.5422
G01 X8.5347 Y14.5303
G01 X8.5423 Y14.5177
G01 X8.5486 Y14.5044
G01 X8.5535 Y14.4905
G01 X8.5571 Y14.4763
G01 X8.5593 Y14.4617
G01 X8.5600 Y14.4470
G00 X8.5600 Y14.4470
G01 F76.20
G01 Z-0.4000
G01 F76.20
G01 X8.5593 Y14.4323
G01 X8.5571 Y14.4177
G01 X8.5535 Y14.4035
G01 X8.5486 Y14.3896
G01 X8.5423 Y14.3763
G01 X8.5347 Y14.3637
G01 X8.5260 Y14.3518
G01 X8.5161 Y14.3409
G01 X8.5052 Y14.3310
G01 X8.4933 Y14.3223
G01 X8.4807 Y14.3147
G01 X8.4674 Y14.3084
G01 X8.4535 Y14.3035
G01 X8.4393 Y14.2999
G01 X8.4247 Y14.2977
G01 X8.4100 Y14.2970
G01 X8.3953 Y14.2977
G01 X8.3807 Y14.2999
G01 X8.3665 Y14.3035
G01 X8.3526 Y14.3084
G01 X8.3393 Y14.3147
G01 X8.3267 Y14.3223
G01 X8.3148 Y14.3310
G01 X8.3039 Y14.3409
G01 X8.2940 Y14.3518
G01 X8.2853 Y14.3637
G01 X8.2777 Y14.3763
G01 X8.2714 Y14.3896
G01 X8.2665 Y14.4035
G01 X8.2629 Y14.4177
G01 X8.2607 Y14.4323
G01 X8.2600 Y14.4470
G01 X8.2607 Y14.4617
G01 X8.2629 Y14.4763
G01 X8.2665 Y14.4905
G01 X8.2714 Y14.5044
G01 X8.2777 Y14.5177
G01 X8.2853 Y14.5303
G01 X8.2940 Y14.5422
G01 X8.3039 Y14.5531
G01 X8.3148 Y14.5630
G01 X8.3267 Y14.5717
G01 X8.3393 Y14.5793
G01 X8.3526 Y14.5856
G01 X8.3665 Y14.5905
G01 X8.3807 Y14.5941
G01 X8.3953 Y14.5963
G01 X8.4100 Y14.5970
G01 X8.4247 Y14.5963
G01 X8.4393 Y14.5941
G01 X8.4535 Y14.5905
G01 X8.4674 Y14.5856
G01 X8.4807 Y14.5793
G01 X8.4933 Y14.5717
G01 X8.5052 Y14.5630
G01 X8.5161 Y14.5531
G01 X8.5260 Y14.5422
G01 X8.5347 Y14.5303
G01 X8.5423 Y14.5177
G01 X8.5486 Y14.5044
G01 X8.5535 Y14.4905
G01 X8.5571 Y14.4763
G01 X8.5593 Y14.4617
G01 X8.5600 Y14.4470
G00 X8.5600 Y14.4470
G01 F76.20
G01 Z-0.5000
G01 F76.20
G01 X8.5593 Y14.4323
G01 X8.5571 Y14.4177
G01 X8.5535 Y14.4035
G01 X8.5486 Y14.3896
G01 X8.5423 Y14.3763
G01 X8.5347 Y14.3637
G01 X8.5260 Y14.3518
G01 X8.5161 Y14.3409
G01 X8.5052 Y14.3310
G01 X8.4933 Y14.3223
G01 X8.4807 Y14.3147
G01 X8.4674 Y14.3084
G01 X8.4535 Y14.3035
G01 X8.4393 Y14.2999
G01 X8.4247 Y14.2977
G01 X8.4100 Y14.2970
G01 X8.3953 Y14.2977
G01 X8.3807 Y14.2999
G01 X8.3665 Y14.3035
G01 X8.3526 Y14.3084
G01 X8.3393 Y14.3147
G01 X8.3267 Y14.3223
G01 X8.3148 Y14.3310
G01 X8.3039 Y14.3409
G01 X8.2940 Y14.3518
G01 X8.2853 Y14.3637
G01 X8.2777 Y14.3763
G01 X8.2714 Y14.3896
G01 X8.2665 Y14.4035
G01 X8.2629 Y14.4177
G01 X8.2607 Y14.4323
G01 X8.2600 Y14.4470
G01 X8.2607 Y14.4617
G01 X8.2629 Y14.4763
G01 X8.2665 Y14.4905
G01 X8.2714 Y14.5044
G01 X8.2777 Y14.5177
G01 X8.2853 Y14.5303
G01 X8.2940 Y14.5422
G01 X8.3039 Y14.5531
G01 X8.3148 Y14.5630
G01 X8.3267 Y14.5717
G01 X8.3393 Y14.5793
G01 X8.3526 Y14.5856
G01 X8.3665 Y14.5905
G01 X8.3807 Y14.5941
G01 X8.3953 Y14.5963
G01 X8.4100 Y14.5970
G01 X8.4247 Y14.5963
G01 X8.4393 Y14.5941
G01 X8.4535 Y14.5905
G01 X8.4674 Y14.5856
G01 X8.4807 Y14.5793
G01 X8.4933 Y14.5717
G01 X8.5052 Y14.5630
G01 X8.5161 Y14.5531
G01 X8.5260 Y14.5422
G01 X8.5347 Y14.5303
G01 X8.5423 Y14.5177
G01 X8.5486 Y14.5044
G01 X8.5535 Y14.4905
G01 X8.5571 Y14.4763
G01 X8.5593 Y14.4617
G01 X8.5600 Y14.4470
G00 X8.5600 Y14.4470
G01 F76.20
G01 Z-0.6000
G01 F76.20
G01 X8.5593 Y14.4323
G01 X8.5571 Y14.4177
G01 X8.5535 Y14.4035
G01 X8.5486 Y14.3896
G01 X8.5423 Y14.3763
G01 X8.5347 Y14.3637
G01 X8.5260 Y14.3518
G01 X8.5161 Y14.3409
G01 X8.5052 Y14.3310
G01 X8.4933 Y14.3223
G01 X8.4807 Y14.3147
G01 X8.4674 Y14.3084
G01 X8.4535 Y14.3035
G01 X8.4393 Y14.2999
G01 X8.4247 Y14.2977
G01 X8.4100 Y14.2970
G01 X8.3953 Y14.2977
G01 X8.3807 Y14.2999
G01 X8.3665 Y14.3035
G01 X8.3526 Y14.3084
G01 X8.3393 Y14.3147
G01 X8.3267 Y14.3223
G01 X8.3148 Y14.3310
G01 X8.3039 Y14.3409
G01 X8.2940 Y14.3518
G01 X8.2853 Y14.3637
G01 X8.2777 Y14.3763
G01 X8.2714 Y14.3896
G01 X8.2665 Y14.4035
G01 X8.2629 Y14.4177
G01 X8.2607 Y14.4323
G01 X8.2600 Y14.4470
G01 X8.2607 Y14.4617
G01 X8.2629 Y14.4763
G01 X8.2665 Y14.4905
G01 X8.2714 Y14.5044
G01 X8.2777 Y14.5177
G01 X8.2853 Y14.5303
G01 X8.2940 Y14.5422
G01 X8.3039 Y14.5531
G01 X8.3148 Y14.5630
G01 X8.3267 Y14.5717
G01 X8.3393 Y14.5793
G01 X8.3526 Y14.5856
G01 X8.3665 Y14.5905
G01 X8.3807 Y14.5941
G01 X8.3953 Y14.5963
G01 X8.4100 Y14.5970
G01 X8.4247 Y14.5963
G01 X8.4393 Y14.5941
G01 X8.4535 Y14.5905
G01 X8.4674 Y14.5856
G01 X8.4807 Y14.5793
G01 X8.4933 Y14.5717
G01 X8.5052 Y14.5630
G01 X8.5161 Y14.5531
G01 X8.5260 Y14.5422
G01 X8.5347 Y14.5303
G01 X8.5423 Y14.5177
G01 X8.5486 Y14.5044
G01 X8.5535 Y14.4905
G01 X8.5571 Y14.4763
G01 X8.5593 Y14.4617
G01 X8.5600 Y14.4470
G00 X8.5600 Y14.4470
G01 F76.20
G01 Z-0.7000
G01 F76.20
G01 X8.5593 Y14.4323
G01 X8.5571 Y14.4177
G01 X8.5535 Y14.4035
G01 X8.5486 Y14.3896
G01 X8.5423 Y14.3763
G01 X8.5347 Y14.3637
G01 X8.5260 Y14.3518
G01 X8.5161 Y14.3409
G01 X8.5052 Y14.3310
G01 X8.4933 Y14.3223
G01 X8.4807 Y14.3147
G01 X8.4674 Y14.3084
G01 X8.4535 Y14.3035
G01 X8.4393 Y14.2999
G01 X8.4247 Y14.2977
G01 X8.4100 Y14.2970
G01 X8.3953 Y14.2977
G01 X8.3807 Y14.2999
G01 X8.3665 Y14.3035
G01 X8.3526 Y14.3084
G01 X8.3393 Y14.3147
G01 X8.3267 Y14.3223
G01 X8.3148 Y14.3310
G01 X8.3039 Y14.3409
G01 X8.2940 Y14.3518
G01 X8.2853 Y14.3637
G01 X8.2777 Y14.3763
G01 X8.2714 Y14.3896
G01 X8.2665 Y14.4035
G01 X8.2629 Y14.4177
G01 X8.2607 Y14.4323
G01 X8.2600 Y14.4470
G01 X8.2607 Y14.4617
G01 X8.2629 Y14.4763
G01 X8.2665 Y14.4905
G01 X8.2714 Y14.5044
G01 X8.2777 Y14.5177
G01 X8.2853 Y14.5303
G01 X8.2940 Y14.5422
G01 X8.3039 Y14.5531
G01 X8.3148 Y14.5630
G01 X8.3267 Y14.5717
G01 X8.3393 Y14.5793
G01 X8.3526 Y14.5856
G01 X8.3665 Y14.5905
G01 X8.3807 Y14.5941
G01 X8.3953 Y14.5963
G01 X8.4100 Y14.5970
G01 X8.4247 Y14.5963
G01 X8.4393 Y14.5941
G01 X8.4535 Y14.5905
G01 X8.4674 Y14.5856
G01 X8.4807 Y14.5793
G01 X8.4933 Y14.5717
G01 X8.5052 Y14.5630
G01 X8.5161 Y14.5531
G01 X8.5260 Y14.5422
G01 X8.5347 Y14.5303
G01 X8.5423 Y14.5177
G01 X8.5486 Y14.5044
G01 X8.5535 Y14.4905
G01 X8.5571 Y14.4763
G01 X8.5593 Y14.4617
G01 X8.5600 Y14.4470
G00 X8.5600 Y14.4470
G01 F76.20
G01 Z-0.8000
G01 F76.20
G01 X8.5593 Y14.4323
G01 X8.5571 Y14.4177
G01 X8.5535 Y14.4035
G01 X8.5486 Y14.3896
G01 X8.5423 Y14.3763
G01 X8.5347 Y14.3637
G01 X8.5260 Y14.3518
G01 X8.5161 Y14.3409
G01 X8.5052 Y14.3310
G01 X8.4933 Y14.3223
G01 X8.4807 Y14.3147
G01 X8.4674 Y14.3084
G01 X8.4535 Y14.3035
G01 X8.4393 Y14.2999
G01 X8.4247 Y14.2977
G01 X8.4100 Y14.2970
G01 X8.3953 Y14.2977
G01 X8.3807 Y14.2999
G01 X8.3665 Y14.3035
G01 X8.3526 Y14.3084
G01 X8.3393 Y14.3147
G01 X8.3267 Y14.3223
G01 X8.3148 Y14.3310
G01 X8.3039 Y14.3409
G01 X8.2940 Y14.3518
G01 X8.2853 Y14.3637
G01 X8.2777 Y14.3763
G01 X8.2714 Y14.3896
G01 X8.2665 Y14.4035
G01 X8.2629 Y14.4177
G01 X8.2607 Y14.4323
G01 X8.2600 Y14.4470
G01 X8.2607 Y14.4617
G01 X8.2629 Y14.4763
G01 X8.2665 Y14.4905
G01 X8.2714 Y14.5044
G01 X8.2777 Y14.5177
G01 X8.2853 Y14.5303
G01 X8.2940 Y14.5422
G01 X8.3039 Y14.5531
G01 X8.3148 Y14.5630
G01 X8.3267 Y14.5717
G01 X8.3393 Y14.5793
G01 X8.3526 Y14.5856
G01 X8.3665 Y14.5905
G01 X8.3807 Y14.5941
G01 X8.3953 Y14.5963
G01 X8.4100 Y14.5970
G01 X8.4247 Y14.5963
G01 X8.4393 Y14.5941
G01 X8.4535 Y14.5905
G01 X8.4674 Y14.5856
G01 X8.4807 Y14.5793
G01 X8.4933 Y14.5717
G01 X8.5052 Y14.5630
G01 X8.5161 Y14.5531
G01 X8.5260 Y14.5422
G01 X8.5347 Y14.5303
G01 X8.5423 Y14.5177
G01 X8.5486 Y14.5044
G01 X8.5535 Y14.4905
G01 X8.5571 Y14.4763
G01 X8.5593 Y14.4617
G01 X8.5600 Y14.4470
G00 X8.5600 Y14.4470
G01 F76.20
G01 Z-0.9000
G01 F76.20
G01 X8.5593 Y14.4323
G01 X8.5571 Y14.4177
G01 X8.5535 Y14.4035
G01 X8.5486 Y14.3896
G01 X8.5423 Y14.3763
G01 X8.5347 Y14.3637
G01 X8.5260 Y14.3518
G01 X8.5161 Y14.3409
G01 X8.5052 Y14.3310
G01 X8.4933 Y14.3223
G01 X8.4807 Y14.3147
G01 X8.4674 Y14.3084
G01 X8.4535 Y14.3035
G01 X8.4393 Y14.2999
G01 X8.4247 Y14.2977
G01 X8.4100 Y14.2970
G01 X8.3953 Y14.2977
G01 X8.3807 Y14.2999
G01 X8.3665 Y14.3035
G01 X8.3526 Y14.3084
G01 X8.3393 Y14.3147
G01 X8.3267 Y14.3223
G01 X8.3148 Y14.3310
G01 X8.3039 Y14.3409
G01 X8.2940 Y14.3518
G01 X8.2853 Y14.3637
G01 X8.2777 Y14.3763
G01 X8.2714 Y14.3896
G01 X8.2665 Y14.4035
G01 X8.2629 Y14.4177
G01 X8.2607 Y14.4323
G01 X8.2600 Y14.4470
G01 X8.2607 Y14.4617
G01 X8.2629 Y14.4763
G01 X8.2665 Y14.4905
G01 X8.2714 Y14.5044
G01 X8.2777 Y14.5177
G01 X8.2853 Y14.5303
G01 X8.2940 Y14.5422
G01 X8.3039 Y14.5531
G01 X8.3148 Y14.5630
G01 X8.3267 Y14.5717
G01 X8.3393 Y14.5793
G01 X8.3526 Y14.5856
G01 X8.3665 Y14.5905
G01 X8.3807 Y14.5941
G01 X8.3953 Y14.5963
G01 X8.4100 Y14.5970
G01 X8.4247 Y14.5963
G01 X8.4393 Y14.5941
G01 X8.4535 Y14.5905
G01 X8.4674 Y14.5856
G01 X8.4807 Y14.5793
G01 X8.4933 Y14.5717
G01 X8.5052 Y14.5630
G01 X8.5161 Y14.5531
G01 X8.5260 Y14.5422
G01 X8.5347 Y14.5303
G01 X8.5423 Y14.5177
G01 X8.5486 Y14.5044
G01 X8.5535 Y14.4905
G01 X8.5571 Y14.4763
G01 X8.5593 Y14.4617
G01 X8.5600 Y14.4470
G00 X8.5600 Y14.4470
G01 F76.20
G01 Z-1.0000
G01 F76.20
G01 X8.5593 Y14.4323
G01 X8.5571 Y14.4177
G01 X8.5535 Y14.4035
G01 X8.5486 Y14.3896
G01 X8.5423 Y14.3763
G01 X8.5347 Y14.3637
G01 X8.5260 Y14.3518
G01 X8.5161 Y14.3409
G01 X8.5052 Y14.3310
G01 X8.4933 Y14.3223
G01 X8.4807 Y14.3147
G01 X8.4674 Y14.3084
G01 X8.4535 Y14.3035
G01 X8.4393 Y14.2999
G01 X8.4247 Y14.2977
G01 X8.4100 Y14.2970
G01 X8.3953 Y14.2977
G01 X8.3807 Y14.2999
G01 X8.3665 Y14.3035
G01 X8.3526 Y14.3084
G01 X8.3393 Y14.3147
G01 X8.3267 Y14.3223
G01 X8.3148 Y14.3310
G01 X8.3039 Y14.3409
G01 X8.2940 Y14.3518
G01 X8.2853 Y14.3637
G01 X8.2777 Y14.3763
G01 X8.2714 Y14.3896
G01 X8.2665 Y14.4035
G01 X8.2629 Y14.4177
G01 X8.2607 Y14.4323
G01 X8.2600 Y14.4470
G01 X8.2607 Y14.4617
G01 X8.2629 Y14.4763
G01 X8.2665 Y14.4905
G01 X8.2714 Y14.5044
G01 X8.2777 Y14.5177
G01 X8.2853 Y14.5303
G01 X8.2940 Y14.5422
G01 X8.3039 Y14.5531
G01 X8.3148 Y14.5630
G01 X8.3267 Y14.5717
G01 X8.3393 Y14.5793
G01 X8.3526 Y14.5856
G01 X8.3665 Y14.5905
G01 X8.3807 Y14.5941
G01 X8.3953 Y14.5963
G01 X8.4100 Y14.5970
G01 X8.4247 Y14.5963
G01 X8.4393 Y14.5941
G01 X8.4535 Y14.5905
G01 X8.4674 Y14.5856
G01 X8.4807 Y14.5793
G01 X8.4933 Y14.5717
G01 X8.5052 Y14.5630
G01 X8.5161 Y14.5531
G01 X8.5260 Y14.5422
G01 X8.5347 Y14.5303
G01 X8.5423 Y14.5177
G01 X8.5486 Y14.5044
G01 X8.5535 Y14.4905
G01 X8.5571 Y14.4763
G01 X8.5593 Y14.4617
G01 X8.5600 Y14.4470
G00 X8.5600 Y14.4470
G01 F76.20
G01 Z-1.1000
G01 F76.20
G01 X8.5593 Y14.4323
G01 X8.5571 Y14.4177
G01 X8.5535 Y14.4035
G01 X8.5486 Y14.3896
G01 X8.5423 Y14.3763
G01 X8.5347 Y14.3637
G01 X8.5260 Y14.3518
G01 X8.5161 Y14.3409
G01 X8.5052 Y14.3310
G01 X8.4933 Y14.3223
G01 X8.4807 Y14.3147
G01 X8.4674 Y14.3084
G01 X8.4535 Y14.3035
G01 X8.4393 Y14.2999
G01 X8.4247 Y14.2977
G01 X8.4100 Y14.2970
G01 X8.3953 Y14.2977
G01 X8.3807 Y14.2999
G01 X8.3665 Y14.3035
G01 X8.3526 Y14.3084
G01 X8.3393 Y14.3147
G01 X8.3267 Y14.3223
G01 X8.3148 Y14.3310
G01 X8.3039 Y14.3409
G01 X8.2940 Y14.3518
G01 X8.2853 Y14.3637
G01 X8.2777 Y14.3763
G01 X8.2714 Y14.3896
G01 X8.2665 Y14.4035
G01 X8.2629 Y14.4177
G01 X8.2607 Y14.4323
G01 X8.2600 Y14.4470
G01 X8.2607 Y14.4617
G01 X8.2629 Y14.4763
G01 X8.2665 Y14.4905
G01 X8.2714 Y14.5044
G01 X8.2777 Y14.5177
G01 X8.2853 Y14.5303
G01 X8.2940 Y14.5422
G01 X8.3039 Y14.5531
G01 X8.3148 Y14.5630
G01 X8.3267 Y14.5717
G01 X8.3393 Y14.5793
G01 X8.3526 Y14.5856
G01 X8.3665 Y14.5905
G01 X8.3807 Y14.5941
G01 X8.3953 Y14.5963
G01 X8.4100 Y14.5970
G01 X8.4247 Y14.5963
G01 X8.4393 Y14.5941
G01 X8.4535 Y14.5905
G01 X8.4674 Y14.5856
G01 X8.4807 Y14.5793
G01 X8.4933 Y14.5717
G01 X8.5052 Y14.5630
G01 X8.5161 Y14.5531
G01 X8.5260 Y14.5422
G01 X8.5347 Y14.5303
G01 X8.5423 Y14.5177
G01 X8.5486 Y14.5044
G01 X8.5535 Y14.4905
G01 X8.5571 Y14.4763
G01 X8.5593 Y14.4617
G01 X8.5600 Y14.4470
G00 X8.5600 Y14.4470
G01 F76.20
G01 Z-1.2000
G01 F76.20
G01 X8.5593 Y14.4323
G01 X8.5571 Y14.4177
G01 X8.5535 Y14.4035
G01 X8.5486 Y14.3896
G01 X8.5423 Y14.3763
G01 X8.5347 Y14.3637
G01 X8.5260 Y14.3518
G01 X8.5161 Y14.3409
G01 X8.5052 Y14.3310
G01 X8.4933 Y14.3223
G01 X8.4807 Y14.3147
G01 X8.4674 Y14.3084
G01 X8.4535 Y14.3035
G01 X8.4393 Y14.2999
G01 X8.4247 Y14.2977
G01 X8.4100 Y14.2970
G01 X8.3953 Y14.2977
G01 X8.3807 Y14.2999
G01 X8.3665 Y14.3035
G01 X8.3526 Y14.3084
G01 X8.3393 Y14.3147
G01 X8.3267 Y14.3223
G01 X8.3148 Y14.3310
G01 X8.3039 Y14.3409
G01 X8.2940 Y14.3518
G01 X8.2853 Y14.3637
G01 X8.2777 Y14.3763
G01 X8.2714 Y14.3896
G01 X8.2665 Y14.4035
G01 X8.2629 Y14.4177
G01 X8.2607 Y14.4323
G01 X8.2600 Y14.4470
G01 X8.2607 Y14.4617
G01 X8.2629 Y14.4763
G01 X8.2665 Y14.4905
G01 X8.2714 Y14.5044
G01 X8.2777 Y14.5177
G01 X8.2853 Y14.5303
G01 X8.2940 Y14.5422
G01 X8.3039 Y14.5531
G01 X8.3148 Y14.5630
G01 X8.3267 Y14.5717
G01 X8.3393 Y14.5793
G01 X8.3526 Y14.5856
G01 X8.3665 Y14.5905
G01 X8.3807 Y14.5941
G01 X8.3953 Y14.5963
G01 X8.4100 Y14.5970
G01 X8.4247 Y14.5963
G01 X8.4393 Y14.5941
G01 X8.4535 Y14.5905
G01 X8.4674 Y14.5856
G01 X8.4807 Y14.5793
G01 X8.4933 Y14.5717
G01 X8.5052 Y14.5630
G01 X8.5161 Y14.5531
G01 X8.5260 Y14.5422
G01 X8.5347 Y14.5303
G01 X8.5423 Y14.5177
G01 X8.5486 Y14.5044
G01 X8.5535 Y14.4905
G01 X8.5571 Y14.4763
G01 X8.5593 Y14.4617
G01 X8.5600 Y14.4470
G00 X8.5600 Y14.4470
G01 F76.20
G01 Z-1.3000
G01 F76.20
G01 X8.5593 Y14.4323
G01 X8.5571 Y14.4177
G01 X8.5535 Y14.4035
G01 X8.5486 Y14.3896
G01 X8.5423 Y14.3763
G01 X8.5347 Y14.3637
G01 X8.5260 Y14.3518
G01 X8.5161 Y14.3409
G01 X8.5052 Y14.3310
G01 X8.4933 Y14.3223
G01 X8.4807 Y14.3147
G01 X8.4674 Y14.3084
G01 X8.4535 Y14.3035
G01 X8.4393 Y14.2999
G01 X8.4247 Y14.2977
G01 X8.4100 Y14.2970
G01 X8.3953 Y14.2977
G01 X8.3807 Y14.2999
G01 X8.3665 Y14.3035
G01 X8.3526 Y14.3084
G01 X8.3393 Y14.3147
G01 X8.3267 Y14.3223
G01 X8.3148 Y14.3310
G01 X8.3039 Y14.3409
G01 X8.2940 Y14.3518
G01 X8.2853 Y14.3637
G01 X8.2777 Y14.3763
G01 X8.2714 Y14.3896
G01 X8.2665 Y14.4035
G01 X8.2629 Y14.4177
G01 X8.2607 Y14.4323
G01 X8.2600 Y14.4470
G01 X8.2607 Y14.4617
G01 X8.2629 Y14.4763
G01 X8.2665 Y14.4905
G01 X8.2714 Y14.5044
G01 X8.2777 Y14.5177
G01 X8.2853 Y14.5303
G01 X8.2940 Y14.5422
G01 X8.3039 Y14.5531
G01 X8.3148 Y14.5630
G01 X8.3267 Y14.5717
G01 X8.3393 Y14.5793
G01 X8.3526 Y14.5856
G01 X8.3665 Y14.5905
G01 X8.3807 Y14.5941
G01 X8.3953 Y14.5963
G01 X8.4100 Y14.5970
G01 X8.4247 Y14.5963
G01 X8.4393 Y14.5941
G01 X8.4535 Y14.5905
G01 X8.4674 Y14.5856
G01 X8.4807 Y14.5793
G01 X8.4933 Y14.5717
G01 X8.5052 Y14.5630
G01 X8.5161 Y14.5531
G01 X8.5260 Y14.5422
G01 X8.5347 Y14.5303
G01 X8.5423 Y14.5177
G01 X8.5486 Y14.5044
G01 X8.5535 Y14.4905
G01 X8.5571 Y14.4763
G01 X8.5593 Y14.4617
G01 X8.5600 Y14.4470
G00 X8.5600 Y14.4470
G01 F76.20
G01 Z-1.4000
G01 F76.20
G01 X8.5593 Y14.4323
G01 X8.5571 Y14.4177
G01 X8.5535 Y14.4035
G01 X8.5486 Y14.3896
G01 X8.5423 Y14.3763
G01 X8.5347 Y14.3637
G01 X8.5260 Y14.3518
G01 X8.5161 Y14.3409
G01 X8.5052 Y14.3310
G01 X8.4933 Y14.3223
G01 X8.4807 Y14.3147
G01 X8.4674 Y14.3084
G01 X8.4535 Y14.3035
G01 X8.4393 Y14.2999
G01 X8.4247 Y14.2977
G01 X8.4100 Y14.2970
G01 X8.3953 Y14.2977
G01 X8.3807 Y14.2999
G01 X8.3665 Y14.3035
G01 X8.3526 Y14.3084
G01 X8.3393 Y14.3147
G01 X8.3267 Y14.3223
G01 X8.3148 Y14.3310
G01 X8.3039 Y14.3409
G01 X8.2940 Y14.3518
G01 X8.2853 Y14.3637
G01 X8.2777 Y14.3763
G01 X8.2714 Y14.3896
G01 X8.2665 Y14.4035
G01 X8.2629 Y14.4177
G01 X8.2607 Y14.4323
G01 X8.2600 Y14.4470
G01 X8.2607 Y14.4617
G01 X8.2629 Y14.4763
G01 X8.2665 Y14.4905
G01 X8.2714 Y14.5044
G01 X8.2777 Y14.5177
G01 X8.2853 Y14.5303
G01 X8.2940 Y14.5422
G01 X8.3039 Y14.5531
G01 X8.3148 Y14.5630
G01 X8.3267 Y14.5717
G01 X8.3393 Y14.5793
G01 X8.3526 Y14.5856
G01 X8.3665 Y14.5905
G01 X8.3807 Y14.5941
G01 X8.3953 Y14.5963
G01 X8.4100 Y14.5970
G01 X8.4247 Y14.5963
G01 X8.4393 Y14.5941
G01 X8.4535 Y14.5905
G01 X8.4674 Y14.5856
G01 X8.4807 Y14.5793
G01 X8.4933 Y14.5717
G01 X8.5052 Y14.5630
G01 X8.5161 Y14.5531
G01 X8.5260 Y14.5422
G01 X8.5347 Y14.5303
G01 X8.5423 Y14.5177
G01 X8.5486 Y14.5044
G01 X8.5535 Y14.4905
G01 X8.5571 Y14.4763
G01 X8.5593 Y14.4617
G01 X8.5600 Y14.4470
G00 X8.5600 Y14.4470
G01 F76.20
G01 Z-1.5000
G01 F76.20
G01 X8.5593 Y14.4323
G01 X8.5571 Y14.4177
G01 X8.5535 Y14.4035
G01 X8.5486 Y14.3896
G01 X8.5423 Y14.3763
G01 X8.5347 Y14.3637
G01 X8.5260 Y14.3518
G01 X8.5161 Y14.3409
G01 X8.5052 Y14.3310
G01 X8.4933 Y14.3223
G01 X8.4807 Y14.3147
G01 X8.4674 Y14.3084
G01 X8.4535 Y14.3035
G01 X8.4393 Y14.2999
G01 X8.4247 Y14.2977
G01 X8.4100 Y14.2970
G01 X8.3953 Y14.2977
G01 X8.3807 Y14.2999
G01 X8.3665 Y14.3035
G01 X8.3526 Y14.3084
G01 X8.3393 Y14.3147
G01 X8.3267 Y14.3223
G01 X8.3148 Y14.3310
G01 X8.3039 Y14.3409
G01 X8.2940 Y14.3518
G01 X8.2853 Y14.3637
G01 X8.2777 Y14.3763
G01 X8.2714 Y14.3896
G01 X8.2665 Y14.4035
G01 X8.2629 Y14.4177
G01 X8.2607 Y14.4323
G01 X8.2600 Y14.4470
G01 X8.2607 Y14.4617
G01 X8.2629 Y14.4763
G01 X8.2665 Y14.4905
G01 X8.2714 Y14.5044
G01 X8.2777 Y14.5177
G01 X8.2853 Y14.5303
G01 X8.2940 Y14.5422
G01 X8.3039 Y14.5531
G01 X8.3148 Y14.5630
G01 X8.3267 Y14.5717
G01 X8.3393 Y14.5793
G01 X8.3526 Y14.5856
G01 X8.3665 Y14.5905
G01 X8.3807 Y14.5941
G01 X8.3953 Y14.5963
G01 X8.4100 Y14.5970
G01 X8.4247 Y14.5963
G01 X8.4393 Y14.5941
G01 X8.4535 Y14.5905
G01 X8.4674 Y14.5856
G01 X8.4807 Y14.5793
G01 X8.4933 Y14.5717
G01 X8.5052 Y14.5630
G01 X8.5161 Y14.5531
G01 X8.5260 Y14.5422
G01 X8.5347 Y14.5303
G01 X8.5423 Y14.5177
G01 X8.5486 Y14.5044
G01 X8.5535 Y14.4905
G01 X8.5571 Y14.4763
G01 X8.5593 Y14.4617
G01 X8.5600 Y14.4470
G00 X8.5600 Y14.4470
G01 F76.20
G01 Z-1.6000
G01 F76.20
G01 X8.5593 Y14.4323
G01 X8.5571 Y14.4177
G01 X8.5535 Y14.4035
G01 X8.5486 Y14.3896
G01 X8.5423 Y14.3763
G01 X8.5347 Y14.3637
G01 X8.5260 Y14.3518
G01 X8.5161 Y14.3409
G01 X8.5052 Y14.3310
G01 X8.4933 Y14.3223
G01 X8.4807 Y14.3147
G01 X8.4674 Y14.3084
G01 X8.4535 Y14.3035
G01 X8.4393 Y14.2999
G01 X8.4247 Y14.2977
G01 X8.4100 Y14.2970
G01 X8.3953 Y14.2977
G01 X8.3807 Y14.2999
G01 X8.3665 Y14.3035
G01 X8.3526 Y14.3084
G01 X8.3393 Y14.3147
G01 X8.3267 Y14.3223
G01 X8.3148 Y14.3310
G01 X8.3039 Y14.3409
G01 X8.2940 Y14.3518
G01 X8.2853 Y14.3637
G01 X8.2777 Y14.3763
G01 X8.2714 Y14.3896
G01 X8.2665 Y14.4035
G01 X8.2629 Y14.4177
G01 X8.2607 Y14.4323
G01 X8.2600 Y14.4470
G01 X8.2607 Y14.4617
G01 X8.2629 Y14.4763
G01 X8.2665 Y14.4905
G01 X8.2714 Y14.5044
G01 X8.2777 Y14.5177
G01 X8.2853 Y14.5303
G01 X8.2940 Y14.5422
G01 X8.3039 Y14.5531
G01 X8.3148 Y14.5630
G01 X8.3267 Y14.5717
G01 X8.3393 Y14.5793
G01 X8.3526 Y14.5856
G01 X8.3665 Y14.5905
G01 X8.3807 Y14.5941
G01 X8.3953 Y14.5963
G01 X8.4100 Y14.5970
G01 X8.4247 Y14.5963
G01 X8.4393 Y14.5941
G01 X8.4535 Y14.5905
G01 X8.4674 Y14.5856
G01 X8.4807 Y14.5793
G01 X8.4933 Y14.5717
G01 X8.5052 Y14.5630
G01 X8.5161 Y14.5531
G01 X8.5260 Y14.5422
G01 X8.5347 Y14.5303
G01 X8.5423 Y14.5177
G01 X8.5486 Y14.5044
G01 X8.5535 Y14.4905
G01 X8.5571 Y14.4763
G01 X8.5593 Y14.4617
G01 X8.5600 Y14.4470
G00 X8.5600 Y14.4470
G01 F76.20
G01 Z-1.7000
G01 F76.20
G01 X8.5593 Y14.4323
G01 X8.5571 Y14.4177
G01 X8.5535 Y14.4035
G01 X8.5486 Y14.3896
G01 X8.5423 Y14.3763
G01 X8.5347 Y14.3637
G01 X8.5260 Y14.3518
G01 X8.5161 Y14.3409
G01 X8.5052 Y14.3310
G01 X8.4933 Y14.3223
G01 X8.4807 Y14.3147
G01 X8.4674 Y14.3084
G01 X8.4535 Y14.3035
G01 X8.4393 Y14.2999
G01 X8.4247 Y14.2977
G01 X8.4100 Y14.2970
G01 X8.3953 Y14.2977
G01 X8.3807 Y14.2999
G01 X8.3665 Y14.3035
G01 X8.3526 Y14.3084
G01 X8.3393 Y14.3147
G01 X8.3267 Y14.3223
G01 X8.3148 Y14.3310
G01 X8.3039 Y14.3409
G01 X8.2940 Y14.3518
G01 X8.2853 Y14.3637
G01 X8.2777 Y14.3763
G01 X8.2714 Y14.3896
G01 X8.2665 Y14.4035
G01 X8.2629 Y14.4177
G01 X8.2607 Y14.4323
G01 X8.2600 Y14.4470
G01 X8.2607 Y14.4617
G01 X8.2629 Y14.4763
G01 X8.2665 Y14.4905
G01 X8.2714 Y14.5044
G01 X8.2777 Y14.5177
G01 X8.2853 Y14.5303
G01 X8.2940 Y14.5422
G01 X8.3039 Y14.5531
G01 X8.3148 Y14.5630
G01 X8.3267 Y14.5717
G01 X8.3393 Y14.5793
G01 X8.3526 Y14.5856
G01 X8.3665 Y14.5905
G01 X8.3807 Y14.5941
G01 X8.3953 Y14.5963
G01 X8.4100 Y14.5970
G01 X8.4247 Y14.5963
G01 X8.4393 Y14.5941
G01 X8.4535 Y14.5905
G01 X8.4674 Y14.5856
G01 X8.4807 Y14.5793
G01 X8.4933 Y14.5717
G01 X8.5052 Y14.5630
G01 X8.5161 Y14.5531
G01 X8.5260 Y14.5422
G01 X8.5347 Y14.5303
G01 X8.5423 Y14.5177
G01 X8.5486 Y14.5044
G01 X8.5535 Y14.4905
G01 X8.5571 Y14.4763
G01 X8.5593 Y14.4617
G01 X8.5600 Y14.4470
G00 X8.5600 Y14.4470
G01 F76.20
G01 Z-1.8000
G01 F76.20
G01 X8.5593 Y14.4323
G01 X8.5571 Y14.4177
G01 X8.5535 Y14.4035
G01 X8.5486 Y14.3896
G01 X8.5423 Y14.3763
G01 X8.5347 Y14.3637
G01 X8.5260 Y14.3518
G01 X8.5161 Y14.3409
G01 X8.5052 Y14.3310
G01 X8.4933 Y14.3223
G01 X8.4807 Y14.3147
G01 X8.4674 Y14.3084
G01 X8.4535 Y14.3035
G01 X8.4393 Y14.2999
G01 X8.4247 Y14.2977
G01 X8.4100 Y14.2970
G01 X8.3953 Y14.2977
G01 X8.3807 Y14.2999
G01 X8.3665 Y14.3035
G01 X8.3526 Y14.3084
G01 X8.3393 Y14.3147
G01 X8.3267 Y14.3223
G01 X8.3148 Y14.3310
G01 X8.3039 Y14.3409
G01 X8.2940 Y14.3518
G01 X8.2853 Y14.3637
G01 X8.2777 Y14.3763
G01 X8.2714 Y14.3896
G01 X8.2665 Y14.4035
G01 X8.2629 Y14.4177
G01 X8.2607 Y14.4323
G01 X8.2600 Y14.4470
G01 X8.2607 Y14.4617
G01 X8.2629 Y14.4763
G01 X8.2665 Y14.4905
G01 X8.2714 Y14.5044
G01 X8.2777 Y14.5177
G01 X8.2853 Y14.5303
G01 X8.2940 Y14.5422
G01 X8.3039 Y14.5531
G01 X8.3148 Y14.5630
G01 X8.3267 Y14.5717
G01 X8.3393 Y14.5793
G01 X8.3526 Y14.5856
G01 X8.3665 Y14.5905
G01 X8.3807 Y14.5941
G01 X8.3953 Y14.5963
G01 X8.4100 Y14.5970
G01 X8.4247 Y14.5963
G01 X8.4393 Y14.5941
G01 X8.4535 Y14.5905
G01 X8.4674 Y14.5856
G01 X8.4807 Y14.5793
G01 X8.4933 Y14.5717
G01 X8.5052 Y14.5630
G01 X8.5161 Y14.5531
G01 X8.5260 Y14.5422
G01 X8.5347 Y14.5303
G01 X8.5423 Y14.5177
G01 X8.5486 Y14.5044
G01 X8.5535 Y14.4905
G01 X8.5571 Y14.4763
G01 X8.5593 Y14.4617
G01 X8.5600 Y14.4470
G00 X8.5600 Y14.4470
G01 F76.20
G01 Z-1.9000
G01 F76.20
G01 X8.5593 Y14.4323
G01 X8.5571 Y14.4177
G01 X8.5535 Y14.4035
G01 X8.5486 Y14.3896
G01 X8.5423 Y14.3763
G01 X8.5347 Y14.3637
G01 X8.5260 Y14.3518
G01 X8.5161 Y14.3409
G01 X8.5052 Y14.3310
G01 X8.4933 Y14.3223
G01 X8.4807 Y14.3147
G01 X8.4674 Y14.3084
G01 X8.4535 Y14.3035
G01 X8.4393 Y14.2999
G01 X8.4247 Y14.2977
G01 X8.4100 Y14.2970
G01 X8.3953 Y14.2977
G01 X8.3807 Y14.2999
G01 X8.3665 Y14.3035
G01 X8.3526 Y14.3084
G01 X8.3393 Y14.3147
G01 X8.3267 Y14.3223
G01 X8.3148 Y14.3310
G01 X8.3039 Y14.3409
G01 X8.2940 Y14.3518
G01 X8.2853 Y14.3637
G01 X8.2777 Y14.3763
G01 X8.2714 Y14.3896
G01 X8.2665 Y14.4035
G01 X8.2629 Y14.4177
G01 X8.2607 Y14.4323
G01 X8.2600 Y14.4470
G01 X8.2607 Y14.4617
G01 X8.2629 Y14.4763
G01 X8.2665 Y14.4905
G01 X8.2714 Y14.5044
G01 X8.2777 Y14.5177
G01 X8.2853 Y14.5303
G01 X8.2940 Y14.5422
G01 X8.3039 Y14.5531
G01 X8.3148 Y14.5630
G01 X8.3267 Y14.5717
G01 X8.3393 Y14.5793
G01 X8.3526 Y14.5856
G01 X8.3665 Y14.5905
G01 X8.3807 Y14.5941
G01 X8.3953 Y14.5963
G01 X8.4100 Y14.5970
G01 X8.4247 Y14.5963
G01 X8.4393 Y14.5941
G01 X8.4535 Y14.5905
G01 X8.4674 Y14.5856
G01 X8.4807 Y14.5793
G01 X8.4933 Y14.5717
G01 X8.5052 Y14.5630
G01 X8.5161 Y14.5531
G01 X8.5260 Y14.5422
G01 X8.5347 Y14.5303
G01 X8.5423 Y14.5177
G01 X8.5486 Y14.5044
G01 X8.5535 Y14.4905
G01 X8.5571 Y14.4763
G01 X8.5593 Y14.4617
G01 X8.5600 Y14.4470
G00 X8.5600 Y14.4470
G01 F76.20
G01 Z-2.0000
G01 F76.20
G01 X8.5593 Y14.4323
G01 X8.5571 Y14.4177
G01 X8.5535 Y14.4035
G01 X8.5486 Y14.3896
G01 X8.5423 Y14.3763
G01 X8.5347 Y14.3637
G01 X8.5260 Y14.3518
G01 X8.5161 Y14.3409
G01 X8.5052 Y14.3310
G01 X8.4933 Y14.3223
G01 X8.4807 Y14.3147
G01 X8.4674 Y14.3084
G01 X8.4535 Y14.3035
G01 X8.4393 Y14.2999
G01 X8.4247 Y14.2977
G01 X8.4100 Y14.2970
G01 X8.3953 Y14.2977
G01 X8.3807 Y14.2999
G01 X8.3665 Y14.3035
G01 X8.3526 Y14.3084
G01 X8.3393 Y14.3147
G01 X8.3267 Y14.3223
G01 X8.3148 Y14.3310
G01 X8.3039 Y14.3409
G01 X8.2940 Y14.3518
G01 X8.2853 Y14.3637
G01 X8.2777 Y14.3763
G01 X8.2714 Y14.3896
G01 X8.2665 Y14.4035
G01 X8.2629 Y14.4177
G01 X8.2607 Y14.4323
G01 X8.2600 Y14.4470
G01 X8.2607 Y14.4617
G01 X8.2629 Y14.4763
G01 X8.2665 Y14.4905
G01 X8.2714 Y14.5044
G01 X8.2777 Y14.5177
G01 X8.2853 Y14.5303
G01 X8.2940 Y14.5422
G01 X8.3039 Y14.5531
G01 X8.3148 Y14.5630
G01 X8.3267 Y14.5717
G01 X8.3393 Y14.5793
G01 X8.3526 Y14.5856
G01 X8.3665 Y14.5905
G01 X8.3807 Y14.5941
G01 X8.3953 Y14.5963
G01 X8.4100 Y14.5970
G01 X8.4247 Y14.5963
G01 X8.4393 Y14.5941
G01 X8.4535 Y14.5905
G01 X8.4674 Y14.5856
G01 X8.4807 Y14.5793
G01 X8.4933 Y14.5717
G01 X8.5052 Y14.5630
G01 X8.5161 Y14.5531
G01 X8.5260 Y14.5422
G01 X8.5347 Y14.5303
G01 X8.5423 Y14.5177
G01 X8.5486 Y14.5044
G01 X8.5535 Y14.4905
G01 X8.5571 Y14.4763
G01 X8.5593 Y14.4617
G01 X8.5600 Y14.4470
G00 Z2.5400
G00 X6.9100 Y15.4000
G01 F76.20
G01 Z-0.1000
G01 F76.20
G01 X6.9093 Y15.3853
G01 X6.9071 Y15.3707
G01 X6.9035 Y15.3565
G01 X6.8986 Y15.3426
G01 X6.8923 Y15.3293
G01 X6.8847 Y15.3167
G01 X6.8760 Y15.3048
G01 X6.8661 Y15.2939
G01 X6.8552 Y15.2840
G01 X6.8433 Y15.2753
G01 X6.8307 Y15.2677
G01 X6.8174 Y15.2614
G01 X6.8035 Y15.2565
G01 X6.7893 Y15.2529
G01 X6.7747 Y15.2507
G01 X6.7600 Y15.2500
G01 X6.7453 Y15.2507
G01 X6.7307 Y15.2529
G01 X6.7165 Y15.2565
G01 X6.7026 Y15.2614
G01 X6.6893 Y15.2677
G01 X6.6767 Y15.2753
G01 X6.6648 Y15.2840
G01 X6.6539 Y15.2939
G01 X6.6440 Y15.3048
G01 X6.6353 Y15.3167
G01 X6.6277 Y15.3293
G01 X6.6214 Y15.3426
G01 X6.6165 Y15.3565
G01 X6.6129 Y15.3707
G01 X6.6107 Y15.3853
G01 X6.6100 Y15.4000
G01 X6.6107 Y15.4147
G01 X6.6129 Y15.4293
G01 X6.6165 Y15.4435
G01 X6.6214 Y15.4574
G01 X6.6277 Y15.4707
G01 X6.6353 Y15.4833
G01 X6.6440 Y15.4952
G01 X6.6539 Y15.5061
G01 X6.6648 Y15.5160
G01 X6.6767 Y15.5247
G01 X6.6893 Y15.5323
G01 X6.7026 Y15.5386
G01 X6.7165 Y15.5435
G01 X6.7307 Y15.5471
G01 X6.7453 Y15.5493
G01 X6.7600 Y15.5500
G01 X6.7747 Y15.5493
G01 X6.7893 Y15.5471
G01 X6.8035 Y15.5435
G01 X6.8174 Y15.5386
G01 X6.8307 Y15.5323
G01 X6.8433 Y15.5247
G01 X6.8552 Y15.5160
G01 X6.8661 Y15.5061
G01 X6.8760 Y15.4952
G01 X6.8847 Y15.4833
G01 X6.8923 Y15.4707
G01 X6.8986 Y15.4574
G01 X6.9035 Y15.4435
G01 X6.9071 Y15.4293
G01 X6.9093 Y15.4147
G01 X6.9100 Y15.4000
G00 X6.9100 Y15.4000
G01 F76.20
G01 Z-0.2000
G01 F76.20
G01 X6.9093 Y15.3853
G01 X6.9071 Y15.3707
G01 X6.9035 Y15.3565
G01 X6.8986 Y15.3426
G01 X6.8923 Y15.3293
G01 X6.8847 Y15.3167
G01 X6.8760 Y15.3048
G01 X6.8661 Y15.2939
G01 X6.8552 Y15.2840
G01 X6.8433 Y15.2753
G01 X6.8307 Y15.2677
G01 X6.8174 Y15.2614
G01 X6.8035 Y15.2565
G01 X6.7893 Y15.2529
G01 X6.7747 Y15.2507
G01 X6.7600 Y15.2500
G01 X6.7453 Y15.2507
G01 X6.7307 Y15.2529
G01 X6.7165 Y15.2565
G01 X6.7026 Y15.2614
G01 X6.6893 Y15.2677
G01 X6.6767 Y15.2753
G01 X6.6648 Y15.2840
G01 X6.6539 Y15.2939
G01 X6.6440 Y15.3048
G01 X6.6353 Y15.3167
G01 X6.6277 Y15.3293
G01 X6.6214 Y15.3426
G01 X6.6165 Y15.3565
G01 X6.6129 Y15.3707
G01 X6.6107 Y15.3853
G01 X6.6100 Y15.4000
G01 X6.6107 Y15.4147
G01 X6.6129 Y15.4293
G01 X6.6165 Y15.4435
G01 X6.6214 Y15.4574
G01 X6.6277 Y15.4707
G01 X6.6353 Y15.4833
G01 X6.6440 Y15.4952
G01 X6.6539 Y15.5061
G01 X6.6648 Y15.5160
G01 X6.6767 Y15.5247
G01 X6.6893 Y15.5323
G01 X6.7026 Y15.5386
G01 X6.7165 Y15.5435
G01 X6.7307 Y15.5471
G01 X6.7453 Y15.5493
G01 X6.7600 Y15.5500
G01 X6.7747 Y15.5493
G01 X6.7893 Y15.5471
G01 X6.8035 Y15.5435
G01 X6.8174 Y15.5386
G01 X6.8307 Y15.5323
G01 X6.8433 Y15.5247
G01 X6.8552 Y15.5160
G01 X6.8661 Y15.5061
G01 X6.8760 Y15.4952
G01 X6.8847 Y15.4833
G01 X6.8923 Y15.4707
G01 X6.8986 Y15.4574
G01 X6.9035 Y15.4435
G01 X6.9071 Y15.4293
G01 X6.9093 Y15.4147
G01 X6.9100 Y15.4000
G00 X6.9100 Y15.4000
G01 F76.20
G01 Z-0.3000
G01 F76.20
G01 X6.9093 Y15.3853
G01 X6.9071 Y15.3707
G01 X6.9035 Y15.3565
G01 X6.8986 Y15.3426
G01 X6.8923 Y15.3293
G01 X6.8847 Y15.3167
G01 X6.8760 Y15.3048
G01 X6.8661 Y15.2939
G01 X6.8552 Y15.2840
G01 X6.8433 Y15.2753
G01 X6.8307 Y15.2677
G01 X6.8174 Y15.2614
G01 X6.8035 Y15.2565
G01 X6.7893 Y15.2529
G01 X6.7747 Y15.2507
G01 X6.7600 Y15.2500
G01 X6.7453 Y15.2507
G01 X6.7307 Y15.2529
G01 X6.7165 Y15.2565
G01 X6.7026 Y15.2614
G01 X6.6893 Y15.2677
G01 X6.6767 Y15.2753
G01 X6.6648 Y15.2840
G01 X6.6539 Y15.2939
G01 X6.6440 Y15.3048
G01 X6.6353 Y15.3167
G01 X6.6277 Y15.3293
G01 X6.6214 Y15.3426
G01 X6.6165 Y15.3565
G01 X6.6129 Y15.3707
G01 X6.6107 Y15.3853
G01 X6.6100 Y15.4000
G01 X6.6107 Y15.4147
G01 X6.6129 Y15.4293
G01 X6.6165 Y15.4435
G01 X6.6214 Y15.4574
G01 X6.6277 Y15.4707
G01 X6.6353 Y15.4833
G01 X6.6440 Y15.4952
G01 X6.6539 Y15.5061
G01 X6.6648 Y15.5160
G01 X6.6767 Y15.5247
G01 X6.6893 Y15.5323
G01 X6.7026 Y15.5386
G01 X6.7165 Y15.5435
G01 X6.7307 Y15.5471
G01 X6.7453 Y15.5493
G01 X6.7600 Y15.5500
G01 X6.7747 Y15.5493
G01 X6.7893 Y15.5471
G01 X6.8035 Y15.5435
G01 X6.8174 Y15.5386
G01 X6.8307 Y15.5323
G01 X6.8433 Y15.5247
G01 X6.8552 Y15.5160
G01 X6.8661 Y15.5061
G01 X6.8760 Y15.4952
G01 X6.8847 Y15.4833
G01 X6.8923 Y15.4707
G01 X6.8986 Y15.4574
G01 X6.9035 Y15.4435
G01 X6.9071 Y15.4293
G01 X6.9093 Y15.4147
G01 X6.9100 Y15.4000
G00 X6.9100 Y15.4000
G01 F76.20
G01 Z-0.4000
G01 F76.20
G01 X6.9093 Y15.3853
G01 X6.9071 Y15.3707
G01 X6.9035 Y15.3565
G01 X6.8986 Y15.3426
G01 X6.8923 Y15.3293
G01 X6.8847 Y15.3167
G01 X6.8760 Y15.3048
G01 X6.8661 Y15.2939
G01 X6.8552 Y15.2840
G01 X6.8433 Y15.2753
G01 X6.8307 Y15.2677
G01 X6.8174 Y15.2614
G01 X6.8035 Y15.2565
G01 X6.7893 Y15.2529
G01 X6.7747 Y15.2507
G01 X6.7600 Y15.2500
G01 X6.7453 Y15.2507
G01 X6.7307 Y15.2529
G01 X6.7165 Y15.2565
G01 X6.7026 Y15.2614
G01 X6.6893 Y15.2677
G01 X6.6767 Y15.2753
G01 X6.6648 Y15.2840
G01 X6.6539 Y15.2939
G01 X6.6440 Y15.3048
G01 X6.6353 Y15.3167
G01 X6.6277 Y15.3293
G01 X6.6214 Y15.3426
G01 X6.6165 Y15.3565
G01 X6.6129 Y15.3707
G01 X6.6107 Y15.3853
G01 X6.6100 Y15.4000
G01 X6.6107 Y15.4147
G01 X6.6129 Y15.4293
G01 X6.6165 Y15.4435
G01 X6.6214 Y15.4574
G01 X6.6277 Y15.4707
G01 X6.6353 Y15.4833
G01 X6.6440 Y15.4952
G01 X6.6539 Y15.5061
G01 X6.6648 Y15.5160
G01 X6.6767 Y15.5247
G01 X6.6893 Y15.5323
G01 X6.7026 Y15.5386
G01 X6.7165 Y15.5435
G01 X6.7307 Y15.5471
G01 X6.7453 Y15.5493
G01 X6.7600 Y15.5500
G01 X6.7747 Y15.5493
G01 X6.7893 Y15.5471
G01 X6.8035 Y15.5435
G01 X6.8174 Y15.5386
G01 X6.8307 Y15.5323
G01 X6.8433 Y15.5247
G01 X6.8552 Y15.5160
G01 X6.8661 Y15.5061
G01 X6.8760 Y15.4952
G01 X6.8847 Y15.4833
G01 X6.8923 Y15.4707
G01 X6.8986 Y15.4574
G01 X6.9035 Y15.4435
G01 X6.9071 Y15.4293
G01 X6.9093 Y15.4147
G01 X6.9100 Y15.4000
G00 X6.9100 Y15.4000
G01 F76.20
G01 Z-0.5000
G01 F76.20
G01 X6.9093 Y15.3853
G01 X6.9071 Y15.3707
G01 X6.9035 Y15.3565
G01 X6.8986 Y15.3426
G01 X6.8923 Y15.3293
G01 X6.8847 Y15.3167
G01 X6.8760 Y15.3048
G01 X6.8661 Y15.2939
G01 X6.8552 Y15.2840
G01 X6.8433 Y15.2753
G01 X6.8307 Y15.2677
G01 X6.8174 Y15.2614
G01 X6.8035 Y15.2565
G01 X6.7893 Y15.2529
G01 X6.7747 Y15.2507
G01 X6.7600 Y15.2500
G01 X6.7453 Y15.2507
G01 X6.7307 Y15.2529
G01 X6.7165 Y15.2565
G01 X6.7026 Y15.2614
G01 X6.6893 Y15.2677
G01 X6.6767 Y15.2753
G01 X6.6648 Y15.2840
G01 X6.6539 Y15.2939
G01 X6.6440 Y15.3048
G01 X6.6353 Y15.3167
G01 X6.6277 Y15.3293
G01 X6.6214 Y15.3426
G01 X6.6165 Y15.3565
G01 X6.6129 Y15.3707
G01 X6.6107 Y15.3853
G01 X6.6100 Y15.4000
G01 X6.6107 Y15.4147
G01 X6.6129 Y15.4293
G01 X6.6165 Y15.4435
G01 X6.6214 Y15.4574
G01 X6.6277 Y15.4707
G01 X6.6353 Y15.4833
G01 X6.6440 Y15.4952
G01 X6.6539 Y15.5061
G01 X6.6648 Y15.5160
G01 X6.6767 Y15.5247
G01 X6.6893 Y15.5323
G01 X6.7026 Y15.5386
G01 X6.7165 Y15.5435
G01 X6.7307 Y15.5471
G01 X6.7453 Y15.5493
G01 X6.7600 Y15.5500
G01 X6.7747 Y15.5493
G01 X6.7893 Y15.5471
G01 X6.8035 Y15.5435
G01 X6.8174 Y15.5386
G01 X6.8307 Y15.5323
G01 X6.8433 Y15.5247
G01 X6.8552 Y15.5160
G01 X6.8661 Y15.5061
G01 X6.8760 Y15.4952
G01 X6.8847 Y15.4833
G01 X6.8923 Y15.4707
G01 X6.8986 Y15.4574
G01 X6.9035 Y15.4435
G01 X6.9071 Y15.4293
G01 X6.9093 Y15.4147
G01 X6.9100 Y15.4000
G00 X6.9100 Y15.4000
G01 F76.20
G01 Z-0.6000
G01 F76.20
G01 X6.9093 Y15.3853
G01 X6.9071 Y15.3707
G01 X6.9035 Y15.3565
G01 X6.8986 Y15.3426
G01 X6.8923 Y15.3293
G01 X6.8847 Y15.3167
G01 X6.8760 Y15.3048
G01 X6.8661 Y15.2939
G01 X6.8552 Y15.2840
G01 X6.8433 Y15.2753
G01 X6.8307 Y15.2677
G01 X6.8174 Y15.2614
G01 X6.8035 Y15.2565
G01 X6.7893 Y15.2529
G01 X6.7747 Y15.2507
G01 X6.7600 Y15.2500
G01 X6.7453 Y15.2507
G01 X6.7307 Y15.2529
G01 X6.7165 Y15.2565
G01 X6.7026 Y15.2614
G01 X6.6893 Y15.2677
G01 X6.6767 Y15.2753
G01 X6.6648 Y15.2840
G01 X6.6539 Y15.2939
G01 X6.6440 Y15.3048
G01 X6.6353 Y15.3167
G01 X6.6277 Y15.3293
G01 X6.6214 Y15.3426
G01 X6.6165 Y15.3565
G01 X6.6129 Y15.3707
G01 X6.6107 Y15.3853
G01 X6.6100 Y15.4000
G01 X6.6107 Y15.4147
G01 X6.6129 Y15.4293
G01 X6.6165 Y15.4435
G01 X6.6214 Y15.4574
G01 X6.6277 Y15.4707
G01 X6.6353 Y15.4833
G01 X6.6440 Y15.4952
G01 X6.6539 Y15.5061
G01 X6.6648 Y15.5160
G01 X6.6767 Y15.5247
G01 X6.6893 Y15.5323
G01 X6.7026 Y15.5386
G01 X6.7165 Y15.5435
G01 X6.7307 Y15.5471
G01 X6.7453 Y15.5493
G01 X6.7600 Y15.5500
G01 X6.7747 Y15.5493
G01 X6.7893 Y15.5471
G01 X6.8035 Y15.5435
G01 X6.8174 Y15.5386
G01 X6.8307 Y15.5323
G01 X6.8433 Y15.5247
G01 X6.8552 Y15.5160
G01 X6.8661 Y15.5061
G01 X6.8760 Y15.4952
G01 X6.8847 Y15.4833
G01 X6.8923 Y15.4707
G01 X6.8986 Y15.4574
G01 X6.9035 Y15.4435
G01 X6.9071 Y15.4293
G01 X6.9093 Y15.4147
G01 X6.9100 Y15.4000
G00 X6.9100 Y15.4000
G01 F76.20
G01 Z-0.7000
G01 F76.20
G01 X6.9093 Y15.3853
G01 X6.9071 Y15.3707
G01 X6.9035 Y15.3565
G01 X6.8986 Y15.3426
G01 X6.8923 Y15.3293
G01 X6.8847 Y15.3167
G01 X6.8760 Y15.3048
G01 X6.8661 Y15.2939
G01 X6.8552 Y15.2840
G01 X6.8433 Y15.2753
G01 X6.8307 Y15.2677
G01 X6.8174 Y15.2614
G01 X6.8035 Y15.2565
G01 X6.7893 Y15.2529
G01 X6.7747 Y15.2507
G01 X6.7600 Y15.2500
G01 X6.7453 Y15.2507
G01 X6.7307 Y15.2529
G01 X6.7165 Y15.2565
G01 X6.7026 Y15.2614
G01 X6.6893 Y15.2677
G01 X6.6767 Y15.2753
G01 X6.6648 Y15.2840
G01 X6.6539 Y15.2939
G01 X6.6440 Y15.3048
G01 X6.6353 Y15.3167
G01 X6.6277 Y15.3293
G01 X6.6214 Y15.3426
G01 X6.6165 Y15.3565
G01 X6.6129 Y15.3707
G01 X6.6107 Y15.3853
G01 X6.6100 Y15.4000
G01 X6.6107 Y15.4147
G01 X6.6129 Y15.4293
G01 X6.6165 Y15.4435
G01 X6.6214 Y15.4574
G01 X6.6277 Y15.4707
G01 X6.6353 Y15.4833
G01 X6.6440 Y15.4952
G01 X6.6539 Y15.5061
G01 X6.6648 Y15.5160
G01 X6.6767 Y15.5247
G01 X6.6893 Y15.5323
G01 X6.7026 Y15.5386
G01 X6.7165 Y15.5435
G01 X6.7307 Y15.5471
G01 X6.7453 Y15.5493
G01 X6.7600 Y15.5500
G01 X6.7747 Y15.5493
G01 X6.7893 Y15.5471
G01 X6.8035 Y15.5435
G01 X6.8174 Y15.5386
G01 X6.8307 Y15.5323
G01 X6.8433 Y15.5247
G01 X6.8552 Y15.5160
G01 X6.8661 Y15.5061
G01 X6.8760 Y15.4952
G01 X6.8847 Y15.4833
G01 X6.8923 Y15.4707
G01 X6.8986 Y15.4574
G01 X6.9035 Y15.4435
G01 X6.9071 Y15.4293
G01 X6.9093 Y15.4147
G01 X6.9100 Y15.4000
G00 X6.9100 Y15.4000
G01 F76.20
G01 Z-0.8000
G01 F76.20
G01 X6.9093 Y15.3853
G01 X6.9071 Y15.3707
G01 X6.9035 Y15.3565
G01 X6.8986 Y15.3426
G01 X6.8923 Y15.3293
G01 X6.8847 Y15.3167
G01 X6.8760 Y15.3048
G01 X6.8661 Y15.2939
G01 X6.8552 Y15.2840
G01 X6.8433 Y15.2753
G01 X6.8307 Y15.2677
G01 X6.8174 Y15.2614
G01 X6.8035 Y15.2565
G01 X6.7893 Y15.2529
G01 X6.7747 Y15.2507
G01 X6.7600 Y15.2500
G01 X6.7453 Y15.2507
G01 X6.7307 Y15.2529
G01 X6.7165 Y15.2565
G01 X6.7026 Y15.2614
G01 X6.6893 Y15.2677
G01 X6.6767 Y15.2753
G01 X6.6648 Y15.2840
G01 X6.6539 Y15.2939
G01 X6.6440 Y15.3048
G01 X6.6353 Y15.3167
G01 X6.6277 Y15.3293
G01 X6.6214 Y15.3426
G01 X6.6165 Y15.3565
G01 X6.6129 Y15.3707
G01 X6.6107 Y15.3853
G01 X6.6100 Y15.4000
G01 X6.6107 Y15.4147
G01 X6.6129 Y15.4293
G01 X6.6165 Y15.4435
G01 X6.6214 Y15.4574
G01 X6.6277 Y15.4707
G01 X6.6353 Y15.4833
G01 X6.6440 Y15.4952
G01 X6.6539 Y15.5061
G01 X6.6648 Y15.5160
G01 X6.6767 Y15.5247
G01 X6.6893 Y15.5323
G01 X6.7026 Y15.5386
G01 X6.7165 Y15.5435
G01 X6.7307 Y15.5471
G01 X6.7453 Y15.5493
G01 X6.7600 Y15.5500
G01 X6.7747 Y15.5493
G01 X6.7893 Y15.5471
G01 X6.8035 Y15.5435
G01 X6.8174 Y15.5386
G01 X6.8307 Y15.5323
G01 X6.8433 Y15.5247
G01 X6.8552 Y15.5160
G01 X6.8661 Y15.5061
G01 X6.8760 Y15.4952
G01 X6.8847 Y15.4833
G01 X6.8923 Y15.4707
G01 X6.8986 Y15.4574
G01 X6.9035 Y15.4435
G01 X6.9071 Y15.4293
G01 X6.9093 Y15.4147
G01 X6.9100 Y15.4000
G00 X6.9100 Y15.4000
G01 F76.20
G01 Z-0.9000
G01 F76.20
G01 X6.9093 Y15.3853
G01 X6.9071 Y15.3707
G01 X6.9035 Y15.3565
G01 X6.8986 Y15.3426
G01 X6.8923 Y15.3293
G01 X6.8847 Y15.3167
G01 X6.8760 Y15.3048
G01 X6.8661 Y15.2939
G01 X6.8552 Y15.2840
G01 X6.8433 Y15.2753
G01 X6.8307 Y15.2677
G01 X6.8174 Y15.2614
G01 X6.8035 Y15.2565
G01 X6.7893 Y15.2529
G01 X6.7747 Y15.2507
G01 X6.7600 Y15.2500
G01 X6.7453 Y15.2507
G01 X6.7307 Y15.2529
G01 X6.7165 Y15.2565
G01 X6.7026 Y15.2614
G01 X6.6893 Y15.2677
G01 X6.6767 Y15.2753
G01 X6.6648 Y15.2840
G01 X6.6539 Y15.2939
G01 X6.6440 Y15.3048
G01 X6.6353 Y15.3167
G01 X6.6277 Y15.3293
G01 X6.6214 Y15.3426
G01 X6.6165 Y15.3565
G01 X6.6129 Y15.3707
G01 X6.6107 Y15.3853
G01 X6.6100 Y15.4000
G01 X6.6107 Y15.4147
G01 X6.6129 Y15.4293
G01 X6.6165 Y15.4435
G01 X6.6214 Y15.4574
G01 X6.6277 Y15.4707
G01 X6.6353 Y15.4833
G01 X6.6440 Y15.4952
G01 X6.6539 Y15.5061
G01 X6.6648 Y15.5160
G01 X6.6767 Y15.5247
G01 X6.6893 Y15.5323
G01 X6.7026 Y15.5386
G01 X6.7165 Y15.5435
G01 X6.7307 Y15.5471
G01 X6.7453 Y15.5493
G01 X6.7600 Y15.5500
G01 X6.7747 Y15.5493
G01 X6.7893 Y15.5471
G01 X6.8035 Y15.5435
G01 X6.8174 Y15.5386
G01 X6.8307 Y15.5323
G01 X6.8433 Y15.5247
G01 X6.8552 Y15.5160
G01 X6.8661 Y15.5061
G01 X6.8760 Y15.4952
G01 X6.8847 Y15.4833
G01 X6.8923 Y15.4707
G01 X6.8986 Y15.4574
G01 X6.9035 Y15.4435
G01 X6.9071 Y15.4293
G01 X6.9093 Y15.4147
G01 X6.9100 Y15.4000
G00 X6.9100 Y15.4000
G01 F76.20
G01 Z-1.0000
G01 F76.20
G01 X6.9093 Y15.3853
G01 X6.9071 Y15.3707
G01 X6.9035 Y15.3565
G01 X6.8986 Y15.3426
G01 X6.8923 Y15.3293
G01 X6.8847 Y15.3167
G01 X6.8760 Y15.3048
G01 X6.8661 Y15.2939
G01 X6.8552 Y15.2840
G01 X6.8433 Y15.2753
G01 X6.8307 Y15.2677
G01 X6.8174 Y15.2614
G01 X6.8035 Y15.2565
G01 X6.7893 Y15.2529
G01 X6.7747 Y15.2507
G01 X6.7600 Y15.2500
G01 X6.7453 Y15.2507
G01 X6.7307 Y15.2529
G01 X6.7165 Y15.2565
G01 X6.7026 Y15.2614
G01 X6.6893 Y15.2677
G01 X6.6767 Y15.2753
G01 X6.6648 Y15.2840
G01 X6.6539 Y15.2939
G01 X6.6440 Y15.3048
G01 X6.6353 Y15.3167
G01 X6.6277 Y15.3293
G01 X6.6214 Y15.3426
G01 X6.6165 Y15.3565
G01 X6.6129 Y15.3707
G01 X6.6107 Y15.3853
G01 X6.6100 Y15.4000
G01 X6.6107 Y15.4147
G01 X6.6129 Y15.4293
G01 X6.6165 Y15.4435
G01 X6.6214 Y15.4574
G01 X6.6277 Y15.4707
G01 X6.6353 Y15.4833
G01 X6.6440 Y15.4952
G01 X6.6539 Y15.5061
G01 X6.6648 Y15.5160
G01 X6.6767 Y15.5247
G01 X6.6893 Y15.5323
G01 X6.7026 Y15.5386
G01 X6.7165 Y15.5435
G01 X6.7307 Y15.5471
G01 X6.7453 Y15.5493
G01 X6.7600 Y15.5500
G01 X6.7747 Y15.5493
G01 X6.7893 Y15.5471
G01 X6.8035 Y15.5435
G01 X6.8174 Y15.5386
G01 X6.8307 Y15.5323
G01 X6.8433 Y15.5247
G01 X6.8552 Y15.5160
G01 X6.8661 Y15.5061
G01 X6.8760 Y15.4952
G01 X6.8847 Y15.4833
G01 X6.8923 Y15.4707
G01 X6.8986 Y15.4574
G01 X6.9035 Y15.4435
G01 X6.9071 Y15.4293
G01 X6.9093 Y15.4147
G01 X6.9100 Y15.4000
G00 X6.9100 Y15.4000
G01 F76.20
G01 Z-1.1000
G01 F76.20
G01 X6.9093 Y15.3853
G01 X6.9071 Y15.3707
G01 X6.9035 Y15.3565
G01 X6.8986 Y15.3426
G01 X6.8923 Y15.3293
G01 X6.8847 Y15.3167
G01 X6.8760 Y15.3048
G01 X6.8661 Y15.2939
G01 X6.8552 Y15.2840
G01 X6.8433 Y15.2753
G01 X6.8307 Y15.2677
G01 X6.8174 Y15.2614
G01 X6.8035 Y15.2565
G01 X6.7893 Y15.2529
G01 X6.7747 Y15.2507
G01 X6.7600 Y15.2500
G01 X6.7453 Y15.2507
G01 X6.7307 Y15.2529
G01 X6.7165 Y15.2565
G01 X6.7026 Y15.2614
G01 X6.6893 Y15.2677
G01 X6.6767 Y15.2753
G01 X6.6648 Y15.2840
G01 X6.6539 Y15.2939
G01 X6.6440 Y15.3048
G01 X6.6353 Y15.3167
G01 X6.6277 Y15.3293
G01 X6.6214 Y15.3426
G01 X6.6165 Y15.3565
G01 X6.6129 Y15.3707
G01 X6.6107 Y15.3853
G01 X6.6100 Y15.4000
G01 X6.6107 Y15.4147
G01 X6.6129 Y15.4293
G01 X6.6165 Y15.4435
G01 X6.6214 Y15.4574
G01 X6.6277 Y15.4707
G01 X6.6353 Y15.4833
G01 X6.6440 Y15.4952
G01 X6.6539 Y15.5061
G01 X6.6648 Y15.5160
G01 X6.6767 Y15.5247
G01 X6.6893 Y15.5323
G01 X6.7026 Y15.5386
G01 X6.7165 Y15.5435
G01 X6.7307 Y15.5471
G01 X6.7453 Y15.5493
G01 X6.7600 Y15.5500
G01 X6.7747 Y15.5493
G01 X6.7893 Y15.5471
G01 X6.8035 Y15.5435
G01 X6.8174 Y15.5386
G01 X6.8307 Y15.5323
G01 X6.8433 Y15.5247
G01 X6.8552 Y15.5160
G01 X6.8661 Y15.5061
G01 X6.8760 Y15.4952
G01 X6.8847 Y15.4833
G01 X6.8923 Y15.4707
G01 X6.8986 Y15.4574
G01 X6.9035 Y15.4435
G01 X6.9071 Y15.4293
G01 X6.9093 Y15.4147
G01 X6.9100 Y15.4000
G00 X6.9100 Y15.4000
G01 F76.20
G01 Z-1.2000
G01 F76.20
G01 X6.9093 Y15.3853
G01 X6.9071 Y15.3707
G01 X6.9035 Y15.3565
G01 X6.8986 Y15.3426
G01 X6.8923 Y15.3293
G01 X6.8847 Y15.3167
G01 X6.8760 Y15.3048
G01 X6.8661 Y15.2939
G01 X6.8552 Y15.2840
G01 X6.8433 Y15.2753
G01 X6.8307 Y15.2677
G01 X6.8174 Y15.2614
G01 X6.8035 Y15.2565
G01 X6.7893 Y15.2529
G01 X6.7747 Y15.2507
G01 X6.7600 Y15.2500
G01 X6.7453 Y15.2507
G01 X6.7307 Y15.2529
G01 X6.7165 Y15.2565
G01 X6.7026 Y15.2614
G01 X6.6893 Y15.2677
G01 X6.6767 Y15.2753
G01 X6.6648 Y15.2840
G01 X6.6539 Y15.2939
G01 X6.6440 Y15.3048
G01 X6.6353 Y15.3167
G01 X6.6277 Y15.3293
G01 X6.6214 Y15.3426
G01 X6.6165 Y15.3565
G01 X6.6129 Y15.3707
G01 X6.6107 Y15.3853
G01 X6.6100 Y15.4000
G01 X6.6107 Y15.4147
G01 X6.6129 Y15.4293
G01 X6.6165 Y15.4435
G01 X6.6214 Y15.4574
G01 X6.6277 Y15.4707
G01 X6.6353 Y15.4833
G01 X6.6440 Y15.4952
G01 X6.6539 Y15.5061
G01 X6.6648 Y15.5160
G01 X6.6767 Y15.5247
G01 X6.6893 Y15.5323
G01 X6.7026 Y15.5386
G01 X6.7165 Y15.5435
G01 X6.7307 Y15.5471
G01 X6.7453 Y15.5493
G01 X6.7600 Y15.5500
G01 X6.7747 Y15.5493
G01 X6.7893 Y15.5471
G01 X6.8035 Y15.5435
G01 X6.8174 Y15.5386
G01 X6.8307 Y15.5323
G01 X6.8433 Y15.5247
G01 X6.8552 Y15.5160
G01 X6.8661 Y15.5061
G01 X6.8760 Y15.4952
G01 X6.8847 Y15.4833
G01 X6.8923 Y15.4707
G01 X6.8986 Y15.4574
G01 X6.9035 Y15.4435
G01 X6.9071 Y15.4293
G01 X6.9093 Y15.4147
G01 X6.9100 Y15.4000
G00 X6.9100 Y15.4000
G01 F76.20
G01 Z-1.3000
G01 F76.20
G01 X6.9093 Y15.3853
G01 X6.9071 Y15.3707
G01 X6.9035 Y15.3565
G01 X6.8986 Y15.3426
G01 X6.8923 Y15.3293
G01 X6.8847 Y15.3167
G01 X6.8760 Y15.3048
G01 X6.8661 Y15.2939
G01 X6.8552 Y15.2840
G01 X6.8433 Y15.2753
G01 X6.8307 Y15.2677
G01 X6.8174 Y15.2614
G01 X6.8035 Y15.2565
G01 X6.7893 Y15.2529
G01 X6.7747 Y15.2507
G01 X6.7600 Y15.2500
G01 X6.7453 Y15.2507
G01 X6.7307 Y15.2529
G01 X6.7165 Y15.2565
G01 X6.7026 Y15.2614
G01 X6.6893 Y15.2677
G01 X6.6767 Y15.2753
G01 X6.6648 Y15.2840
G01 X6.6539 Y15.2939
G01 X6.6440 Y15.3048
G01 X6.6353 Y15.3167
G01 X6.6277 Y15.3293
G01 X6.6214 Y15.3426
G01 X6.6165 Y15.3565
G01 X6.6129 Y15.3707
G01 X6.6107 Y15.3853
G01 X6.6100 Y15.4000
G01 X6.6107 Y15.4147
G01 X6.6129 Y15.4293
G01 X6.6165 Y15.4435
G01 X6.6214 Y15.4574
G01 X6.6277 Y15.4707
G01 X6.6353 Y15.4833
G01 X6.6440 Y15.4952
G01 X6.6539 Y15.5061
G01 X6.6648 Y15.5160
G01 X6.6767 Y15.5247
G01 X6.6893 Y15.5323
G01 X6.7026 Y15.5386
G01 X6.7165 Y15.5435
G01 X6.7307 Y15.5471
G01 X6.7453 Y15.5493
G01 X6.7600 Y15.5500
G01 X6.7747 Y15.5493
G01 X6.7893 Y15.5471
G01 X6.8035 Y15.5435
G01 X6.8174 Y15.5386
G01 X6.8307 Y15.5323
G01 X6.8433 Y15.5247
G01 X6.8552 Y15.5160
G01 X6.8661 Y15.5061
G01 X6.8760 Y15.4952
G01 X6.8847 Y15.4833
G01 X6.8923 Y15.4707
G01 X6.8986 Y15.4574
G01 X6.9035 Y15.4435
G01 X6.9071 Y15.4293
G01 X6.9093 Y15.4147
G01 X6.9100 Y15.4000
G00 X6.9100 Y15.4000
G01 F76.20
G01 Z-1.4000
G01 F76.20
G01 X6.9093 Y15.3853
G01 X6.9071 Y15.3707
G01 X6.9035 Y15.3565
G01 X6.8986 Y15.3426
G01 X6.8923 Y15.3293
G01 X6.8847 Y15.3167
G01 X6.8760 Y15.3048
G01 X6.8661 Y15.2939
G01 X6.8552 Y15.2840
G01 X6.8433 Y15.2753
G01 X6.8307 Y15.2677
G01 X6.8174 Y15.2614
G01 X6.8035 Y15.2565
G01 X6.7893 Y15.2529
G01 X6.7747 Y15.2507
G01 X6.7600 Y15.2500
G01 X6.7453 Y15.2507
G01 X6.7307 Y15.2529
G01 X6.7165 Y15.2565
G01 X6.7026 Y15.2614
G01 X6.6893 Y15.2677
G01 X6.6767 Y15.2753
G01 X6.6648 Y15.2840
G01 X6.6539 Y15.2939
G01 X6.6440 Y15.3048
G01 X6.6353 Y15.3167
G01 X6.6277 Y15.3293
G01 X6.6214 Y15.3426
G01 X6.6165 Y15.3565
G01 X6.6129 Y15.3707
G01 X6.6107 Y15.3853
G01 X6.6100 Y15.4000
G01 X6.6107 Y15.4147
G01 X6.6129 Y15.4293
G01 X6.6165 Y15.4435
G01 X6.6214 Y15.4574
G01 X6.6277 Y15.4707
G01 X6.6353 Y15.4833
G01 X6.6440 Y15.4952
G01 X6.6539 Y15.5061
G01 X6.6648 Y15.5160
G01 X6.6767 Y15.5247
G01 X6.6893 Y15.5323
G01 X6.7026 Y15.5386
G01 X6.7165 Y15.5435
G01 X6.7307 Y15.5471
G01 X6.7453 Y15.5493
G01 X6.7600 Y15.5500
G01 X6.7747 Y15.5493
G01 X6.7893 Y15.5471
G01 X6.8035 Y15.5435
G01 X6.8174 Y15.5386
G01 X6.8307 Y15.5323
G01 X6.8433 Y15.5247
G01 X6.8552 Y15.5160
G01 X6.8661 Y15.5061
G01 X6.8760 Y15.4952
G01 X6.8847 Y15.4833
G01 X6.8923 Y15.4707
G01 X6.8986 Y15.4574
G01 X6.9035 Y15.4435
G01 X6.9071 Y15.4293
G01 X6.9093 Y15.4147
G01 X6.9100 Y15.4000
G00 X6.9100 Y15.4000
G01 F76.20
G01 Z-1.5000
G01 F76.20
G01 X6.9093 Y15.3853
G01 X6.9071 Y15.3707
G01 X6.9035 Y15.3565
G01 X6.8986 Y15.3426
G01 X6.8923 Y15.3293
G01 X6.8847 Y15.3167
G01 X6.8760 Y15.3048
G01 X6.8661 Y15.2939
G01 X6.8552 Y15.2840
G01 X6.8433 Y15.2753
G01 X6.8307 Y15.2677
G01 X6.8174 Y15.2614
G01 X6.8035 Y15.2565
G01 X6.7893 Y15.2529
G01 X6.7747 Y15.2507
G01 X6.7600 Y15.2500
G01 X6.7453 Y15.2507
G01 X6.7307 Y15.2529
G01 X6.7165 Y15.2565
G01 X6.7026 Y15.2614
G01 X6.6893 Y15.2677
G01 X6.6767 Y15.2753
G01 X6.6648 Y15.2840
G01 X6.6539 Y15.2939
G01 X6.6440 Y15.3048
G01 X6.6353 Y15.3167
G01 X6.6277 Y15.3293
G01 X6.6214 Y15.3426
G01 X6.6165 Y15.3565
G01 X6.6129 Y15.3707
G01 X6.6107 Y15.3853
G01 X6.6100 Y15.4000
G01 X6.6107 Y15.4147
G01 X6.6129 Y15.4293
G01 X6.6165 Y15.4435
G01 X6.6214 Y15.4574
G01 X6.6277 Y15.4707
G01 X6.6353 Y15.4833
G01 X6.6440 Y15.4952
G01 X6.6539 Y15.5061
G01 X6.6648 Y15.5160
G01 X6.6767 Y15.5247
G01 X6.6893 Y15.5323
G01 X6.7026 Y15.5386
G01 X6.7165 Y15.5435
G01 X6.7307 Y15.5471
G01 X6.7453 Y15.5493
G01 X6.7600 Y15.5500
G01 X6.7747 Y15.5493
G01 X6.7893 Y15.5471
G01 X6.8035 Y15.5435
G01 X6.8174 Y15.5386
G01 X6.8307 Y15.5323
G01 X6.8433 Y15.5247
G01 X6.8552 Y15.5160
G01 X6.8661 Y15.5061
G01 X6.8760 Y15.4952
G01 X6.8847 Y15.4833
G01 X6.8923 Y15.4707
G01 X6.8986 Y15.4574
G01 X6.9035 Y15.4435
G01 X6.9071 Y15.4293
G01 X6.9093 Y15.4147
G01 X6.9100 Y15.4000
G00 X6.9100 Y15.4000
G01 F76.20
G01 Z-1.6000
G01 F76.20
G01 X6.9093 Y15.3853
G01 X6.9071 Y15.3707
G01 X6.9035 Y15.3565
G01 X6.8986 Y15.3426
G01 X6.8923 Y15.3293
G01 X6.8847 Y15.3167
G01 X6.8760 Y15.3048
G01 X6.8661 Y15.2939
G01 X6.8552 Y15.2840
G01 X6.8433 Y15.2753
G01 X6.8307 Y15.2677
G01 X6.8174 Y15.2614
G01 X6.8035 Y15.2565
G01 X6.7893 Y15.2529
G01 X6.7747 Y15.2507
G01 X6.7600 Y15.2500
G01 X6.7453 Y15.2507
G01 X6.7307 Y15.2529
G01 X6.7165 Y15.2565
G01 X6.7026 Y15.2614
G01 X6.6893 Y15.2677
G01 X6.6767 Y15.2753
G01 X6.6648 Y15.2840
G01 X6.6539 Y15.2939
G01 X6.6440 Y15.3048
G01 X6.6353 Y15.3167
G01 X6.6277 Y15.3293
G01 X6.6214 Y15.3426
G01 X6.6165 Y15.3565
G01 X6.6129 Y15.3707
G01 X6.6107 Y15.3853
G01 X6.6100 Y15.4000
G01 X6.6107 Y15.4147
G01 X6.6129 Y15.4293
G01 X6.6165 Y15.4435
G01 X6.6214 Y15.4574
G01 X6.6277 Y15.4707
G01 X6.6353 Y15.4833
G01 X6.6440 Y15.4952
G01 X6.6539 Y15.5061
G01 X6.6648 Y15.5160
G01 X6.6767 Y15.5247
G01 X6.6893 Y15.5323
G01 X6.7026 Y15.5386
G01 X6.7165 Y15.5435
G01 X6.7307 Y15.5471
G01 X6.7453 Y15.5493
G01 X6.7600 Y15.5500
G01 X6.7747 Y15.5493
G01 X6.7893 Y15.5471
G01 X6.8035 Y15.5435
G01 X6.8174 Y15.5386
G01 X6.8307 Y15.5323
G01 X6.8433 Y15.5247
G01 X6.8552 Y15.5160
G01 X6.8661 Y15.5061
G01 X6.8760 Y15.4952
G01 X6.8847 Y15.4833
G01 X6.8923 Y15.4707
G01 X6.8986 Y15.4574
G01 X6.9035 Y15.4435
G01 X6.9071 Y15.4293
G01 X6.9093 Y15.4147
G01 X6.9100 Y15.4000
G00 X6.9100 Y15.4000
G01 F76.20
G01 Z-1.7000
G01 F76.20
G01 X6.9093 Y15.3853
G01 X6.9071 Y15.3707
G01 X6.9035 Y15.3565
G01 X6.8986 Y15.3426
G01 X6.8923 Y15.3293
G01 X6.8847 Y15.3167
G01 X6.8760 Y15.3048
G01 X6.8661 Y15.2939
G01 X6.8552 Y15.2840
G01 X6.8433 Y15.2753
G01 X6.8307 Y15.2677
G01 X6.8174 Y15.2614
G01 X6.8035 Y15.2565
G01 X6.7893 Y15.2529
G01 X6.7747 Y15.2507
G01 X6.7600 Y15.2500
G01 X6.7453 Y15.2507
G01 X6.7307 Y15.2529
G01 X6.7165 Y15.2565
G01 X6.7026 Y15.2614
G01 X6.6893 Y15.2677
G01 X6.6767 Y15.2753
G01 X6.6648 Y15.2840
G01 X6.6539 Y15.2939
G01 X6.6440 Y15.3048
G01 X6.6353 Y15.3167
G01 X6.6277 Y15.3293
G01 X6.6214 Y15.3426
G01 X6.6165 Y15.3565
G01 X6.6129 Y15.3707
G01 X6.6107 Y15.3853
G01 X6.6100 Y15.4000
G01 X6.6107 Y15.4147
G01 X6.6129 Y15.4293
G01 X6.6165 Y15.4435
G01 X6.6214 Y15.4574
G01 X6.6277 Y15.4707
G01 X6.6353 Y15.4833
G01 X6.6440 Y15.4952
G01 X6.6539 Y15.5061
G01 X6.6648 Y15.5160
G01 X6.6767 Y15.5247
G01 X6.6893 Y15.5323
G01 X6.7026 Y15.5386
G01 X6.7165 Y15.5435
G01 X6.7307 Y15.5471
G01 X6.7453 Y15.5493
G01 X6.7600 Y15.5500
G01 X6.7747 Y15.5493
G01 X6.7893 Y15.5471
G01 X6.8035 Y15.5435
G01 X6.8174 Y15.5386
G01 X6.8307 Y15.5323
G01 X6.8433 Y15.5247
G01 X6.8552 Y15.5160
G01 X6.8661 Y15.5061
G01 X6.8760 Y15.4952
G01 X6.8847 Y15.4833
G01 X6.8923 Y15.4707
G01 X6.8986 Y15.4574
G01 X6.9035 Y15.4435
G01 X6.9071 Y15.4293
G01 X6.9093 Y15.4147
G01 X6.9100 Y15.4000
G00 X6.9100 Y15.4000
G01 F76.20
G01 Z-1.8000
G01 F76.20
G01 X6.9093 Y15.3853
G01 X6.9071 Y15.3707
G01 X6.9035 Y15.3565
G01 X6.8986 Y15.3426
G01 X6.8923 Y15.3293
G01 X6.8847 Y15.3167
G01 X6.8760 Y15.3048
G01 X6.8661 Y15.2939
G01 X6.8552 Y15.2840
G01 X6.8433 Y15.2753
G01 X6.8307 Y15.2677
G01 X6.8174 Y15.2614
G01 X6.8035 Y15.2565
G01 X6.7893 Y15.2529
G01 X6.7747 Y15.2507
G01 X6.7600 Y15.2500
G01 X6.7453 Y15.2507
G01 X6.7307 Y15.2529
G01 X6.7165 Y15.2565
G01 X6.7026 Y15.2614
G01 X6.6893 Y15.2677
G01 X6.6767 Y15.2753
G01 X6.6648 Y15.2840
G01 X6.6539 Y15.2939
G01 X6.6440 Y15.3048
G01 X6.6353 Y15.3167
G01 X6.6277 Y15.3293
G01 X6.6214 Y15.3426
G01 X6.6165 Y15.3565
G01 X6.6129 Y15.3707
G01 X6.6107 Y15.3853
G01 X6.6100 Y15.4000
G01 X6.6107 Y15.4147
G01 X6.6129 Y15.4293
G01 X6.6165 Y15.4435
G01 X6.6214 Y15.4574
G01 X6.6277 Y15.4707
G01 X6.6353 Y15.4833
G01 X6.6440 Y15.4952
G01 X6.6539 Y15.5061
G01 X6.6648 Y15.5160
G01 X6.6767 Y15.5247
G01 X6.6893 Y15.5323
G01 X6.7026 Y15.5386
G01 X6.7165 Y15.5435
G01 X6.7307 Y15.5471
G01 X6.7453 Y15.5493
G01 X6.7600 Y15.5500
G01 X6.7747 Y15.5493
G01 X6.7893 Y15.5471
G01 X6.8035 Y15.5435
G01 X6.8174 Y15.5386
G01 X6.8307 Y15.5323
G01 X6.8433 Y15.5247
G01 X6.8552 Y15.5160
G01 X6.8661 Y15.5061
G01 X6.8760 Y15.4952
G01 X6.8847 Y15.4833
G01 X6.8923 Y15.4707
G01 X6.8986 Y15.4574
G01 X6.9035 Y15.4435
G01 X6.9071 Y15.4293
G01 X6.9093 Y15.4147
G01 X6.9100 Y15.4000
G00 X6.9100 Y15.4000
G01 F76.20
G01 Z-1.9000
G01 F76.20
G01 X6.9093 Y15.3853
G01 X6.9071 Y15.3707
G01 X6.9035 Y15.3565
G01 X6.8986 Y15.3426
G01 X6.8923 Y15.3293
G01 X6.8847 Y15.3167
G01 X6.8760 Y15.3048
G01 X6.8661 Y15.2939
G01 X6.8552 Y15.2840
G01 X6.8433 Y15.2753
G01 X6.8307 Y15.2677
G01 X6.8174 Y15.2614
G01 X6.8035 Y15.2565
G01 X6.7893 Y15.2529
G01 X6.7747 Y15.2507
G01 X6.7600 Y15.2500
G01 X6.7453 Y15.2507
G01 X6.7307 Y15.2529
G01 X6.7165 Y15.2565
G01 X6.7026 Y15.2614
G01 X6.6893 Y15.2677
G01 X6.6767 Y15.2753
G01 X6.6648 Y15.2840
G01 X6.6539 Y15.2939
G01 X6.6440 Y15.3048
G01 X6.6353 Y15.3167
G01 X6.6277 Y15.3293
G01 X6.6214 Y15.3426
G01 X6.6165 Y15.3565
G01 X6.6129 Y15.3707
G01 X6.6107 Y15.3853
G01 X6.6100 Y15.4000
G01 X6.6107 Y15.4147
G01 X6.6129 Y15.4293
G01 X6.6165 Y15.4435
G01 X6.6214 Y15.4574
G01 X6.6277 Y15.4707
G01 X6.6353 Y15.4833
G01 X6.6440 Y15.4952
G01 X6.6539 Y15.5061
G01 X6.6648 Y15.5160
G01 X6.6767 Y15.5247
G01 X6.6893 Y15.5323
G01 X6.7026 Y15.5386
G01 X6.7165 Y15.5435
G01 X6.7307 Y15.5471
G01 X6.7453 Y15.5493
G01 X6.7600 Y15.5500
G01 X6.7747 Y15.5493
G01 X6.7893 Y15.5471
G01 X6.8035 Y15.5435
G01 X6.8174 Y15.5386
G01 X6.8307 Y15.5323
G01 X6.8433 Y15.5247
G01 X6.8552 Y15.5160
G01 X6.8661 Y15.5061
G01 X6.8760 Y15.4952
G01 X6.8847 Y15.4833
G01 X6.8923 Y15.4707
G01 X6.8986 Y15.4574
G01 X6.9035 Y15.4435
G01 X6.9071 Y15.4293
G01 X6.9093 Y15.4147
G01 X6.9100 Y15.4000
G00 X6.9100 Y15.4000
G01 F76.20
G01 Z-2.0000
G01 F76.20
G01 X6.9093 Y15.3853
G01 X6.9071 Y15.3707
G01 X6.9035 Y15.3565
G01 X6.8986 Y15.3426
G01 X6.8923 Y15.3293
G01 X6.8847 Y15.3167
G01 X6.8760 Y15.3048
G01 X6.8661 Y15.2939
G01 X6.8552 Y15.2840
G01 X6.8433 Y15.2753
G01 X6.8307 Y15.2677
G01 X6.8174 Y15.2614
G01 X6.8035 Y15.2565
G01 X6.7893 Y15.2529
G01 X6.7747 Y15.2507
G01 X6.7600 Y15.2500
G01 X6.7453 Y15.2507
G01 X6.7307 Y15.2529
G01 X6.7165 Y15.2565
G01 X6.7026 Y15.2614
G01 X6.6893 Y15.2677
G01 X6.6767 Y15.2753
G01 X6.6648 Y15.2840
G01 X6.6539 Y15.2939
G01 X6.6440 Y15.3048
G01 X6.6353 Y15.3167
G01 X6.6277 Y15.3293
G01 X6.6214 Y15.3426
G01 X6.6165 Y15.3565
G01 X6.6129 Y15.3707
G01 X6.6107 Y15.3853
G01 X6.6100 Y15.4000
G01 X6.6107 Y15.4147
G01 X6.6129 Y15.4293
G01 X6.6165 Y15.4435
G01 X6.6214 Y15.4574
G01 X6.6277 Y15.4707
G01 X6.6353 Y15.4833
G01 X6.6440 Y15.4952
G01 X6.6539 Y15.5061
G01 X6.6648 Y15.5160
G01 X6.6767 Y15.5247
G01 X6.6893 Y15.5323
G01 X6.7026 Y15.5386
G01 X6.7165 Y15.5435
G01 X6.7307 Y15.5471
G01 X6.7453 Y15.5493
G01 X6.7600 Y15.5500
G01 X6.7747 Y15.5493
G01 X6.7893 Y15.5471
G01 X6.8035 Y15.5435
G01 X6.8174 Y15.5386
G01 X6.8307 Y15.5323
G01 X6.8433 Y15.5247
G01 X6.8552 Y15.5160
G01 X6.8661 Y15.5061
G01 X6.8760 Y15.4952
G01 X6.8847 Y15.4833
G01 X6.8923 Y15.4707
G01 X6.8986 Y15.4574
G01 X6.9035 Y15.4435
G01 X6.9071 Y15.4293
G01 X6.9093 Y15.4147
G01 X6.9100 Y15.4000
G00 Z2.5400
M05
G00 Z2.5400
G00 Z50.80
G00 X0.0 Y0.0

