(G-CODE GENERATED BY FLATCAM v8.914 - www.flatcam.org - Version Date: 2019/04/23)

(Name: 3pin-NPTH.drl_mill_cnc)
(Type: G-code from Geometry)
(Units: MM)

(Created on Thursday, 02 May 2019 at 17:01)

(TOOL DIAMETER: 0.1 mm)
(Feedrate: 100.0 mm/min)
(Feedrate_Z: 100.0 mm/min)
(Feedrate rapids 200.0 mm/min)

(Z_Cut: -2.0 mm)
(DepthPerCut: 0.2 mm <=>10 passes)
(Z_Move: 2.0 mm)
(Z Toolchange: 25.0 mm)
(X,Y Toolchange: 0.0000, 0.0000 mm)
(Z Start: None mm)
(Z End: 20.0 mm)
(Steps per circle: 64)
(Postprocessor Geometry: default)

(X range:    9.4000 ...    9.6000  mm)
(Y range:    3.2200 ...    3.4200  mm)

(Spindle Speed: 5000 RPM)

G21
G90
G94

G01 F100.00
G00 Z2.0000

M03 S5000
G00 X9.6000 Y3.3200
G01 F100.00
G01 Z-0.2000
G01 F100.00
G01 X9.5981 Y3.3005
G01 X9.5924 Y3.2817
G01 X9.5831 Y3.2644
G01 X9.5707 Y3.2493
G01 X9.5556 Y3.2369
G01 X9.5383 Y3.2276
G01 X9.5195 Y3.2219
G01 X9.5000 Y3.2200
G01 X9.4805 Y3.2219
G01 X9.4617 Y3.2276
G01 X9.4444 Y3.2369
G01 X9.4293 Y3.2493
G01 X9.4169 Y3.2644
G01 X9.4076 Y3.2817
G01 X9.4019 Y3.3005
G01 X9.4000 Y3.3200
G01 X9.4019 Y3.3395
G01 X9.4076 Y3.3583
G01 X9.4169 Y3.3756
G01 X9.4293 Y3.3907
G01 X9.4444 Y3.4031
G01 X9.4617 Y3.4124
G01 X9.4805 Y3.4181
G01 X9.5000 Y3.4200
G01 X9.5195 Y3.4181
G01 X9.5383 Y3.4124
G01 X9.5556 Y3.4031
G01 X9.5707 Y3.3907
G01 X9.5831 Y3.3756
G01 X9.5924 Y3.3583
G01 X9.5981 Y3.3395
G01 X9.6000 Y3.3200
G00 X9.6000 Y3.3200
G01 F100.00
G01 Z-0.4000
G01 F100.00
G01 X9.5981 Y3.3005
G01 X9.5924 Y3.2817
G01 X9.5831 Y3.2644
G01 X9.5707 Y3.2493
G01 X9.5556 Y3.2369
G01 X9.5383 Y3.2276
G01 X9.5195 Y3.2219
G01 X9.5000 Y3.2200
G01 X9.4805 Y3.2219
G01 X9.4617 Y3.2276
G01 X9.4444 Y3.2369
G01 X9.4293 Y3.2493
G01 X9.4169 Y3.2644
G01 X9.4076 Y3.2817
G01 X9.4019 Y3.3005
G01 X9.4000 Y3.3200
G01 X9.4019 Y3.3395
G01 X9.4076 Y3.3583
G01 X9.4169 Y3.3756
G01 X9.4293 Y3.3907
G01 X9.4444 Y3.4031
G01 X9.4617 Y3.4124
G01 X9.4805 Y3.4181
G01 X9.5000 Y3.4200
G01 X9.5195 Y3.4181
G01 X9.5383 Y3.4124
G01 X9.5556 Y3.4031
G01 X9.5707 Y3.3907
G01 X9.5831 Y3.3756
G01 X9.5924 Y3.3583
G01 X9.5981 Y3.3395
G01 X9.6000 Y3.3200
G00 X9.6000 Y3.3200
G01 F100.00
G01 Z-0.6000
G01 F100.00
G01 X9.5981 Y3.3005
G01 X9.5924 Y3.2817
G01 X9.5831 Y3.2644
G01 X9.5707 Y3.2493
G01 X9.5556 Y3.2369
G01 X9.5383 Y3.2276
G01 X9.5195 Y3.2219
G01 X9.5000 Y3.2200
G01 X9.4805 Y3.2219
G01 X9.4617 Y3.2276
G01 X9.4444 Y3.2369
G01 X9.4293 Y3.2493
G01 X9.4169 Y3.2644
G01 X9.4076 Y3.2817
G01 X9.4019 Y3.3005
G01 X9.4000 Y3.3200
G01 X9.4019 Y3.3395
G01 X9.4076 Y3.3583
G01 X9.4169 Y3.3756
G01 X9.4293 Y3.3907
G01 X9.4444 Y3.4031
G01 X9.4617 Y3.4124
G01 X9.4805 Y3.4181
G01 X9.5000 Y3.4200
G01 X9.5195 Y3.4181
G01 X9.5383 Y3.4124
G01 X9.5556 Y3.4031
G01 X9.5707 Y3.3907
G01 X9.5831 Y3.3756
G01 X9.5924 Y3.3583
G01 X9.5981 Y3.3395
G01 X9.6000 Y3.3200
G00 X9.6000 Y3.3200
G01 F100.00
G01 Z-0.8000
G01 F100.00
G01 X9.5981 Y3.3005
G01 X9.5924 Y3.2817
G01 X9.5831 Y3.2644
G01 X9.5707 Y3.2493
G01 X9.5556 Y3.2369
G01 X9.5383 Y3.2276
G01 X9.5195 Y3.2219
G01 X9.5000 Y3.2200
G01 X9.4805 Y3.2219
G01 X9.4617 Y3.2276
G01 X9.4444 Y3.2369
G01 X9.4293 Y3.2493
G01 X9.4169 Y3.2644
G01 X9.4076 Y3.2817
G01 X9.4019 Y3.3005
G01 X9.4000 Y3.3200
G01 X9.4019 Y3.3395
G01 X9.4076 Y3.3583
G01 X9.4169 Y3.3756
G01 X9.4293 Y3.3907
G01 X9.4444 Y3.4031
G01 X9.4617 Y3.4124
G01 X9.4805 Y3.4181
G01 X9.5000 Y3.4200
G01 X9.5195 Y3.4181
G01 X9.5383 Y3.4124
G01 X9.5556 Y3.4031
G01 X9.5707 Y3.3907
G01 X9.5831 Y3.3756
G01 X9.5924 Y3.3583
G01 X9.5981 Y3.3395
G01 X9.6000 Y3.3200
G00 X9.6000 Y3.3200
G01 F100.00
G01 Z-1.0000
G01 F100.00
G01 X9.5981 Y3.3005
G01 X9.5924 Y3.2817
G01 X9.5831 Y3.2644
G01 X9.5707 Y3.2493
G01 X9.5556 Y3.2369
G01 X9.5383 Y3.2276
G01 X9.5195 Y3.2219
G01 X9.5000 Y3.2200
G01 X9.4805 Y3.2219
G01 X9.4617 Y3.2276
G01 X9.4444 Y3.2369
G01 X9.4293 Y3.2493
G01 X9.4169 Y3.2644
G01 X9.4076 Y3.2817
G01 X9.4019 Y3.3005
G01 X9.4000 Y3.3200
G01 X9.4019 Y3.3395
G01 X9.4076 Y3.3583
G01 X9.4169 Y3.3756
G01 X9.4293 Y3.3907
G01 X9.4444 Y3.4031
G01 X9.4617 Y3.4124
G01 X9.4805 Y3.4181
G01 X9.5000 Y3.4200
G01 X9.5195 Y3.4181
G01 X9.5383 Y3.4124
G01 X9.5556 Y3.4031
G01 X9.5707 Y3.3907
G01 X9.5831 Y3.3756
G01 X9.5924 Y3.3583
G01 X9.5981 Y3.3395
G01 X9.6000 Y3.3200
G00 X9.6000 Y3.3200
G01 F100.00
G01 Z-1.2000
G01 F100.00
G01 X9.5981 Y3.3005
G01 X9.5924 Y3.2817
G01 X9.5831 Y3.2644
G01 X9.5707 Y3.2493
G01 X9.5556 Y3.2369
G01 X9.5383 Y3.2276
G01 X9.5195 Y3.2219
G01 X9.5000 Y3.2200
G01 X9.4805 Y3.2219
G01 X9.4617 Y3.2276
G01 X9.4444 Y3.2369
G01 X9.4293 Y3.2493
G01 X9.4169 Y3.2644
G01 X9.4076 Y3.2817
G01 X9.4019 Y3.3005
G01 X9.4000 Y3.3200
G01 X9.4019 Y3.3395
G01 X9.4076 Y3.3583
G01 X9.4169 Y3.3756
G01 X9.4293 Y3.3907
G01 X9.4444 Y3.4031
G01 X9.4617 Y3.4124
G01 X9.4805 Y3.4181
G01 X9.5000 Y3.4200
G01 X9.5195 Y3.4181
G01 X9.5383 Y3.4124
G01 X9.5556 Y3.4031
G01 X9.5707 Y3.3907
G01 X9.5831 Y3.3756
G01 X9.5924 Y3.3583
G01 X9.5981 Y3.3395
G01 X9.6000 Y3.3200
G00 X9.6000 Y3.3200
G01 F100.00
G01 Z-1.4000
G01 F100.00
G01 X9.5981 Y3.3005
G01 X9.5924 Y3.2817
G01 X9.5831 Y3.2644
G01 X9.5707 Y3.2493
G01 X9.5556 Y3.2369
G01 X9.5383 Y3.2276
G01 X9.5195 Y3.2219
G01 X9.5000 Y3.2200
G01 X9.4805 Y3.2219
G01 X9.4617 Y3.2276
G01 X9.4444 Y3.2369
G01 X9.4293 Y3.2493
G01 X9.4169 Y3.2644
G01 X9.4076 Y3.2817
G01 X9.4019 Y3.3005
G01 X9.4000 Y3.3200
G01 X9.4019 Y3.3395
G01 X9.4076 Y3.3583
G01 X9.4169 Y3.3756
G01 X9.4293 Y3.3907
G01 X9.4444 Y3.4031
G01 X9.4617 Y3.4124
G01 X9.4805 Y3.4181
G01 X9.5000 Y3.4200
G01 X9.5195 Y3.4181
G01 X9.5383 Y3.4124
G01 X9.5556 Y3.4031
G01 X9.5707 Y3.3907
G01 X9.5831 Y3.3756
G01 X9.5924 Y3.3583
G01 X9.5981 Y3.3395
G01 X9.6000 Y3.3200
G00 X9.6000 Y3.3200
G01 F100.00
G01 Z-1.6000
G01 F100.00
G01 X9.5981 Y3.3005
G01 X9.5924 Y3.2817
G01 X9.5831 Y3.2644
G01 X9.5707 Y3.2493
G01 X9.5556 Y3.2369
G01 X9.5383 Y3.2276
G01 X9.5195 Y3.2219
G01 X9.5000 Y3.2200
G01 X9.4805 Y3.2219
G01 X9.4617 Y3.2276
G01 X9.4444 Y3.2369
G01 X9.4293 Y3.2493
G01 X9.4169 Y3.2644
G01 X9.4076 Y3.2817
G01 X9.4019 Y3.3005
G01 X9.4000 Y3.3200
G01 X9.4019 Y3.3395
G01 X9.4076 Y3.3583
G01 X9.4169 Y3.3756
G01 X9.4293 Y3.3907
G01 X9.4444 Y3.4031
G01 X9.4617 Y3.4124
G01 X9.4805 Y3.4181
G01 X9.5000 Y3.4200
G01 X9.5195 Y3.4181
G01 X9.5383 Y3.4124
G01 X9.5556 Y3.4031
G01 X9.5707 Y3.3907
G01 X9.5831 Y3.3756
G01 X9.5924 Y3.3583
G01 X9.5981 Y3.3395
G01 X9.6000 Y3.3200
G00 X9.6000 Y3.3200
G01 F100.00
G01 Z-1.8000
G01 F100.00
G01 X9.5981 Y3.3005
G01 X9.5924 Y3.2817
G01 X9.5831 Y3.2644
G01 X9.5707 Y3.2493
G01 X9.5556 Y3.2369
G01 X9.5383 Y3.2276
G01 X9.5195 Y3.2219
G01 X9.5000 Y3.2200
G01 X9.4805 Y3.2219
G01 X9.4617 Y3.2276
G01 X9.4444 Y3.2369
G01 X9.4293 Y3.2493
G01 X9.4169 Y3.2644
G01 X9.4076 Y3.2817
G01 X9.4019 Y3.3005
G01 X9.4000 Y3.3200
G01 X9.4019 Y3.3395
G01 X9.4076 Y3.3583
G01 X9.4169 Y3.3756
G01 X9.4293 Y3.3907
G01 X9.4444 Y3.4031
G01 X9.4617 Y3.4124
G01 X9.4805 Y3.4181
G01 X9.5000 Y3.4200
G01 X9.5195 Y3.4181
G01 X9.5383 Y3.4124
G01 X9.5556 Y3.4031
G01 X9.5707 Y3.3907
G01 X9.5831 Y3.3756
G01 X9.5924 Y3.3583
G01 X9.5981 Y3.3395
G01 X9.6000 Y3.3200
G00 X9.6000 Y3.3200
G01 F100.00
G01 Z-2.0000
G01 F100.00
G01 X9.5981 Y3.3005
G01 X9.5924 Y3.2817
G01 X9.5831 Y3.2644
G01 X9.5707 Y3.2493
G01 X9.5556 Y3.2369
G01 X9.5383 Y3.2276
G01 X9.5195 Y3.2219
G01 X9.5000 Y3.2200
G01 X9.4805 Y3.2219
G01 X9.4617 Y3.2276
G01 X9.4444 Y3.2369
G01 X9.4293 Y3.2493
G01 X9.4169 Y3.2644
G01 X9.4076 Y3.2817
G01 X9.4019 Y3.3005
G01 X9.4000 Y3.3200
G01 X9.4019 Y3.3395
G01 X9.4076 Y3.3583
G01 X9.4169 Y3.3756
G01 X9.4293 Y3.3907
G01 X9.4444 Y3.4031
G01 X9.4617 Y3.4124
G01 X9.4805 Y3.4181
G01 X9.5000 Y3.4200
G01 X9.5195 Y3.4181
G01 X9.5383 Y3.4124
G01 X9.5556 Y3.4031
G01 X9.5707 Y3.3907
G01 X9.5831 Y3.3756
G01 X9.5924 Y3.3583
G01 X9.5981 Y3.3395
G01 X9.6000 Y3.3200
G00 Z2.0000
M05
G00 Z2.0000
G00 Z20.00
G00 X0.0 Y0.0

M02