(G-CODE GENERATED BY FLATCAM v8.912 - www.flatcam.org - Version Date: 2019/03/17)

(Name: 5pin-F.Cu.gtl_iso_1_cnc)
(Type: G-code from Geometry)
(Units: MM)

(Created on Thursday, 02 May 2019 at 22:29)

(TOOL DIAMETER: 0.15 mm)
(Feedrate: 100.0 mm/min)
(Feedrate_Z: 100.0 mm/min)
(Feedrate rapids 200.0 mm/min)

(Z_Cut: -0.2 mm)
(Z_Move: 2.0 mm)
(Z Toolchange: 25.0 mm)
(X,Y Toolchange: 0.0000, 0.0000 mm)
(Z Start: None mm)
(Z End: 20.0 mm)
(Steps per circle: 64)
(Postprocessor Geometry: default)

(X range:    2.9400 ...   14.5103  mm)
(Y range:    1.1900 ...   17.9350  mm)

(Spindle Speed: 5000 RPM)

G21
G90
G94

G01 F100.00
G00 Z2.0000

M03 S5000
G00 X3.2916 Y1.4487
G01 F100.00
G01 Z-0.2000
G01 F100.00
G01 X3.3116 Y1.4406
G01 X3.3323 Y1.4347
G01 X3.3535 Y1.4312
G01 X3.3750 Y1.4300
G01 X4.6250 Y1.4300
G01 X4.6465 Y1.4312
G01 X4.6677 Y1.4347
G01 X4.6884 Y1.4406
G01 X4.7084 Y1.4487
G01 X4.7280 Y1.4594
G01 X4.7462 Y1.4723
G01 X4.7629 Y1.4871
G01 X4.7777 Y1.5038
G01 X4.7906 Y1.5220
G01 X4.8013 Y1.5416
G01 X4.8094 Y1.5616
G01 X4.8153 Y1.5823
G01 X4.8188 Y1.6035
G01 X4.8200 Y1.6250
G01 X4.8200 Y2.8750
G01 X4.8188 Y2.8965
G01 X4.8153 Y2.9177
G01 X4.8094 Y2.9384
G01 X4.8013 Y2.9584
G01 X4.7906 Y2.9780
G01 X4.7777 Y2.9962
G01 X4.7629 Y3.0129
G01 X4.7462 Y3.0277
G01 X4.7280 Y3.0406
G01 X4.7084 Y3.0513
G01 X4.6953 Y3.0566
G01 X4.6953 Y8.7703
G01 X4.7051 Y8.7504
G01 X4.7152 Y8.7324
G01 X4.7615 Y8.6606
G01 X4.7743 Y8.6429
G01 X4.8275 Y8.5777
G01 X4.8407 Y8.5631
G01 X4.9025 Y8.5027
G01 X4.9189 Y8.4884
G01 X4.9853 Y8.4366
G01 X5.0033 Y8.4242
G01 X5.0750 Y8.3802
G01 X5.0939 Y8.3700
G01 X5.1705 Y8.3342
G01 X5.1893 Y8.3266
G01 X5.2705 Y8.2992
G01 X5.3047 Y8.2905
G01 X5.3047 Y2.6842
G01 X5.2662 Y2.6155
G01 X5.2572 Y2.5968
G01 X5.2299 Y2.5310
G01 X5.2227 Y2.5104
G01 X5.2033 Y2.4431
G01 X5.1992 Y2.4261
G01 X5.1867 Y2.3526
G01 X5.1842 Y2.3309
G01 X5.1800 Y2.2500
G01 X5.1842 Y2.1691
G01 X5.1867 Y2.1474
G01 X5.1984 Y2.0783
G01 X5.2033 Y2.0569
G01 X5.2227 Y1.9896
G01 X5.2299 Y1.9690
G01 X5.2567 Y1.9042
G01 X5.2662 Y1.8845
G01 X5.3001 Y1.8232
G01 X5.3118 Y1.8046
G01 X5.3523 Y1.7475
G01 X5.3660 Y1.7304
G01 X5.4127 Y1.6781
G01 X5.4281 Y1.6627
G01 X5.4804 Y1.6160
G01 X5.4975 Y1.6023
G01 X5.5546 Y1.5618
G01 X5.5732 Y1.5501
G01 X5.6345 Y1.5162
G01 X5.6532 Y1.5072
G01 X5.7190 Y1.4799
G01 X5.7396 Y1.4727
G01 X5.8069 Y1.4533
G01 X5.8239 Y1.4492
G01 X5.8974 Y1.4367
G01 X5.9191 Y1.4342
G01 X5.9891 Y1.4303
G01 X6.0109 Y1.4303
G01 X6.0809 Y1.4342
G01 X6.1026 Y1.4367
G01 X6.1717 Y1.4484
G01 X6.1931 Y1.4533
G01 X6.2604 Y1.4727
G01 X6.2810 Y1.4799
G01 X6.3458 Y1.5067
G01 X6.3655 Y1.5162
G01 X6.4268 Y1.5501
G01 X6.4431 Y1.5602
G01 X6.5025 Y1.6023
G01 X6.5196 Y1.6160
G01 X6.5719 Y1.6627
G01 X6.5873 Y1.6781
G01 X6.6340 Y1.7304
G01 X6.6477 Y1.7475
G01 X6.6882 Y1.8046
G01 X6.6999 Y1.8232
G01 X6.7338 Y1.8845
G01 X6.7428 Y1.9032
G01 X6.7701 Y1.9690
G01 X6.7773 Y1.9896
G01 X6.7967 Y2.0569
G01 X6.8008 Y2.0739
G01 X6.8133 Y2.1474
G01 X6.8158 Y2.1691
G01 X6.8200 Y2.2500
G01 X6.8158 Y2.3309
G01 X6.8133 Y2.3526
G01 X6.8016 Y2.4217
G01 X6.7967 Y2.4431
G01 X6.7773 Y2.5104
G01 X6.7701 Y2.5310
G01 X6.7433 Y2.5958
G01 X6.7338 Y2.6155
G01 X6.6953 Y2.6843
G01 X6.6953 Y8.8835
G01 X7.3017 Y9.3241
G01 X7.3756 Y9.3840
G01 X7.3902 Y9.3972
G01 X7.4505 Y9.4589
G01 X7.4649 Y9.4754
G01 X7.5166 Y9.5417
G01 X7.5353 Y9.5699
G01 X7.5338 Y9.5427
G01 X7.5367 Y9.4520
G01 X7.5387 Y9.4303
G01 X7.5509 Y9.3470
G01 X7.5553 Y9.3256
G01 X7.5799 Y9.2337
G01 X7.6781 Y8.9313
G01 X7.5009 Y8.7537
G01 X7.4635 Y8.7118
G01 X7.4499 Y8.6947
G01 X7.4174 Y8.6490
G01 X7.4058 Y8.6305
G01 X7.3786 Y8.5814
G01 X7.3696 Y8.5627
G01 X7.3477 Y8.5098
G01 X7.3404 Y8.4892
G01 X7.3249 Y8.4353
G01 X7.3208 Y8.4183
G01 X7.3107 Y8.3587
G01 X7.3082 Y8.3369
G01 X7.3047 Y8.2700
G01 X7.3047 Y2.6842
G01 X7.2662 Y2.6155
G01 X7.2572 Y2.5968
G01 X7.2299 Y2.5310
G01 X7.2227 Y2.5104
G01 X7.2033 Y2.4431
G01 X7.1992 Y2.4261
G01 X7.1867 Y2.3526
G01 X7.1842 Y2.3309
G01 X7.1803 Y2.2609
G01 X7.1803 Y2.2391
G01 X7.1842 Y2.1691
G01 X7.1867 Y2.1474
G01 X7.1984 Y2.0783
G01 X7.2033 Y2.0569
G01 X7.2227 Y1.9896
G01 X7.2299 Y1.9690
G01 X7.2567 Y1.9042
G01 X7.2662 Y1.8845
G01 X7.3001 Y1.8232
G01 X7.3118 Y1.8046
G01 X7.3523 Y1.7475
G01 X7.3660 Y1.7304
G01 X7.4127 Y1.6781
G01 X7.4281 Y1.6627
G01 X7.4804 Y1.6160
G01 X7.4975 Y1.6023
G01 X7.5546 Y1.5618
G01 X7.5732 Y1.5501
G01 X7.6345 Y1.5162
G01 X7.6532 Y1.5072
G01 X7.7190 Y1.4799
G01 X7.7396 Y1.4727
G01 X7.8069 Y1.4533
G01 X7.8239 Y1.4492
G01 X7.8974 Y1.4367
G01 X7.9191 Y1.4342
G01 X8.0000 Y1.4300
G01 X8.0809 Y1.4342
G01 X8.1026 Y1.4367
G01 X8.1717 Y1.4484
G01 X8.1931 Y1.4533
G01 X8.2604 Y1.4727
G01 X8.2810 Y1.4799
G01 X8.3458 Y1.5067
G01 X8.3655 Y1.5162
G01 X8.4268 Y1.5501
G01 X8.4431 Y1.5602
G01 X8.5025 Y1.6023
G01 X8.5196 Y1.6160
G01 X8.5719 Y1.6627
G01 X8.5873 Y1.6781
G01 X8.6340 Y1.7304
G01 X8.6477 Y1.7475
G01 X8.6882 Y1.8046
G01 X8.6999 Y1.8232
G01 X8.7338 Y1.8845
G01 X8.7428 Y1.9032
G01 X8.7701 Y1.9690
G01 X8.7773 Y1.9896
G01 X8.7967 Y2.0569
G01 X8.8008 Y2.0739
G01 X8.8133 Y2.1474
G01 X8.8158 Y2.1691
G01 X8.8200 Y2.2500
G01 X8.8158 Y2.3309
G01 X8.8133 Y2.3526
G01 X8.8016 Y2.4217
G01 X8.7967 Y2.4431
G01 X8.7773 Y2.5104
G01 X8.7701 Y2.5310
G01 X8.7433 Y2.5958
G01 X8.7338 Y2.6155
G01 X8.6953 Y2.6843
G01 X8.6953 Y7.1873
G01 X8.7184 Y7.1810
G01 X8.8048 Y7.1642
G01 X8.8265 Y7.1613
G01 X8.9104 Y7.1547
G01 X8.9257 Y7.1541
G01 X9.0163 Y7.1570
G01 X9.0381 Y7.1590
G01 X9.1214 Y7.1712
G01 X9.1428 Y7.1756
G01 X9.2241 Y7.1971
G01 X9.2449 Y7.2038
G01 X9.3234 Y7.2343
G01 X9.3433 Y7.2433
G01 X9.4178 Y7.2824
G01 X9.4350 Y7.2925
G01 X9.5063 Y7.3407
G01 X9.5237 Y7.3540
G01 X9.5877 Y7.4086
G01 X9.5989 Y7.4190
G01 X9.6610 Y7.4852
G01 X9.6750 Y7.5020
G01 X9.7252 Y7.5695
G01 X9.7373 Y7.5878
G01 X9.7796 Y7.6605
G01 X9.7892 Y7.6792
G01 X9.8235 Y7.7570
G01 X9.8311 Y7.7774
G01 X9.8563 Y7.8578
G01 X9.8608 Y7.8751
G01 X9.8775 Y7.9616
G01 X9.8805 Y7.9833
G01 X9.8871 Y8.0671
G01 X9.8876 Y8.0890
G01 X9.8847 Y8.1731
G01 X9.8828 Y8.1949
G01 X9.8706 Y8.2781
G01 X9.8662 Y8.2996
G01 X9.8447 Y8.3809
G01 X9.3781 Y9.8180
G01 X9.3440 Y9.9067
G01 X9.3349 Y9.9267
G01 X9.2959 Y10.0012
G01 X9.2858 Y10.0183
G01 X9.2375 Y10.0897
G01 X9.2160 Y10.1168
G01 X9.2483 Y10.1047
G01 X9.3291 Y10.0814
G01 X9.3461 Y10.0773
G01 X9.3983 Y10.0684
G01 X10.3397 Y9.1270
G01 X10.3397 Y7.1480
G01 X9.5084 Y6.3166
G01 X9.4635 Y6.2668
G01 X9.4499 Y6.2497
G01 X9.4174 Y6.2040
G01 X9.4058 Y6.1855
G01 X9.3786 Y6.1364
G01 X9.3696 Y6.1177
G01 X9.3477 Y6.0648
G01 X9.3404 Y6.0442
G01 X9.3249 Y5.9903
G01 X9.3208 Y5.9733
G01 X9.3107 Y5.9137
G01 X9.3082 Y5.8919
G01 X9.3047 Y5.8250
G01 X9.3047 Y2.6842
G01 X9.2662 Y2.6155
G01 X9.2572 Y2.5968
G01 X9.2299 Y2.5310
G01 X9.2227 Y2.5104
G01 X9.2033 Y2.4431
G01 X9.1984 Y2.4217
G01 X9.1867 Y2.3526
G01 X9.1842 Y2.3309
G01 X9.1800 Y2.2500
G01 X9.1842 Y2.1691
G01 X9.1867 Y2.1474
G01 X9.1984 Y2.0783
G01 X9.2033 Y2.0569
G01 X9.2227 Y1.9896
G01 X9.2299 Y1.9690
G01 X9.2567 Y1.9042
G01 X9.2662 Y1.8845
G01 X9.3001 Y1.8232
G01 X9.3102 Y1.8069
G01 X9.3523 Y1.7475
G01 X9.3660 Y1.7304
G01 X9.4127 Y1.6781
G01 X9.4281 Y1.6627
G01 X9.4804 Y1.6160
G01 X9.4975 Y1.6023
G01 X9.5546 Y1.5618
G01 X9.5732 Y1.5501
G01 X9.6345 Y1.5162
G01 X9.6532 Y1.5072
G01 X9.7190 Y1.4799
G01 X9.7396 Y1.4727
G01 X9.8069 Y1.4533
G01 X9.8239 Y1.4492
G01 X9.8974 Y1.4367
G01 X9.9191 Y1.4342
G01 X9.9891 Y1.4303
G01 X10.0109 Y1.4303
G01 X10.0809 Y1.4342
G01 X10.1026 Y1.4367
G01 X10.1717 Y1.4484
G01 X10.1931 Y1.4533
G01 X10.2604 Y1.4727
G01 X10.2810 Y1.4799
G01 X10.3458 Y1.5067
G01 X10.3655 Y1.5162
G01 X10.4268 Y1.5501
G01 X10.4454 Y1.5618
G01 X10.5025 Y1.6023
G01 X10.5196 Y1.6160
G01 X10.5719 Y1.6627
G01 X10.5873 Y1.6781
G01 X10.6340 Y1.7304
G01 X10.6477 Y1.7475
G01 X10.6882 Y1.8046
G01 X10.6999 Y1.8232
G01 X10.7338 Y1.8845
G01 X10.7428 Y1.9032
G01 X10.7701 Y1.9690
G01 X10.7773 Y1.9896
G01 X10.7967 Y2.0569
G01 X10.8008 Y2.0739
G01 X10.8133 Y2.1474
G01 X10.8158 Y2.1691
G01 X10.8200 Y2.2500
G01 X10.8158 Y2.3309
G01 X10.8133 Y2.3526
G01 X10.8016 Y2.4217
G01 X10.7967 Y2.4431
G01 X10.7773 Y2.5104
G01 X10.7701 Y2.5310
G01 X10.7433 Y2.5958
G01 X10.7338 Y2.6155
G01 X10.6953 Y2.6843
G01 X10.6953 Y5.5370
G01 X11.5266 Y6.3684
G01 X11.5715 Y6.4182
G01 X11.5851 Y6.4353
G01 X11.6176 Y6.4810
G01 X11.6292 Y6.4995
G01 X11.6564 Y6.5486
G01 X11.6654 Y6.5673
G01 X11.6873 Y6.6202
G01 X11.6946 Y6.6408
G01 X11.7101 Y6.6947
G01 X11.7142 Y6.7117
G01 X11.7243 Y6.7713
G01 X11.7268 Y6.7931
G01 X11.7303 Y6.8600
G01 X11.7303 Y9.4150
G01 X11.7268 Y9.4819
G01 X11.7243 Y9.5037
G01 X11.7150 Y9.5590
G01 X11.7101 Y9.5803
G01 X11.6946 Y9.6342
G01 X11.6873 Y9.6548
G01 X11.6659 Y9.7067
G01 X11.6564 Y9.7264
G01 X11.6292 Y9.7755
G01 X11.6192 Y9.7918
G01 X11.5851 Y9.8397
G01 X11.5715 Y9.8568
G01 X11.5341 Y9.8987
G01 X11.3337 Y10.0995
G01 X11.3517 Y10.1047
G01 X11.3723 Y10.1119
G01 X11.4500 Y10.1441
G01 X11.4697 Y10.1536
G01 X11.5433 Y10.1943
G01 X11.5596 Y10.2044
G01 X11.6305 Y10.2546
G01 X11.6476 Y10.2682
G01 X11.7103 Y10.3243
G01 X11.7257 Y10.3397
G01 X11.7818 Y10.4024
G01 X11.7954 Y10.4195
G01 X11.8441 Y10.4881
G01 X11.8557 Y10.5067
G01 X11.8964 Y10.5803
G01 X11.9054 Y10.5989
G01 X11.9381 Y10.6777
G01 X11.9453 Y10.6983
G01 X11.9686 Y10.7791
G01 X11.9727 Y10.7961
G01 X11.9875 Y10.8834
G01 X11.9900 Y10.9051
G01 X11.9947 Y10.9891
G01 X11.9947 Y11.0109
G01 X11.9900 Y11.0949
G01 X11.9875 Y11.1166
G01 X11.9734 Y11.1996
G01 X11.9686 Y11.2209
G01 X11.9453 Y11.3017
G01 X11.9381 Y11.3223
G01 X11.9059 Y11.4000
G01 X11.8964 Y11.4197
G01 X11.8557 Y11.4933
G01 X11.8456 Y11.5096
G01 X11.7954 Y11.5805
G01 X11.7818 Y11.5976
G01 X11.7257 Y11.6603
G01 X11.7103 Y11.6757
G01 X11.6476 Y11.7318
G01 X11.6305 Y11.7454
G01 X11.5619 Y11.7941
G01 X11.5433 Y11.8057
G01 X11.4697 Y11.8464
G01 X11.4511 Y11.8554
G01 X11.3723 Y11.8881
G01 X11.3517 Y11.8953
G01 X11.2709 Y11.9186
G01 X11.2539 Y11.9227
G01 X11.1666 Y11.9375
G01 X11.1449 Y11.9400
G01 X11.0500 Y11.9450
G01 X9.5500 Y11.9450
G01 X9.4551 Y11.9400
G01 X9.4334 Y11.9375
G01 X9.3504 Y11.9234
G01 X9.3291 Y11.9186
G01 X9.2483 Y11.8953
G01 X9.2160 Y11.8832
G01 X9.2375 Y11.9103
G01 X9.2847 Y11.9800
G01 X9.2959 Y11.9988
G01 X9.3349 Y12.0733
G01 X9.3435 Y12.0920
G01 X9.3781 Y12.1820
G01 X9.4473 Y12.3950
G01 X10.2020 Y13.1497
G01 X12.0170 Y13.1497
G01 X12.8797 Y12.2870
G01 X12.8797 Y7.1230
G01 X11.5009 Y5.7437
G01 X11.4635 Y5.7018
G01 X11.4499 Y5.6847
G01 X11.4174 Y5.6390
G01 X11.4058 Y5.6205
G01 X11.3786 Y5.5714
G01 X11.3696 Y5.5527
G01 X11.3477 Y5.4998
G01 X11.3404 Y5.4792
G01 X11.3249 Y5.4253
G01 X11.3208 Y5.4083
G01 X11.3107 Y5.3487
G01 X11.3082 Y5.3269
G01 X11.3047 Y5.2600
G01 X11.3047 Y2.6842
G01 X11.2662 Y2.6155
G01 X11.2572 Y2.5968
G01 X11.2299 Y2.5310
G01 X11.2227 Y2.5104
G01 X11.2033 Y2.4431
G01 X11.1992 Y2.4261
G01 X11.1867 Y2.3526
G01 X11.1842 Y2.3309
G01 X11.1800 Y2.2500
G01 X11.1842 Y2.1691
G01 X11.1867 Y2.1474
G01 X11.1984 Y2.0783
G01 X11.2033 Y2.0569
G01 X11.2227 Y1.9896
G01 X11.2299 Y1.9690
G01 X11.2567 Y1.9042
G01 X11.2662 Y1.8845
G01 X11.3001 Y1.8232
G01 X11.3102 Y1.8069
G01 X11.3523 Y1.7475
G01 X11.3660 Y1.7304
G01 X11.4127 Y1.6781
G01 X11.4281 Y1.6627
G01 X11.4804 Y1.6160
G01 X11.4975 Y1.6023
G01 X11.5546 Y1.5618
G01 X11.5732 Y1.5501
G01 X11.6345 Y1.5162
G01 X11.6532 Y1.5072
G01 X11.7190 Y1.4799
G01 X11.7396 Y1.4727
G01 X11.8069 Y1.4533
G01 X11.8239 Y1.4492
G01 X11.8974 Y1.4367
G01 X11.9191 Y1.4342
G01 X12.0000 Y1.4300
G01 X12.0809 Y1.4342
G01 X12.1026 Y1.4367
G01 X12.1717 Y1.4484
G01 X12.1931 Y1.4533
G01 X12.2604 Y1.4727
G01 X12.2810 Y1.4799
G01 X12.3458 Y1.5067
G01 X12.3655 Y1.5162
G01 X12.4268 Y1.5501
G01 X12.4454 Y1.5618
G01 X12.5025 Y1.6023
G01 X12.5196 Y1.6160
G01 X12.5719 Y1.6627
G01 X12.5873 Y1.6781
G01 X12.6340 Y1.7304
G01 X12.6477 Y1.7475
G01 X12.6882 Y1.8046
G01 X12.6999 Y1.8232
G01 X12.7338 Y1.8845
G01 X12.7428 Y1.9032
G01 X12.7701 Y1.9690
G01 X12.7773 Y1.9896
G01 X12.7967 Y2.0569
G01 X12.8008 Y2.0739
G01 X12.8133 Y2.1474
G01 X12.8158 Y2.1691
G01 X12.8200 Y2.2500
G01 X12.8158 Y2.3309
G01 X12.8133 Y2.3526
G01 X12.8016 Y2.4217
G01 X12.7967 Y2.4431
G01 X12.7773 Y2.5104
G01 X12.7701 Y2.5310
G01 X12.7433 Y2.5958
G01 X12.7338 Y2.6155
G01 X12.6953 Y2.6843
G01 X12.6953 Y4.9720
G01 X14.0666 Y6.3434
G01 X14.1115 Y6.3932
G01 X14.1251 Y6.4103
G01 X14.1576 Y6.4560
G01 X14.1692 Y6.4745
G01 X14.1964 Y6.5236
G01 X14.2054 Y6.5423
G01 X14.2273 Y6.5952
G01 X14.2346 Y6.6158
G01 X14.2501 Y6.6697
G01 X14.2550 Y6.6910
G01 X14.2643 Y6.7463
G01 X14.2668 Y6.7681
G01 X14.2703 Y6.8350
G01 X14.2703 Y12.5750
G01 X14.2668 Y12.6419
G01 X14.2643 Y12.6637
G01 X14.2550 Y12.7190
G01 X14.2501 Y12.7403
G01 X14.2346 Y12.7942
G01 X14.2273 Y12.8148
G01 X14.2059 Y12.8667
G01 X14.1964 Y12.8864
G01 X14.1692 Y12.9355
G01 X14.1576 Y12.9540
G01 X14.1251 Y12.9997
G01 X14.1115 Y13.0168
G01 X14.0741 Y13.0587
G01 X12.7966 Y14.3366
G01 X12.7468 Y14.3815
G01 X12.7297 Y14.3951
G01 X12.6840 Y14.4276
G01 X12.6655 Y14.4392
G01 X12.6164 Y14.4664
G01 X12.5977 Y14.4754
G01 X12.5448 Y14.4973
G01 X12.5242 Y14.5046
G01 X12.4703 Y14.5201
G01 X12.4533 Y14.5242
G01 X12.3937 Y14.5343
G01 X12.3719 Y14.5368
G01 X12.3159 Y14.5399
G01 X9.9140 Y14.5403
G01 X9.8471 Y14.5368
G01 X9.8254 Y14.5343
G01 X9.7701 Y14.5250
G01 X9.7487 Y14.5201
G01 X9.6948 Y14.5046
G01 X9.6753 Y14.4976
G01 X9.6610 Y14.5148
G01 X9.5989 Y14.5810
G01 X9.5877 Y14.5914
G01 X9.5237 Y14.6460
G01 X9.5063 Y14.6593
G01 X9.4366 Y14.7064
G01 X9.4178 Y14.7176
G01 X9.3433 Y14.7567
G01 X9.3247 Y14.7652
G01 X9.2449 Y14.7962
G01 X9.2241 Y14.8029
G01 X9.1428 Y14.8244
G01 X9.1229 Y14.8285
G01 X9.0381 Y14.8410
G01 X9.0163 Y14.8430
G01 X8.9257 Y14.8459
G01 X8.9104 Y14.8453
G01 X8.8265 Y14.8387
G01 X8.8048 Y14.8358
G01 X8.7222 Y14.8198
G01 X8.7010 Y14.8145
G01 X8.6207 Y14.7894
G01 X8.6002 Y14.7817
G01 X8.5232 Y14.7477
G01 X8.5037 Y14.7378
G01 X8.4310 Y14.6955
G01 X8.4154 Y14.6854
G01 X8.3452 Y14.6332
G01 X8.3284 Y14.6192
G01 X8.2670 Y14.5617
G01 X8.2519 Y14.5459
G01 X8.1972 Y14.4819
G01 X8.1840 Y14.4645
G01 X8.1368 Y14.3948
G01 X8.1256 Y14.3761
G01 X8.0866 Y14.3015
G01 X8.0780 Y14.2829
G01 X8.0434 Y14.1929
G01 X7.5768 Y12.7558
G01 X7.5553 Y12.6744
G01 X7.5511 Y12.6545
G01 X7.5387 Y12.5697
G01 X7.5367 Y12.5480
G01 X7.5339 Y12.4639
G01 X7.5353 Y12.4301
G01 X7.5166 Y12.4583
G01 X7.4649 Y12.5246
G01 X7.4505 Y12.5411
G01 X7.3902 Y12.6028
G01 X7.3756 Y12.6160
G01 X7.3017 Y12.6759
G01 X6.0882 Y13.5576
G01 X6.0084 Y13.6093
G01 X5.9894 Y13.6201
G01 X5.9140 Y13.6575
G01 X5.8954 Y13.6655
G01 X5.8148 Y13.6947
G01 X5.7938 Y13.7010
G01 X5.7120 Y13.7207
G01 X5.6954 Y13.7239
G01 X5.6070 Y13.7349
G01 X5.5852 Y13.7364
G01 X5.4988 Y13.7374
G01 X5.4792 Y13.7364
G01 X5.3955 Y13.7279
G01 X5.3739 Y13.7245
G01 X5.2916 Y13.7067
G01 X5.2705 Y13.7008
G01 X5.1908 Y13.6739
G01 X5.1705 Y13.6658
G01 X5.0943 Y13.6301
G01 X5.0750 Y13.6198
G01 X5.0033 Y13.5758
G01 X4.9885 Y13.5658
G01 X4.9189 Y13.5116
G01 X4.9025 Y13.4973
G01 X4.8407 Y13.4369
G01 X4.8275 Y13.4223
G01 X4.7743 Y13.3571
G01 X4.7615 Y13.3394
G01 X4.7159 Y13.2687
G01 X4.7051 Y13.2496
G01 X4.6678 Y13.1742
G01 X4.6598 Y13.1557
G01 X4.6305 Y13.0750
G01 X4.6242 Y13.0541
G01 X4.6046 Y12.9723
G01 X4.6013 Y12.9556
G01 X4.5903 Y12.8672
G01 X4.5888 Y12.8454
G01 X4.5879 Y12.7591
G01 X4.5889 Y12.7394
G01 X4.5974 Y12.6557
G01 X4.6008 Y12.6341
G01 X4.6186 Y12.5519
G01 X4.6244 Y12.5308
G01 X4.6513 Y12.4510
G01 X4.6594 Y12.4308
G01 X4.6951 Y12.3545
G01 X4.7055 Y12.3353
G01 X4.7156 Y12.3188
G01 X3.5084 Y11.1116
G01 X3.4635 Y11.0618
G01 X3.4499 Y11.0447
G01 X3.4174 Y10.9990
G01 X3.4058 Y10.9805
G01 X3.3786 Y10.9314
G01 X3.3696 Y10.9127
G01 X3.3477 Y10.8598
G01 X3.3404 Y10.8392
G01 X3.3249 Y10.7853
G01 X3.3208 Y10.7683
G01 X3.3107 Y10.7087
G01 X3.3082 Y10.6869
G01 X3.3047 Y10.6200
G01 X3.3047 Y3.0566
G01 X3.2916 Y3.0513
G01 X3.2720 Y3.0406
G01 X3.2538 Y3.0277
G01 X3.2371 Y3.0129
G01 X3.2223 Y2.9962
G01 X3.2094 Y2.9780
G01 X3.1987 Y2.9584
G01 X3.1906 Y2.9384
G01 X3.1847 Y2.9177
G01 X3.1812 Y2.8965
G01 X3.1800 Y2.8750
G01 X3.1800 Y1.6250
G01 X3.1812 Y1.6035
G01 X3.1847 Y1.5823
G01 X3.1906 Y1.5616
G01 X3.1987 Y1.5416
G01 X3.2094 Y1.5220
G01 X3.2223 Y1.5038
G01 X3.2371 Y1.4871
G01 X3.2538 Y1.4723
G01 X3.2720 Y1.4594
G01 X3.2916 Y1.4487
G00 Z2.0000
G00 X3.3429 Y1.5572
G01 F100.00
G01 Z-0.2000
G01 F100.00
G01 X3.3586 Y1.5518
G01 X3.3750 Y1.5500
G01 X4.6250 Y1.5500
G01 X4.6414 Y1.5518
G01 X4.6571 Y1.5572
G01 X4.6646 Y1.5613
G01 X4.6780 Y1.5720
G01 X4.6887 Y1.5854
G01 X4.6928 Y1.5929
G01 X4.6959 Y1.6006
G01 X4.6995 Y1.6167
G01 X4.6995 Y2.8833
G01 X4.6959 Y2.8994
G01 X4.6928 Y2.9071
G01 X4.6837 Y2.9216
G01 X4.6716 Y2.9337
G01 X4.6571 Y2.9428
G01 X4.6494 Y2.9459
G01 X4.6333 Y2.9495
G01 X4.5753 Y2.9500
G01 X4.5753 Y10.3817
G01 X5.4706 Y11.2770
G01 X6.2145 Y11.2770
G01 X6.2644 Y11.2409
G01 X6.3351 Y11.1954
G01 X6.4178 Y11.1539
G01 X6.5047 Y11.1219
G01 X6.5945 Y11.0998
G01 X6.6863 Y11.0880
G01 X6.7797 Y11.0864
G01 X6.8710 Y11.0953
G01 X6.9615 Y11.1144
G01 X7.0572 Y11.1467
G01 X7.1408 Y11.1863
G01 X7.2182 Y11.2342
G01 X7.2858 Y11.2868
G01 X7.3529 Y11.3518
G01 X7.4161 Y11.4294
G01 X7.4659 Y11.5075
G01 X7.5063 Y11.5900
G01 X7.5352 Y11.6697
G01 X7.5585 Y11.7660
G01 X7.5691 Y11.8514
G01 X7.5706 Y11.9447
G01 X7.5605 Y12.0443
G01 X7.5404 Y12.1347
G01 X7.5135 Y12.2144
G01 X7.4747 Y12.2984
G01 X7.4268 Y12.3776
G01 X7.3703 Y12.4509
G01 X7.3053 Y12.5180
G01 X7.2312 Y12.5788
G01 X6.0142 Y13.4629
G01 X5.9361 Y13.5126
G01 X5.8536 Y13.5530
G01 X5.7658 Y13.5843
G01 X5.6776 Y13.6052
G01 X5.5838 Y13.6164
G01 X5.4913 Y13.6170
G01 X5.4076 Y13.6085
G01 X5.3170 Y13.5894
G01 X5.2292 Y13.5602
G01 X5.1377 Y13.5175
G01 X5.0591 Y13.4687
G01 X4.9864 Y13.4115
G01 X4.9256 Y13.3520
G01 X4.8673 Y13.2812
G01 X4.8127 Y13.1964
G01 X4.7722 Y13.1138
G01 X4.7433 Y13.0341
G01 X4.7198 Y12.9360
G01 X4.7088 Y12.8441
G01 X4.7079 Y12.7591
G01 X4.7181 Y12.6595
G01 X4.7359 Y12.5772
G01 X4.7650 Y12.4894
G01 X4.8078 Y12.3980
G01 X4.8517 Y12.3262
G01 X4.8716 Y12.3000
G01 X4.8255 Y12.2591
G01 X3.5903 Y11.0237
G01 X3.5530 Y10.9819
G01 X3.5153 Y10.9295
G01 X3.4836 Y10.8733
G01 X3.4585 Y10.8139
G01 X3.4387 Y10.7455
G01 X3.4280 Y10.6802
G01 X3.4247 Y10.6200
G01 X3.4247 Y2.9500
G01 X3.3667 Y2.9495
G01 X3.3506 Y2.9459
G01 X3.3429 Y2.9428
G01 X3.3284 Y2.9337
G01 X3.3163 Y2.9216
G01 X3.3072 Y2.9071
G01 X3.3041 Y2.8994
G01 X3.3005 Y2.8833
G01 X3.3000 Y1.6250
G01 X3.3018 Y1.6086
G01 X3.3041 Y1.6006
G01 X3.3113 Y1.5854
G01 X3.3163 Y1.5784
G01 X3.3284 Y1.5663
G01 X3.3429 Y1.5572
G00 Z2.0000
G00 X3.1847 Y3.1257
G01 F100.00
G01 Z-0.2000
G01 F100.00
G01 X3.1792 Y3.1217
G01 X3.1523 Y3.0977
G01 X3.1283 Y3.0708
G01 X3.1075 Y3.0414
G01 X3.0903 Y3.0097
G01 X3.0771 Y2.9775
G01 X3.0677 Y2.9440
G01 X3.0619 Y2.9097
G01 X3.0600 Y2.8750
G01 X3.0600 Y1.6250
G01 X3.0619 Y1.5903
G01 X3.0677 Y1.5560
G01 X3.0771 Y1.5225
G01 X3.0903 Y1.4903
G01 X3.1075 Y1.4586
G01 X3.1283 Y1.4292
G01 X3.1523 Y1.4023
G01 X3.1792 Y1.3783
G01 X3.2087 Y1.3575
G01 X3.2403 Y1.3402
G01 X3.2725 Y1.3271
G01 X3.3060 Y1.3177
G01 X3.3403 Y1.3119
G01 X3.3750 Y1.3100
G01 X4.6250 Y1.3100
G01 X4.6597 Y1.3119
G01 X4.6940 Y1.3177
G01 X4.7275 Y1.3271
G01 X4.7597 Y1.3402
G01 X4.7913 Y1.3575
G01 X4.8208 Y1.3783
G01 X4.8477 Y1.4023
G01 X4.8717 Y1.4292
G01 X4.8925 Y1.4586
G01 X4.9097 Y1.4903
G01 X4.9229 Y1.5225
G01 X4.9323 Y1.5560
G01 X4.9381 Y1.5903
G01 X4.9400 Y1.6250
G01 X4.9400 Y2.8750
G01 X4.9381 Y2.9097
G01 X4.9323 Y2.9440
G01 X4.9229 Y2.9775
G01 X4.9097 Y3.0097
G01 X4.8925 Y3.0414
G01 X4.8717 Y3.0708
G01 X4.8477 Y3.0977
G01 X4.8208 Y3.1217
G01 X4.8153 Y3.1257
G01 X4.8153 Y8.4202
G01 X4.8452 Y8.3937
G01 X4.9115 Y8.3420
G01 X4.9406 Y8.3219
G01 X5.0123 Y8.2779
G01 X5.0428 Y8.2615
G01 X5.1197 Y8.2255
G01 X5.1500 Y8.2132
G01 X5.1847 Y8.2015
G01 X5.1847 Y2.7162
G01 X5.1612 Y2.6735
G01 X5.1466 Y2.6434
G01 X5.1191 Y2.5770
G01 X5.1074 Y2.5436
G01 X5.0880 Y2.4763
G01 X5.0814 Y2.4488
G01 X5.0684 Y2.3727
G01 X5.0650 Y2.3376
G01 X5.0644 Y2.3376
G01 X5.0600 Y2.2500
G01 X5.0644 Y2.1624
G01 X5.0684 Y2.1273
G01 X5.0801 Y2.0582
G01 X5.0880 Y2.0237
G01 X5.1074 Y1.9564
G01 X5.1191 Y1.9230
G01 X5.1459 Y1.8583
G01 X5.1612 Y1.8265
G01 X5.1951 Y1.7651
G01 X5.2114 Y1.7388
G01 X5.2545 Y1.6780
G01 X5.2770 Y1.6509
G01 X5.2765 Y1.6504
G01 X5.3232 Y1.5982
G01 X5.3482 Y1.5732
G01 X5.4004 Y1.5265
G01 X5.4280 Y1.5045
G01 X5.4852 Y1.4639
G01 X5.5151 Y1.4451
G01 X5.5765 Y1.4112
G01 X5.6066 Y1.3966
G01 X5.6730 Y1.3691
G01 X5.7064 Y1.3574
G01 X5.7737 Y1.3380
G01 X5.8012 Y1.3314
G01 X5.8773 Y1.3184
G01 X5.9124 Y1.3150
G01 X5.9124 Y1.3144
G01 X6.0000 Y1.3100
G01 X6.0876 Y1.3144
G01 X6.1227 Y1.3184
G01 X6.1918 Y1.3301
G01 X6.2263 Y1.3380
G01 X6.2936 Y1.3574
G01 X6.3270 Y1.3691
G01 X6.3917 Y1.3959
G01 X6.4235 Y1.4112
G01 X6.4849 Y1.4451
G01 X6.5112 Y1.4614
G01 X6.5720 Y1.5045
G01 X6.5991 Y1.5270
G01 X6.5996 Y1.5265
G01 X6.6518 Y1.5732
G01 X6.6768 Y1.5982
G01 X6.7235 Y1.6504
G01 X6.7455 Y1.6780
G01 X6.7861 Y1.7352
G01 X6.8049 Y1.7651
G01 X6.8388 Y1.8265
G01 X6.8534 Y1.8566
G01 X6.8809 Y1.9230
G01 X6.8926 Y1.9564
G01 X6.9120 Y2.0237
G01 X6.9186 Y2.0512
G01 X6.9316 Y2.1273
G01 X6.9350 Y2.1624
G01 X6.9356 Y2.1624
G01 X6.9400 Y2.2500
G01 X6.9356 Y2.3376
G01 X6.9316 Y2.3727
G01 X6.9199 Y2.4418
G01 X6.9120 Y2.4763
G01 X6.8926 Y2.5436
G01 X6.8809 Y2.5770
G01 X6.8541 Y2.6417
G01 X6.8388 Y2.6735
G01 X6.8153 Y2.7162
G01 X6.8153 Y8.8224
G01 X7.3722 Y9.2270
G01 X7.4423 Y9.2836
G01 X7.4657 Y9.1966
G01 X7.5413 Y8.9642
G01 X7.4235 Y8.8465
G01 X7.3740 Y8.7918
G01 X7.3520 Y8.7642
G01 X7.3195 Y8.7184
G01 X7.3007 Y8.6885
G01 X7.2736 Y8.6394
G01 X7.2590 Y8.6093
G01 X7.2368 Y8.5558
G01 X7.2251 Y8.5224
G01 X7.2096 Y8.4685
G01 X7.2030 Y8.4411
G01 X7.1923 Y8.3788
G01 X7.1890 Y8.3436
G01 X7.1884 Y8.3437
G01 X7.1852 Y8.2877
G01 X7.1847 Y2.7162
G01 X7.1612 Y2.6735
G01 X7.1466 Y2.6434
G01 X7.1191 Y2.5770
G01 X7.1074 Y2.5436
G01 X7.0880 Y2.4763
G01 X7.0814 Y2.4488
G01 X7.0684 Y2.3727
G01 X7.0650 Y2.3376
G01 X7.0644 Y2.3376
G01 X7.0605 Y2.2677
G01 X7.0605 Y2.2323
G01 X7.0644 Y2.1624
G01 X7.0684 Y2.1273
G01 X7.0801 Y2.0582
G01 X7.0880 Y2.0237
G01 X7.1074 Y1.9564
G01 X7.1191 Y1.9230
G01 X7.1459 Y1.8583
G01 X7.1612 Y1.8265
G01 X7.1951 Y1.7651
G01 X7.2114 Y1.7388
G01 X7.2545 Y1.6780
G01 X7.2770 Y1.6509
G01 X7.2765 Y1.6504
G01 X7.3232 Y1.5982
G01 X7.3482 Y1.5732
G01 X7.4004 Y1.5265
G01 X7.4280 Y1.5045
G01 X7.4852 Y1.4639
G01 X7.5151 Y1.4451
G01 X7.5765 Y1.4112
G01 X7.6066 Y1.3966
G01 X7.6730 Y1.3691
G01 X7.7064 Y1.3574
G01 X7.7737 Y1.3380
G01 X7.8082 Y1.3301
G01 X7.8773 Y1.3184
G01 X7.9124 Y1.3150
G01 X7.9124 Y1.3144
G01 X7.9823 Y1.3105
G01 X8.0177 Y1.3105
G01 X8.0876 Y1.3144
G01 X8.1227 Y1.3184
G01 X8.1918 Y1.3301
G01 X8.2263 Y1.3380
G01 X8.2936 Y1.3574
G01 X8.3270 Y1.3691
G01 X8.3917 Y1.3959
G01 X8.4235 Y1.4112
G01 X8.4849 Y1.4451
G01 X8.5112 Y1.4614
G01 X8.5720 Y1.5045
G01 X8.5991 Y1.5270
G01 X8.5996 Y1.5265
G01 X8.6518 Y1.5732
G01 X8.6768 Y1.5982
G01 X8.7235 Y1.6504
G01 X8.7455 Y1.6780
G01 X8.7861 Y1.7352
G01 X8.8049 Y1.7651
G01 X8.8388 Y1.8265
G01 X8.8534 Y1.8566
G01 X8.8809 Y1.9230
G01 X8.8926 Y1.9564
G01 X8.9120 Y2.0237
G01 X8.9199 Y2.0582
G01 X8.9316 Y2.1273
G01 X8.9350 Y2.1624
G01 X8.9356 Y2.1624
G01 X8.9400 Y2.2500
G01 X8.9356 Y2.3376
G01 X8.9316 Y2.3727
G01 X8.9199 Y2.4418
G01 X8.9120 Y2.4763
G01 X8.8926 Y2.5436
G01 X8.8809 Y2.5770
G01 X8.8541 Y2.6417
G01 X8.8388 Y2.6735
G01 X8.8153 Y2.7162
G01 X8.8153 Y7.0426
G01 X8.8171 Y7.0424
G01 X8.8171 Y7.0417
G01 X8.9009 Y7.0351
G01 X8.9257 Y7.0341
G01 X9.0204 Y7.0371
G01 X9.0555 Y7.0403
G01 X9.1388 Y7.0525
G01 X9.1734 Y7.0596
G01 X9.2548 Y7.0811
G01 X9.2884 Y7.0920
G01 X9.3668 Y7.1224
G01 X9.3990 Y7.1370
G01 X9.4735 Y7.1761
G01 X9.5038 Y7.1942
G01 X9.5735 Y7.2413
G01 X9.6016 Y7.2627
G01 X9.6656 Y7.3174
G01 X9.6838 Y7.3342
G01 X9.7486 Y7.4033
G01 X9.7713 Y7.4304
G01 X9.8215 Y7.4979
G01 X9.8410 Y7.5274
G01 X9.8833 Y7.6001
G01 X9.8988 Y7.6303
G01 X9.9333 Y7.7086
G01 X9.9457 Y7.7416
G01 X9.9708 Y7.8220
G01 X9.9782 Y7.8501
G01 X9.9954 Y7.9388
G01 X9.9994 Y7.9739
G01 X10.0001 Y7.9738
G01 X10.0067 Y8.0577
G01 X10.0077 Y8.0824
G01 X10.0047 Y8.1771
G01 X10.0015 Y8.2123
G01 X9.9893 Y8.2956
G01 X9.9822 Y8.3302
G01 X9.9607 Y8.4115
G01 X9.5164 Y9.7807
G01 X10.2197 Y9.0773
G01 X10.2197 Y7.1977
G01 X9.4235 Y6.4015
G01 X9.3740 Y6.3468
G01 X9.3520 Y6.3192
G01 X9.3195 Y6.2734
G01 X9.3007 Y6.2435
G01 X9.2736 Y6.1944
G01 X9.2590 Y6.1643
G01 X9.2368 Y6.1108
G01 X9.2251 Y6.0774
G01 X9.2096 Y6.0235
G01 X9.2030 Y5.9961
G01 X9.1923 Y5.9338
G01 X9.1890 Y5.8986
G01 X9.1884 Y5.8987
G01 X9.1847 Y5.8250
G01 X9.1847 Y2.7162
G01 X9.1612 Y2.6735
G01 X9.1466 Y2.6434
G01 X9.1191 Y2.5770
G01 X9.1074 Y2.5436
G01 X9.0880 Y2.4763
G01 X9.0814 Y2.4488
G01 X9.0684 Y2.3727
G01 X9.0650 Y2.3376
G01 X9.0644 Y2.3376
G01 X9.0605 Y2.2677
G01 X9.0605 Y2.2323
G01 X9.0644 Y2.1624
G01 X9.0684 Y2.1273
G01 X9.0801 Y2.0582
G01 X9.0880 Y2.0237
G01 X9.1074 Y1.9564
G01 X9.1191 Y1.9230
G01 X9.1459 Y1.8583
G01 X9.1612 Y1.8265
G01 X9.1951 Y1.7651
G01 X9.2114 Y1.7388
G01 X9.2545 Y1.6780
G01 X9.2770 Y1.6509
G01 X9.2765 Y1.6504
G01 X9.3232 Y1.5982
G01 X9.3482 Y1.5732
G01 X9.4004 Y1.5265
G01 X9.4280 Y1.5045
G01 X9.4852 Y1.4639
G01 X9.5151 Y1.4451
G01 X9.5765 Y1.4112
G01 X9.6066 Y1.3966
G01 X9.6730 Y1.3691
G01 X9.7064 Y1.3574
G01 X9.7737 Y1.3380
G01 X9.8012 Y1.3314
G01 X9.8773 Y1.3184
G01 X9.9124 Y1.3150
G01 X9.9124 Y1.3144
G01 X9.9823 Y1.3105
G01 X10.0177 Y1.3105
G01 X10.0876 Y1.3144
G01 X10.1227 Y1.3184
G01 X10.1918 Y1.3301
G01 X10.2263 Y1.3380
G01 X10.2936 Y1.3574
G01 X10.3270 Y1.3691
G01 X10.3917 Y1.3959
G01 X10.4235 Y1.4112
G01 X10.4849 Y1.4451
G01 X10.5112 Y1.4614
G01 X10.5720 Y1.5045
G01 X10.5991 Y1.5270
G01 X10.5996 Y1.5265
G01 X10.6518 Y1.5732
G01 X10.6768 Y1.5982
G01 X10.7235 Y1.6504
G01 X10.7455 Y1.6780
G01 X10.7861 Y1.7352
G01 X10.8049 Y1.7651
G01 X10.8388 Y1.8265
G01 X10.8534 Y1.8566
G01 X10.8809 Y1.9230
G01 X10.8926 Y1.9564
G01 X10.9120 Y2.0237
G01 X10.9199 Y2.0582
G01 X10.9316 Y2.1273
G01 X10.9350 Y2.1624
G01 X10.9356 Y2.1624
G01 X10.9400 Y2.2500
G01 X10.9356 Y2.3376
G01 X10.9316 Y2.3727
G01 X10.9199 Y2.4418
G01 X10.9120 Y2.4763
G01 X10.8926 Y2.5436
G01 X10.8809 Y2.5770
G01 X10.8541 Y2.6417
G01 X10.8388 Y2.6735
G01 X10.8153 Y2.7162
G01 X10.8153 Y5.4873
G01 X11.6115 Y6.2835
G01 X11.6610 Y6.3382
G01 X11.6830 Y6.3658
G01 X11.7155 Y6.4116
G01 X11.7343 Y6.4415
G01 X11.7614 Y6.4906
G01 X11.7760 Y6.5207
G01 X11.7982 Y6.5742
G01 X11.8099 Y6.6076
G01 X11.8254 Y6.6615
G01 X11.8320 Y6.6889
G01 X11.8427 Y6.7512
G01 X11.8460 Y6.7864
G01 X11.8466 Y6.7863
G01 X11.8503 Y6.8600
G01 X11.8503 Y9.4150
G01 X11.8466 Y9.4887
G01 X11.8427 Y9.5238
G01 X11.8333 Y9.5791
G01 X11.8254 Y9.6135
G01 X11.8099 Y9.6674
G01 X11.7982 Y9.7008
G01 X11.7767 Y9.7526
G01 X11.7614 Y9.7844
G01 X11.7343 Y9.8335
G01 X11.7180 Y9.8598
G01 X11.6830 Y9.9092
G01 X11.6604 Y9.9363
G01 X11.6610 Y9.9368
G01 X11.6236 Y9.9786
G01 X11.5449 Y10.0580
G01 X11.6014 Y10.0893
G01 X11.6277 Y10.1055
G01 X11.6999 Y10.1567
G01 X11.7270 Y10.1793
G01 X11.7275 Y10.1787
G01 X11.7902 Y10.2348
G01 X11.8152 Y10.2598
G01 X11.8713 Y10.3225
G01 X11.8933 Y10.3501
G01 X11.9419 Y10.4187
G01 X11.9607 Y10.4486
G01 X12.0014 Y10.5222
G01 X12.0160 Y10.5524
G01 X12.0489 Y10.6317
G01 X12.0606 Y10.6651
G01 X12.0839 Y10.7459
G01 X12.0917 Y10.7803
G01 X12.1058 Y10.8633
G01 X12.1092 Y10.8984
G01 X12.1098 Y10.8984
G01 X12.1145 Y10.9823
G01 X12.1145 Y11.0177
G01 X12.1098 Y11.1016
G01 X12.1058 Y11.1367
G01 X12.0917 Y11.2197
G01 X12.0839 Y11.2541
G01 X12.0606 Y11.3349
G01 X12.0489 Y11.3683
G01 X12.0167 Y11.4460
G01 X12.0014 Y11.4778
G01 X11.9607 Y11.5514
G01 X11.9445 Y11.5777
G01 X11.8933 Y11.6499
G01 X11.8707 Y11.6770
G01 X11.8713 Y11.6775
G01 X11.8152 Y11.7402
G01 X11.7902 Y11.7652
G01 X11.7275 Y11.8213
G01 X11.6999 Y11.8433
G01 X11.6313 Y11.8919
G01 X11.6014 Y11.9107
G01 X11.5278 Y11.9514
G01 X11.4976 Y11.9660
G01 X11.4183 Y11.9989
G01 X11.3849 Y12.0106
G01 X11.3041 Y12.0339
G01 X11.2766 Y12.0405
G01 X11.1867 Y12.0558
G01 X11.1516 Y12.0592
G01 X11.1516 Y12.0598
G01 X11.0500 Y12.0650
G01 X9.5500 Y12.0650
G01 X9.4599 Y12.0604
G01 X9.4922 Y12.1449
G01 X9.5525 Y12.3305
G01 X10.2517 Y13.0297
G01 X11.9673 Y13.0297
G01 X12.7597 Y12.2373
G01 X12.7597 Y7.1727
G01 X11.4114 Y5.8236
G01 X11.3740 Y5.7818
G01 X11.3520 Y5.7542
G01 X11.3195 Y5.7084
G01 X11.3007 Y5.6785
G01 X11.2736 Y5.6294
G01 X11.2590 Y5.5993
G01 X11.2368 Y5.5458
G01 X11.2251 Y5.5124
G01 X11.2096 Y5.4585
G01 X11.2030 Y5.4311
G01 X11.1923 Y5.3688
G01 X11.1890 Y5.3336
G01 X11.1884 Y5.3337
G01 X11.1847 Y5.2600
G01 X11.1847 Y2.7162
G01 X11.1612 Y2.6735
G01 X11.1466 Y2.6434
G01 X11.1191 Y2.5770
G01 X11.1074 Y2.5436
G01 X11.0880 Y2.4763
G01 X11.0814 Y2.4488
G01 X11.0684 Y2.3727
G01 X11.0650 Y2.3376
G01 X11.0644 Y2.3376
G01 X11.0600 Y2.2500
G01 X11.0644 Y2.1624
G01 X11.0684 Y2.1273
G01 X11.0801 Y2.0582
G01 X11.0880 Y2.0237
G01 X11.1074 Y1.9564
G01 X11.1191 Y1.9230
G01 X11.1459 Y1.8583
G01 X11.1612 Y1.8265
G01 X11.1951 Y1.7651
G01 X11.2114 Y1.7388
G01 X11.2545 Y1.6780
G01 X11.2770 Y1.6509
G01 X11.2765 Y1.6504
G01 X11.3232 Y1.5982
G01 X11.3482 Y1.5732
G01 X11.4004 Y1.5265
G01 X11.4280 Y1.5045
G01 X11.4852 Y1.4639
G01 X11.5151 Y1.4451
G01 X11.5765 Y1.4112
G01 X11.6066 Y1.3966
G01 X11.6730 Y1.3691
G01 X11.7064 Y1.3574
G01 X11.7737 Y1.3380
G01 X11.8082 Y1.3301
G01 X11.8773 Y1.3184
G01 X11.9124 Y1.3150
G01 X11.9124 Y1.3144
G01 X11.9823 Y1.3105
G01 X12.0177 Y1.3105
G01 X12.0876 Y1.3144
G01 X12.1227 Y1.3184
G01 X12.1918 Y1.3301
G01 X12.2263 Y1.3380
G01 X12.2936 Y1.3574
G01 X12.3270 Y1.3691
G01 X12.3917 Y1.3959
G01 X12.4235 Y1.4112
G01 X12.4849 Y1.4451
G01 X12.5112 Y1.4614
G01 X12.5720 Y1.5045
G01 X12.5991 Y1.5270
G01 X12.5996 Y1.5265
G01 X12.6518 Y1.5732
G01 X12.6768 Y1.5982
G01 X12.7235 Y1.6504
G01 X12.7455 Y1.6780
G01 X12.7861 Y1.7352
G01 X12.8049 Y1.7651
G01 X12.8388 Y1.8265
G01 X12.8534 Y1.8566
G01 X12.8809 Y1.9230
G01 X12.8926 Y1.9564
G01 X12.9120 Y2.0237
G01 X12.9199 Y2.0582
G01 X12.9316 Y2.1273
G01 X12.9350 Y2.1624
G01 X12.9356 Y2.1624
G01 X12.9400 Y2.2500
G01 X12.9356 Y2.3376
G01 X12.9316 Y2.3727
G01 X12.9199 Y2.4418
G01 X12.9120 Y2.4763
G01 X12.8926 Y2.5436
G01 X12.8809 Y2.5770
G01 X12.8541 Y2.6417
G01 X12.8388 Y2.6735
G01 X12.8153 Y2.7162
G01 X12.8153 Y4.9223
G01 X14.1515 Y6.2585
G01 X14.2010 Y6.3132
G01 X14.2230 Y6.3408
G01 X14.2555 Y6.3866
G01 X14.2743 Y6.4165
G01 X14.3014 Y6.4656
G01 X14.3160 Y6.4957
G01 X14.3382 Y6.5492
G01 X14.3499 Y6.5826
G01 X14.3654 Y6.6365
G01 X14.3720 Y6.6639
G01 X14.3827 Y6.7262
G01 X14.3860 Y6.7614
G01 X14.3866 Y6.7613
G01 X14.3903 Y6.8350
G01 X14.3903 Y12.5750
G01 X14.3866 Y12.6487
G01 X14.3827 Y12.6838
G01 X14.3733 Y12.7391
G01 X14.3654 Y12.7735
G01 X14.3499 Y12.8274
G01 X14.3382 Y12.8608
G01 X14.3167 Y12.9126
G01 X14.3014 Y12.9444
G01 X14.2743 Y12.9935
G01 X14.2580 Y13.0198
G01 X14.2230 Y13.0692
G01 X14.2004 Y13.0963
G01 X14.2010 Y13.0968
G01 X14.1515 Y13.1515
G01 X12.8815 Y14.4215
G01 X12.8268 Y14.4710
G01 X12.7992 Y14.4930
G01 X12.7534 Y14.5255
G01 X12.7235 Y14.5443
G01 X12.6744 Y14.5714
G01 X12.6443 Y14.5860
G01 X12.5908 Y14.6082
G01 X12.5574 Y14.6199
G01 X12.5035 Y14.6354
G01 X12.4761 Y14.6420
G01 X12.4138 Y14.6527
G01 X12.3786 Y14.6560
G01 X12.3787 Y14.6566
G01 X12.3227 Y14.6598
G01 X9.9140 Y14.6603
G01 X9.8404 Y14.6566
G01 X9.8053 Y14.6527
G01 X9.7500 Y14.6433
G01 X9.7131 Y14.6347
G01 X9.6838 Y14.6658
G01 X9.6656 Y14.6826
G01 X9.6016 Y14.7373
G01 X9.5735 Y14.7587
G01 X9.5038 Y14.8058
G01 X9.4735 Y14.8239
G01 X9.3990 Y14.8630
G01 X9.3689 Y14.8768
G01 X9.2884 Y14.9080
G01 X9.2548 Y14.9189
G01 X9.1734 Y14.9404
G01 X9.1412 Y14.9471
G01 X9.0555 Y14.9597
G01 X9.0204 Y14.9629
G01 X8.9363 Y14.9657
G01 X8.9009 Y14.9649
G01 X8.8171 Y14.9583
G01 X8.7821 Y14.9536
G01 X8.6994 Y14.9376
G01 X8.6652 Y14.9290
G01 X8.5849 Y14.9039
G01 X8.5518 Y14.8915
G01 X8.4748 Y14.8576
G01 X8.4433 Y14.8415
G01 X8.3706 Y14.7992
G01 X8.3454 Y14.7829
G01 X8.2736 Y14.7295
G01 X8.2465 Y14.7069
G01 X8.1774 Y14.6420
G01 X8.1606 Y14.6239
G01 X8.1060 Y14.5599
G01 X8.0846 Y14.5318
G01 X8.0374 Y14.4621
G01 X8.0193 Y14.4317
G01 X7.9803 Y14.3572
G01 X7.9665 Y14.3271
G01 X7.9293 Y14.2299
G01 X7.4657 Y12.8034
G01 X7.4423 Y12.7164
G01 X7.3722 Y12.7730
G01 X6.1441 Y13.6646
G01 X6.0734 Y13.7102
G01 X6.0427 Y13.7276
G01 X5.9673 Y13.7650
G01 X5.9373 Y13.7779
G01 X5.8557 Y13.8076
G01 X5.8218 Y13.8177
G01 X5.7400 Y13.8374
G01 X5.7131 Y13.8426
G01 X5.6218 Y13.8540
G01 X5.5865 Y13.8564
G01 X5.4988 Y13.8574
G01 X5.4671 Y13.8558
G01 X5.3834 Y13.8473
G01 X5.3485 Y13.8418
G01 X5.2662 Y13.8239
G01 X5.2322 Y13.8145
G01 X5.1524 Y13.7877
G01 X5.1197 Y13.7745
G01 X5.0434 Y13.7388
G01 X5.0123 Y13.7221
G01 X4.9406 Y13.6781
G01 X4.9167 Y13.6619
G01 X4.8452 Y13.6063
G01 X4.8186 Y13.5831
G01 X4.7559 Y13.5217
G01 X4.7346 Y13.4982
G01 X4.6814 Y13.4330
G01 X4.6606 Y13.4044
G01 X4.6150 Y13.3336
G01 X4.5976 Y13.3029
G01 X4.5603 Y13.2275
G01 X4.5473 Y13.1976
G01 X4.5177 Y13.1159
G01 X4.5075 Y13.0821
G01 X4.4879 Y13.0003
G01 X4.4827 Y12.9734
G01 X4.4712 Y12.8820
G01 X4.4688 Y12.8468
G01 X4.4679 Y12.7591
G01 X4.4695 Y12.7273
G01 X4.4780 Y12.6436
G01 X4.4835 Y12.6087
G01 X4.5013 Y12.5265
G01 X4.5107 Y12.4924
G01 X4.5376 Y12.4127
G01 X4.5507 Y12.3799
G01 X4.5687 Y12.3416
G01 X3.4235 Y11.1965
G01 X3.3740 Y11.1418
G01 X3.3520 Y11.1142
G01 X3.3195 Y11.0684
G01 X3.3007 Y11.0385
G01 X3.2736 Y10.9894
G01 X3.2590 Y10.9593
G01 X3.2368 Y10.9058
G01 X3.2251 Y10.8724
G01 X3.2096 Y10.8185
G01 X3.2030 Y10.7911
G01 X3.1923 Y10.7288
G01 X3.1890 Y10.6936
G01 X3.1884 Y10.6937
G01 X3.1847 Y10.6200
G01 X3.1847 Y3.1257
G00 Z2.0000
G00 X3.0647 Y3.1796
G01 F100.00
G01 Z-0.2000
G01 F100.00
G01 X3.0343 Y3.1454
G01 X3.0056 Y3.1047
G01 X2.9818 Y3.0610
G01 X2.9637 Y3.0165
G01 X2.9506 Y2.9703
G01 X2.9427 Y2.9230
G01 X2.9400 Y2.8750
G01 X2.9400 Y1.6250
G01 X2.9427 Y1.5770
G01 X2.9506 Y1.5297
G01 X2.9637 Y1.4835
G01 X2.9818 Y1.4390
G01 X3.0056 Y1.3953
G01 X3.0343 Y1.3546
G01 X3.0674 Y1.3174
G01 X3.1046 Y1.2843
G01 X3.1453 Y1.2556
G01 X3.1890 Y1.2318
G01 X3.2335 Y1.2137
G01 X3.2797 Y1.2006
G01 X3.3271 Y1.1927
G01 X3.3750 Y1.1900
G01 X4.6250 Y1.1900
G01 X4.6729 Y1.1927
G01 X4.7203 Y1.2006
G01 X4.7665 Y1.2137
G01 X4.8110 Y1.2318
G01 X4.8547 Y1.2556
G01 X4.8954 Y1.2843
G01 X4.9326 Y1.3174
G01 X4.9657 Y1.3546
G01 X4.9944 Y1.3953
G01 X5.0182 Y1.4390
G01 X5.0363 Y1.4835
G01 X5.0494 Y1.5297
G01 X5.0573 Y1.5770
G01 X5.0600 Y1.6250
G01 X5.0600 Y1.7615
G01 X5.0901 Y1.7071
G01 X5.1125 Y1.6707
G01 X5.1566 Y1.6086
G01 X5.1878 Y1.5711
G01 X5.1870 Y1.5705
G01 X5.2337 Y1.5182
G01 X5.2682 Y1.4837
G01 X5.3205 Y1.4370
G01 X5.3586 Y1.4066
G01 X5.4158 Y1.3660
G01 X5.4571 Y1.3401
G01 X5.5184 Y1.3062
G01 X5.5600 Y1.2860
G01 X5.6271 Y1.2582
G01 X5.6732 Y1.2421
G01 X5.7405 Y1.2227
G01 X5.7784 Y1.2136
G01 X5.8572 Y1.2001
G01 X5.9057 Y1.1954
G01 X5.9056 Y1.1946
G01 X5.9756 Y1.1907
G01 X6.0000 Y1.1900
G01 X6.0244 Y1.1907
G01 X6.0944 Y1.1946
G01 X6.1428 Y1.2001
G01 X6.2119 Y1.2118
G01 X6.2595 Y1.2227
G01 X6.3268 Y1.2421
G01 X6.3729 Y1.2582
G01 X6.4376 Y1.2850
G01 X6.4816 Y1.3062
G01 X6.5429 Y1.3401
G01 X6.5793 Y1.3625
G01 X6.6414 Y1.4066
G01 X6.6789 Y1.4378
G01 X6.6795 Y1.4370
G01 X6.7318 Y1.4837
G01 X6.7663 Y1.5182
G01 X6.8130 Y1.5705
G01 X6.8434 Y1.6086
G01 X6.8840 Y1.6658
G01 X6.9099 Y1.7071
G01 X6.9438 Y1.7684
G01 X6.9640 Y1.8100
G01 X6.9918 Y1.8771
G01 X7.0001 Y1.9007
G01 X7.0082 Y1.8771
G01 X7.0350 Y1.8124
G01 X7.0562 Y1.7684
G01 X7.0901 Y1.7071
G01 X7.1125 Y1.6707
G01 X7.1566 Y1.6086
G01 X7.1878 Y1.5711
G01 X7.1870 Y1.5705
G01 X7.2337 Y1.5182
G01 X7.2682 Y1.4837
G01 X7.3205 Y1.4370
G01 X7.3586 Y1.4066
G01 X7.4158 Y1.3660
G01 X7.4571 Y1.3401
G01 X7.5184 Y1.3062
G01 X7.5600 Y1.2860
G01 X7.6271 Y1.2582
G01 X7.6732 Y1.2421
G01 X7.7405 Y1.2227
G01 X7.7784 Y1.2136
G01 X7.8572 Y1.2001
G01 X7.9057 Y1.1954
G01 X7.9056 Y1.1946
G01 X7.9756 Y1.1907
G01 X8.0000 Y1.1900
G01 X8.0244 Y1.1907
G01 X8.0944 Y1.1946
G01 X8.1428 Y1.2001
G01 X8.2119 Y1.2118
G01 X8.2595 Y1.2227
G01 X8.3268 Y1.2421
G01 X8.3729 Y1.2582
G01 X8.4376 Y1.2850
G01 X8.4816 Y1.3062
G01 X8.5429 Y1.3401
G01 X8.5793 Y1.3625
G01 X8.6414 Y1.4066
G01 X8.6789 Y1.4378
G01 X8.6795 Y1.4370
G01 X8.7318 Y1.4837
G01 X8.7663 Y1.5182
G01 X8.8130 Y1.5705
G01 X8.8434 Y1.6086
G01 X8.8840 Y1.6658
G01 X8.9099 Y1.7071
G01 X8.9438 Y1.7684
G01 X8.9640 Y1.8100
G01 X8.9918 Y1.8771
G01 X9.0001 Y1.9007
G01 X9.0082 Y1.8771
G01 X9.0350 Y1.8124
G01 X9.0562 Y1.7684
G01 X9.0901 Y1.7071
G01 X9.1125 Y1.6707
G01 X9.1566 Y1.6086
G01 X9.1878 Y1.5711
G01 X9.1870 Y1.5705
G01 X9.2337 Y1.5182
G01 X9.2682 Y1.4837
G01 X9.3205 Y1.4370
G01 X9.3586 Y1.4066
G01 X9.4158 Y1.3660
G01 X9.4571 Y1.3401
G01 X9.5184 Y1.3062
G01 X9.5600 Y1.2860
G01 X9.6271 Y1.2582
G01 X9.6732 Y1.2421
G01 X9.7405 Y1.2227
G01 X9.7784 Y1.2136
G01 X9.8572 Y1.2001
G01 X9.9057 Y1.1954
G01 X9.9056 Y1.1946
G01 X9.9756 Y1.1907
G01 X10.0000 Y1.1900
G01 X10.0244 Y1.1907
G01 X10.0944 Y1.1946
G01 X10.1428 Y1.2001
G01 X10.2119 Y1.2118
G01 X10.2595 Y1.2227
G01 X10.3268 Y1.2421
G01 X10.3729 Y1.2582
G01 X10.4376 Y1.2850
G01 X10.4816 Y1.3062
G01 X10.5429 Y1.3401
G01 X10.5793 Y1.3625
G01 X10.6414 Y1.4066
G01 X10.6789 Y1.4378
G01 X10.6795 Y1.4370
G01 X10.7318 Y1.4837
G01 X10.7663 Y1.5182
G01 X10.8130 Y1.5705
G01 X10.8434 Y1.6086
G01 X10.8840 Y1.6658
G01 X10.9099 Y1.7071
G01 X10.9438 Y1.7684
G01 X10.9640 Y1.8100
G01 X10.9918 Y1.8771
G01 X11.0001 Y1.9007
G01 X11.0082 Y1.8771
G01 X11.0350 Y1.8124
G01 X11.0562 Y1.7684
G01 X11.0901 Y1.7071
G01 X11.1125 Y1.6707
G01 X11.1566 Y1.6086
G01 X11.1878 Y1.5711
G01 X11.1870 Y1.5705
G01 X11.2337 Y1.5182
G01 X11.2682 Y1.4837
G01 X11.3205 Y1.4370
G01 X11.3586 Y1.4066
G01 X11.4158 Y1.3660
G01 X11.4571 Y1.3401
G01 X11.5184 Y1.3062
G01 X11.5600 Y1.2860
G01 X11.6271 Y1.2582
G01 X11.6732 Y1.2421
G01 X11.7405 Y1.2227
G01 X11.7784 Y1.2136
G01 X11.8572 Y1.2001
G01 X11.9057 Y1.1954
G01 X11.9056 Y1.1946
G01 X11.9756 Y1.1907
G01 X12.0000 Y1.1900
G01 X12.0244 Y1.1907
G01 X12.0944 Y1.1946
G01 X12.1428 Y1.2001
G01 X12.2119 Y1.2118
G01 X12.2595 Y1.2227
G01 X12.3268 Y1.2421
G01 X12.3729 Y1.2582
G01 X12.4376 Y1.2850
G01 X12.4816 Y1.3062
G01 X12.5429 Y1.3401
G01 X12.5793 Y1.3625
G01 X12.6414 Y1.4066
G01 X12.6789 Y1.4378
G01 X12.6795 Y1.4370
G01 X12.7318 Y1.4837
G01 X12.7663 Y1.5182
G01 X12.8130 Y1.5705
G01 X12.8434 Y1.6086
G01 X12.8840 Y1.6658
G01 X12.9099 Y1.7071
G01 X12.9438 Y1.7684
G01 X12.9640 Y1.8100
G01 X12.9918 Y1.8771
G01 X13.0079 Y1.9232
G01 X13.0273 Y1.9905
G01 X13.0364 Y2.0284
G01 X13.0499 Y2.1072
G01 X13.0546 Y2.1557
G01 X13.0554 Y2.1556
G01 X13.0593 Y2.2256
G01 X13.0600 Y2.2500
G01 X13.0593 Y2.2744
G01 X13.0554 Y2.3444
G01 X13.0499 Y2.3928
G01 X13.0382 Y2.4619
G01 X13.0273 Y2.5095
G01 X13.0079 Y2.5768
G01 X12.9918 Y2.6229
G01 X12.9650 Y2.6876
G01 X12.9438 Y2.7316
G01 X12.9353 Y2.7471
G01 X12.9353 Y4.8726
G01 X14.2363 Y6.1737
G01 X14.2905 Y6.2332
G01 X14.3209 Y6.2714
G01 X14.3533 Y6.3171
G01 X14.3793 Y6.3584
G01 X14.4064 Y6.4075
G01 X14.4266 Y6.4492
G01 X14.4491 Y6.5033
G01 X14.4652 Y6.5494
G01 X14.4807 Y6.6033
G01 X14.4898 Y6.6412
G01 X14.5010 Y6.7061
G01 X14.5056 Y6.7546
G01 X14.5064 Y6.7546
G01 X14.5103 Y6.8350
G01 X14.5103 Y12.5750
G01 X14.5064 Y12.6554
G01 X14.5010 Y12.7039
G01 X14.4916 Y12.7592
G01 X14.4807 Y12.8067
G01 X14.4652 Y12.8606
G01 X14.4491 Y12.9067
G01 X14.4276 Y12.9585
G01 X14.4064 Y13.0025
G01 X14.3793 Y13.0516
G01 X14.3568 Y13.0879
G01 X14.3209 Y13.1386
G01 X14.2897 Y13.1761
G01 X14.2905 Y13.1768
G01 X14.2363 Y13.2363
G01 X12.9663 Y14.5063
G01 X12.9068 Y14.5605
G01 X12.8686 Y14.5909
G01 X12.8229 Y14.6233
G01 X12.7816 Y14.6493
G01 X12.7325 Y14.6764
G01 X12.6908 Y14.6966
G01 X12.6367 Y14.7191
G01 X12.5906 Y14.7352
G01 X12.5367 Y14.7507
G01 X12.4988 Y14.7598
G01 X12.4339 Y14.7710
G01 X12.3854 Y14.7756
G01 X12.3854 Y14.7764
G01 X12.3050 Y14.7803
G01 X9.9140 Y14.7803
G01 X9.8336 Y14.7764
G01 X9.7852 Y14.7710
G01 X9.7527 Y14.7654
G01 X9.6796 Y14.8285
G01 X9.6408 Y14.8581
G01 X9.5711 Y14.9052
G01 X9.5292 Y14.9302
G01 X9.4546 Y14.9693
G01 X9.4131 Y14.9883
G01 X9.3318 Y15.0199
G01 X9.2854 Y15.0350
G01 X9.2040 Y15.0564
G01 X9.1596 Y15.0657
G01 X9.0730 Y15.0785
G01 X9.0244 Y15.0822
G01 X9.0244 Y15.0828
G01 X8.9257 Y15.0859
G01 X8.8915 Y15.0846
G01 X8.8076 Y15.0780
G01 X8.7593 Y15.0714
G01 X8.6767 Y15.0555
G01 X8.6294 Y15.0435
G01 X8.5491 Y15.0184
G01 X8.5034 Y15.0013
G01 X8.4264 Y14.9674
G01 X8.3829 Y14.9452
G01 X8.3102 Y14.9029
G01 X8.2754 Y14.8803
G01 X8.2020 Y14.8258
G01 X8.1650 Y14.7940
G01 X8.1645 Y14.7945
G01 X8.0925 Y14.7269
G01 X8.0694 Y14.7018
G01 X8.0147 Y14.6378
G01 X7.9852 Y14.5990
G01 X7.9380 Y14.5293
G01 X7.9130 Y14.4874
G01 X7.8740 Y14.4129
G01 X7.8549 Y14.3713
G01 X7.8233 Y14.2900
G01 X7.8151 Y14.2670
G01 X7.3768 Y12.9180
G01 X6.2292 Y13.7517
G01 X6.2088 Y13.7651
G01 X6.2091 Y13.7655
G01 X6.1384 Y13.8111
G01 X6.0959 Y13.8352
G01 X6.0205 Y13.8725
G01 X5.9792 Y13.8904
G01 X5.8966 Y13.9204
G01 X5.8499 Y13.9344
G01 X5.7680 Y13.9540
G01 X5.7309 Y13.9613
G01 X5.6365 Y13.9731
G01 X5.5879 Y13.9764
G01 X5.4988 Y13.9774
G01 X5.4550 Y13.9751
G01 X5.3713 Y13.9667
G01 X5.3231 Y13.9590
G01 X5.2408 Y13.9412
G01 X5.1938 Y13.9283
G01 X5.1141 Y13.9014
G01 X5.0688 Y13.8832
G01 X4.9926 Y13.8475
G01 X4.9496 Y13.8244
G01 X4.8779 Y13.7805
G01 X4.8448 Y13.7581
G01 X4.7714 Y13.7009
G01 X4.7347 Y13.6689
G01 X4.6710 Y13.6066
G01 X4.6416 Y13.5740
G01 X4.5884 Y13.5088
G01 X4.5597 Y13.4694
G01 X4.5142 Y13.3986
G01 X4.4901 Y13.3562
G01 X4.4527 Y13.2808
G01 X4.4348 Y13.2394
G01 X4.4049 Y13.1568
G01 X4.3908 Y13.1101
G01 X4.3712 Y13.0283
G01 X4.3640 Y12.9912
G01 X4.3521 Y12.8968
G01 X4.3489 Y12.8481
G01 X4.3479 Y12.7591
G01 X4.3501 Y12.7152
G01 X4.3586 Y12.6315
G01 X4.3662 Y12.5833
G01 X4.3840 Y12.5011
G01 X4.3970 Y12.4541
G01 X4.4261 Y12.3688
G01 X3.3387 Y11.2813
G01 X3.2845 Y11.2218
G01 X3.2541 Y11.1836
G01 X3.2217 Y11.1379
G01 X3.1957 Y11.0966
G01 X3.1686 Y11.0475
G01 X3.1484 Y11.0058
G01 X3.1259 Y10.9517
G01 X3.1098 Y10.9056
G01 X3.0943 Y10.8517
G01 X3.0852 Y10.8138
G01 X3.0740 Y10.7489
G01 X3.0694 Y10.7004
G01 X3.0686 Y10.7004
G01 X3.0647 Y10.6200
G01 X3.0647 Y3.1796
G00 Z2.0000
G00 X7.3042 Y2.3242
G01 F100.00
G01 Z-0.2000
G01 F100.00
G01 X7.3000 Y2.2500
G01 X7.3040 Y2.1758
G01 X7.3186 Y2.0902
G01 X7.3380 Y2.0228
G01 X7.3676 Y1.9501
G01 X7.4096 Y1.8741
G01 X7.4554 Y1.8103
G01 X7.5081 Y1.7521
G01 X7.5603 Y1.7054
G01 X7.6241 Y1.6596
G01 X7.6997 Y1.6178
G01 X7.7649 Y1.5908
G01 X7.8402 Y1.5686
G01 X7.9258 Y1.5540
G01 X8.0000 Y1.5500
G01 X8.0742 Y1.5540
G01 X8.1598 Y1.5686
G01 X8.2272 Y1.5880
G01 X8.2999 Y1.6176
G01 X8.3759 Y1.6596
G01 X8.4331 Y1.7002
G01 X8.4919 Y1.7521
G01 X8.5498 Y1.8169
G01 X8.5948 Y1.8812
G01 X8.6322 Y1.9497
G01 X8.6620 Y2.0228
G01 X8.6830 Y2.0967
G01 X8.6960 Y2.1758
G01 X8.7000 Y2.2500
G01 X8.6950 Y2.3325
G01 X8.6833 Y2.4016
G01 X8.6620 Y2.4772
G01 X8.6287 Y2.5575
G01 X8.5948 Y2.6188
G01 X8.5753 Y2.6472
G01 X8.5753 Y7.3604
G01 X8.6565 Y7.3252
G01 X8.7368 Y7.3001
G01 X8.8276 Y7.2821
G01 X8.9257 Y7.2741
G01 X9.0123 Y7.2770
G01 X9.1039 Y7.2900
G01 X9.1935 Y7.3131
G01 X9.2800 Y7.3462
G01 X9.3622 Y7.3887
G01 X9.4391 Y7.4401
G01 X9.5141 Y7.5039
G01 X9.5733 Y7.5672
G01 X9.6289 Y7.6411
G01 X9.6759 Y7.7209
G01 X9.7137 Y7.8054
G01 X9.7435 Y7.9002
G01 X9.7597 Y7.9843
G01 X9.7677 Y8.0824
G01 X9.7648 Y8.1691
G01 X9.7518 Y8.2607
G01 X9.7287 Y8.3503
G01 X9.2640 Y9.7809
G01 X9.2286 Y9.8710
G01 X9.1853 Y9.9527
G01 X9.1330 Y10.0291
G01 X9.0784 Y10.0931
G01 X9.0111 Y10.1567
G01 X8.9371 Y10.2123
G01 X8.8574 Y10.2593
G01 X8.7729 Y10.2970
G01 X8.6780 Y10.3268
G01 X8.5939 Y10.3431
G01 X8.4933 Y10.3510
G01 X8.4008 Y10.3474
G01 X8.3176 Y10.3352
G01 X8.2280 Y10.3120
G01 X8.1339 Y10.2755
G01 X8.0527 Y10.2326
G01 X7.9824 Y10.1850
G01 X7.9074 Y10.1213
G01 X7.8428 Y10.0515
G01 X7.7926 Y9.9840
G01 X7.7456 Y9.9043
G01 X7.7049 Y9.8119
G01 X7.6777 Y9.7234
G01 X7.6606 Y9.6325
G01 X7.6538 Y9.5427
G01 X7.6567 Y9.4561
G01 X7.6696 Y9.3644
G01 X7.6928 Y9.2748
G01 X7.8150 Y8.8985
G01 X7.5903 Y8.6737
G01 X7.5530 Y8.6319
G01 X7.5153 Y8.5795
G01 X7.4836 Y8.5233
G01 X7.4585 Y8.4639
G01 X7.4387 Y8.3955
G01 X7.4290 Y8.3386
G01 X7.4247 Y8.2700
G01 X7.4247 Y2.6472
G01 X7.4052 Y2.6188
G01 X7.3713 Y2.5575
G01 X7.3408 Y2.4851
G01 X7.3170 Y2.4033
G01 X7.3050 Y2.3325
G01 X7.3042 Y2.3242
G00 Z2.0000
G00 X11.1530 Y5.6553
G01 F100.00
G01 Z-0.2000
G01 F100.00
G01 X10.9353 Y5.4376
G01 X10.9353 Y2.7471
G01 X10.9438 Y2.7316
G01 X10.9650 Y2.6876
G01 X10.9918 Y2.6229
G01 X10.9999 Y2.5993
G01 X11.0082 Y2.6229
G01 X11.0360 Y2.6900
G01 X11.0562 Y2.7316
G01 X11.0647 Y2.7471
G01 X11.0647 Y5.2600
G01 X11.0654 Y5.2844
G01 X11.0686 Y5.3404
G01 X11.0694 Y5.3404
G01 X11.0740 Y5.3889
G01 X11.0852 Y5.4538
G01 X11.0943 Y5.4917
G01 X11.1098 Y5.5456
G01 X11.1259 Y5.5917
G01 X11.1484 Y5.6458
G01 X11.1530 Y5.6553
G00 Z2.0000
G00 X10.0997 Y7.8464
G01 F100.00
G01 Z-0.2000
G01 F100.00
G01 X10.0955 Y7.8250
G01 X10.0853 Y7.7862
G01 X10.0602 Y7.7058
G01 X10.0431 Y7.6602
G01 X10.0084 Y7.5814
G01 X9.9870 Y7.5397
G01 X9.9446 Y7.4670
G01 X9.9178 Y7.4263
G01 X9.8676 Y7.3588
G01 X9.8363 Y7.3213
G01 X9.7687 Y7.2493
G01 X9.7436 Y7.2261
G01 X9.6796 Y7.1715
G01 X9.6408 Y7.1419
G01 X9.5711 Y7.0948
G01 X9.5292 Y7.0698
G01 X9.4546 Y7.0307
G01 X9.4102 Y7.0106
G01 X9.3318 Y6.9801
G01 X9.2854 Y6.9650
G01 X9.2040 Y6.9436
G01 X9.1562 Y6.9338
G01 X9.0730 Y6.9215
G01 X9.0244 Y6.9172
G01 X8.9353 Y6.9143
G01 X8.9353 Y2.7471
G01 X8.9438 Y2.7316
G01 X8.9650 Y2.6876
G01 X8.9918 Y2.6229
G01 X8.9999 Y2.5993
G01 X9.0082 Y2.6229
G01 X9.0360 Y2.6900
G01 X9.0562 Y2.7316
G01 X9.0647 Y2.7471
G01 X9.0647 Y5.8250
G01 X9.0686 Y5.9054
G01 X9.0694 Y5.9054
G01 X9.0740 Y5.9539
G01 X9.0852 Y6.0188
G01 X9.0943 Y6.0567
G01 X9.1098 Y6.1106
G01 X9.1259 Y6.1567
G01 X9.1484 Y6.2108
G01 X9.1686 Y6.2525
G01 X9.1957 Y6.3016
G01 X9.2217 Y6.3429
G01 X9.2541 Y6.3886
G01 X9.2845 Y6.4268
G01 X9.3387 Y6.4863
G01 X10.0997 Y7.2474
G01 X10.0997 Y7.8464
G00 Z2.0000
G00 X9.7850 Y9.3424
G01 F100.00
G01 Z-0.2000
G01 F100.00
G01 X10.0699 Y8.4656
G01 X10.0767 Y8.4422
G01 X10.0997 Y8.3533
G01 X10.0997 Y9.0276
G01 X9.7850 Y9.3424
G00 Z2.0000
G00 X8.7300 Y11.0882
G01 F100.00
G01 Z-0.2000
G01 F100.00
G01 X8.7250 Y11.0000
G01 X8.7298 Y10.9118
G01 X8.7449 Y10.8205
G01 X8.7700 Y10.7315
G01 X8.8050 Y10.6459
G01 X8.8532 Y10.5584
G01 X8.9025 Y10.4890
G01 X8.9637 Y10.4197
G01 X9.0390 Y10.3525
G01 X9.1076 Y10.3038
G01 X9.1883 Y10.2586
G01 X9.2815 Y10.2200
G01 X9.3689 Y10.1952
G01 X9.4559 Y10.1805
G01 X10.4597 Y9.1767
G01 X10.4597 Y7.0983
G01 X9.5932 Y6.2318
G01 X9.5530 Y6.1869
G01 X9.5108 Y6.1274
G01 X9.4802 Y6.0712
G01 X9.4585 Y6.0189
G01 X9.4384 Y5.9489
G01 X9.4290 Y5.8936
G01 X9.4249 Y5.8292
G01 X9.4247 Y2.6472
G01 X9.4052 Y2.6188
G01 X9.3678 Y2.5503
G01 X9.3408 Y2.4851
G01 X9.3186 Y2.4098
G01 X9.3050 Y2.3325
G01 X9.3001 Y2.2542
G01 X9.3050 Y2.1675
G01 X9.3167 Y2.0984
G01 X9.3380 Y2.0228
G01 X9.3676 Y1.9501
G01 X9.4052 Y1.8812
G01 X9.4554 Y1.8103
G01 X9.5081 Y1.7521
G01 X9.5669 Y1.7002
G01 X9.6312 Y1.6552
G01 X9.6997 Y1.6178
G01 X9.7649 Y1.5908
G01 X9.8402 Y1.5686
G01 X9.9175 Y1.5550
G01 X9.9958 Y1.5501
G01 X10.0825 Y1.5550
G01 X10.1516 Y1.5667
G01 X10.2272 Y1.5880
G01 X10.3075 Y1.6213
G01 X10.3751 Y1.6590
G01 X10.4331 Y1.7002
G01 X10.4979 Y1.7581
G01 X10.5446 Y1.8103
G01 X10.5904 Y1.8741
G01 X10.6322 Y1.9497
G01 X10.6620 Y2.0228
G01 X10.6830 Y2.0967
G01 X10.6950 Y2.1675
G01 X10.6999 Y2.2542
G01 X10.6950 Y2.3325
G01 X10.6814 Y2.4098
G01 X10.6620 Y2.4772
G01 X10.6324 Y2.5499
G01 X10.5948 Y2.6188
G01 X10.5753 Y2.6472
G01 X10.5753 Y5.5867
G01 X11.4418 Y6.4532
G01 X11.4820 Y6.4981
G01 X11.5197 Y6.5505
G01 X11.5548 Y6.6138
G01 X11.5792 Y6.6740
G01 X11.5963 Y6.7345
G01 X11.6060 Y6.7914
G01 X11.6103 Y6.8600
G01 X11.6103 Y9.4150
G01 X11.6060 Y9.4836
G01 X11.5948 Y9.5471
G01 X11.5792 Y9.6010
G01 X11.5550 Y9.6608
G01 X11.5242 Y9.7174
G01 X11.4873 Y9.7703
G01 X11.4418 Y9.8218
G01 X11.0866 Y10.1769
G01 X11.1465 Y10.1808
G01 X11.2377 Y10.1967
G01 X11.3264 Y10.2228
G01 X11.4117 Y10.2586
G01 X11.4916 Y10.3032
G01 X11.5610 Y10.3525
G01 X11.6303 Y10.4137
G01 X11.6923 Y10.4824
G01 X11.7462 Y10.5576
G01 X11.7914 Y10.6383
G01 X11.8300 Y10.7315
G01 X11.8548 Y10.8189
G01 X11.8702 Y10.9118
G01 X11.8750 Y11.0000
G01 X11.8692 Y11.0965
G01 X11.8551 Y11.1795
G01 X11.8300 Y11.2685
G01 X11.7950 Y11.3541
G01 X11.7468 Y11.4416
G01 X11.6923 Y11.5176
G01 X11.6303 Y11.5863
G01 X11.5676 Y11.6423
G01 X11.4924 Y11.6962
G01 X11.4045 Y11.7448
G01 X11.3185 Y11.7800
G01 X11.2311 Y11.8048
G01 X11.1465 Y11.8192
G01 X11.0500 Y11.8250
G01 X9.5500 Y11.8250
G01 X9.4618 Y11.8202
G01 X9.3705 Y11.8051
G01 X9.2736 Y11.7772
G01 X9.1883 Y11.7414
G01 X9.1084 Y11.6968
G01 X9.0390 Y11.6475
G01 X8.9697 Y11.5863
G01 X8.9025 Y11.5110
G01 X8.8493 Y11.4353
G01 X8.8052 Y11.3545
G01 X8.7728 Y11.2764
G01 X8.7467 Y11.1877
G01 X8.7308 Y11.0965
G01 X8.7300 Y11.0882
G00 Z2.0000
G00 X8.5699 Y11.4138
G01 F100.00
G01 Z-0.2000
G01 F100.00
G01 X8.5205 Y11.4099
G01 X8.4958 Y11.4090
G01 X8.4011 Y11.4120
G01 X8.3659 Y11.4151
G01 X8.2803 Y11.4277
G01 X8.2481 Y11.4344
G01 X8.1667 Y11.4559
G01 X8.1331 Y11.4668
G01 X8.0526 Y11.4981
G01 X8.0225 Y11.5119
G01 X7.9480 Y11.5509
G01 X7.9176 Y11.5691
G01 X7.8479 Y11.6162
G01 X7.8198 Y11.6376
G01 X7.7825 Y11.6695
G01 X7.7710 Y11.6217
G01 X7.7608 Y11.5879
G01 X7.7312 Y11.5063
G01 X7.7183 Y11.4763
G01 X7.6809 Y11.4009
G01 X7.6635 Y11.3702
G01 X7.6179 Y11.2994
G01 X7.5971 Y11.2709
G01 X7.5439 Y11.2057
G01 X7.5226 Y11.1821
G01 X7.4600 Y11.1208
G01 X7.4333 Y11.0975
G01 X7.3619 Y11.0419
G01 X7.3379 Y11.0257
G01 X7.2960 Y11.0000
G01 X7.3379 Y10.9743
G01 X7.3670 Y10.9542
G01 X7.4333 Y10.9025
G01 X7.4600 Y10.8792
G01 X7.5226 Y10.8179
G01 X7.5439 Y10.7943
G01 X7.5971 Y10.7291
G01 X7.6179 Y10.7006
G01 X7.6646 Y10.6281
G01 X7.6809 Y10.5991
G01 X7.7183 Y10.5237
G01 X7.7322 Y10.4912
G01 X7.7608 Y10.4121
G01 X7.7710 Y10.3783
G01 X7.7825 Y10.3305
G01 X7.8198 Y10.3624
G01 X7.8479 Y10.3838
G01 X7.9203 Y10.4327
G01 X7.9480 Y10.4491
G01 X8.0225 Y10.4881
G01 X8.0547 Y10.5027
G01 X8.1331 Y10.5332
G01 X8.1667 Y10.5441
G01 X8.2481 Y10.5656
G01 X8.2827 Y10.5726
G01 X8.3659 Y10.5849
G01 X8.4011 Y10.5880
G01 X8.4958 Y10.5910
G01 X8.5205 Y10.5901
G01 X8.5699 Y10.5862
G01 X8.5511 Y10.6317
G01 X8.5394 Y10.6651
G01 X8.5161 Y10.7459
G01 X8.5083 Y10.7803
G01 X8.4942 Y10.8633
G01 X8.4902 Y10.8984
G01 X8.4850 Y11.0000
G01 X8.4902 Y11.1016
G01 X8.4908 Y11.1016
G01 X8.4942 Y11.1367
G01 X8.5095 Y11.2266
G01 X8.5161 Y11.2541
G01 X8.5394 Y11.3349
G01 X8.5511 Y11.3683
G01 X8.5699 Y11.4138
G00 Z2.0000
G00 X8.8120 Y11.5897
G01 F100.00
G01 Z-0.2000
G01 F100.00
G01 X8.8008 Y11.5855
G01 X8.7205 Y11.5604
G01 X8.6993 Y11.5550
G01 X8.6167 Y11.5391
G01 X8.5950 Y11.5362
G01 X8.5111 Y11.5296
G01 X8.4958 Y11.5290
G01 X8.4051 Y11.5319
G01 X8.3834 Y11.5339
G01 X8.2986 Y11.5463
G01 X8.2787 Y11.5505
G01 X8.1973 Y11.5719
G01 X8.1765 Y11.5787
G01 X8.0968 Y11.6097
G01 X8.0782 Y11.6182
G01 X8.0036 Y11.6572
G01 X7.9849 Y11.6685
G01 X7.9152 Y11.7156
G01 X7.8978 Y11.7288
G01 X7.8338 Y11.7835
G01 X7.8180 Y11.7986
G01 X7.7605 Y11.8601
G01 X7.7465 Y11.8769
G01 X7.6902 Y11.9534
G01 X7.6897 Y11.8584
G01 X7.6882 Y11.8366
G01 X7.6779 Y11.7531
G01 X7.6740 Y11.7316
G01 X7.6543 Y11.6497
G01 X7.6480 Y11.6288
G01 X7.6188 Y11.5481
G01 X7.6107 Y11.5296
G01 X7.5734 Y11.4542
G01 X7.5626 Y11.4352
G01 X7.5170 Y11.3644
G01 X7.5042 Y11.3467
G01 X7.4510 Y11.2815
G01 X7.4378 Y11.2669
G01 X7.3761 Y11.2066
G01 X7.3596 Y11.1922
G01 X7.2901 Y11.1380
G01 X7.2752 Y11.1280
G01 X7.2035 Y11.0840
G01 X7.1842 Y11.0737
G01 X7.1080 Y11.0380
G01 X7.0877 Y11.0299
G01 X7.0080 Y11.0030
G01 X6.9971 Y11.0000
G01 X7.0080 Y10.9970
G01 X7.0893 Y10.9696
G01 X7.1080 Y10.9620
G01 X7.1847 Y10.9261
G01 X7.2035 Y10.9160
G01 X7.2752 Y10.8720
G01 X7.2932 Y10.8596
G01 X7.3596 Y10.8078
G01 X7.3761 Y10.7934
G01 X7.4378 Y10.7331
G01 X7.4510 Y10.7185
G01 X7.5042 Y10.6533
G01 X7.5170 Y10.6356
G01 X7.5633 Y10.5637
G01 X7.5734 Y10.5458
G01 X7.6107 Y10.4704
G01 X7.6193 Y10.4503
G01 X7.6480 Y10.3712
G01 X7.6543 Y10.3503
G01 X7.6740 Y10.2684
G01 X7.6779 Y10.2469
G01 X7.6882 Y10.1634
G01 X7.6897 Y10.1416
G01 X7.6902 Y10.0464
G01 X7.6963 Y10.0556
G01 X7.7465 Y10.1231
G01 X7.7605 Y10.1399
G01 X7.8180 Y10.2014
G01 X7.8338 Y10.2165
G01 X7.8978 Y10.2712
G01 X7.9152 Y10.2844
G01 X7.9865 Y10.3327
G01 X8.0036 Y10.3428
G01 X8.0782 Y10.3818
G01 X8.0981 Y10.3908
G01 X8.1765 Y10.4213
G01 X8.1973 Y10.4281
G01 X8.2787 Y10.4495
G01 X8.3001 Y10.4539
G01 X8.3834 Y10.4661
G01 X8.4051 Y10.4681
G01 X8.4958 Y10.4710
G01 X8.5111 Y10.4704
G01 X8.5950 Y10.4638
G01 X8.6167 Y10.4609
G01 X8.7031 Y10.4442
G01 X8.7205 Y10.4396
G01 X8.8008 Y10.4145
G01 X8.8124 Y10.4102
G01 X8.8046 Y10.4195
G01 X8.7559 Y10.4881
G01 X8.7443 Y10.5067
G01 X8.7036 Y10.5803
G01 X8.6941 Y10.6000
G01 X8.6619 Y10.6777
G01 X8.6547 Y10.6983
G01 X8.6314 Y10.7791
G01 X8.6266 Y10.8004
G01 X8.6125 Y10.8834
G01 X8.6100 Y10.9051
G01 X8.6050 Y11.0000
G01 X8.6100 Y11.0949
G01 X8.6125 Y11.1166
G01 X8.6266 Y11.1996
G01 X8.6314 Y11.2209
G01 X8.6547 Y11.3017
G01 X8.6619 Y11.3223
G01 X8.6946 Y11.4011
G01 X8.7036 Y11.4197
G01 X8.7443 Y11.4933
G01 X8.7559 Y11.5119
G01 X8.8046 Y11.5805
G01 X8.8120 Y11.5897
G00 Z2.0000
G00 X7.8466 Y11.4723
G01 F100.00
G01 Z-0.2000
G01 F100.00
G01 X7.8258 Y11.4230
G01 X7.7884 Y11.3476
G01 X7.7644 Y11.3052
G01 X7.7188 Y11.2345
G01 X7.6901 Y11.1950
G01 X7.6369 Y11.1298
G01 X7.6075 Y11.0972
G01 X7.5438 Y11.0350
G01 X7.5034 Y11.0000
G01 X7.5438 Y10.9650
G01 X7.6075 Y10.9028
G01 X7.6369 Y10.8702
G01 X7.6901 Y10.8050
G01 X7.7188 Y10.7655
G01 X7.7659 Y10.6924
G01 X7.7884 Y10.6524
G01 X7.8258 Y10.5770
G01 X7.8466 Y10.5277
G01 X7.8923 Y10.5554
G01 X7.9668 Y10.5944
G01 X8.0112 Y10.6146
G01 X8.0897 Y10.6450
G01 X8.1361 Y10.6601
G01 X8.2174 Y10.6816
G01 X8.2652 Y10.6914
G01 X8.3485 Y10.7036
G01 X8.4021 Y10.7081
G01 X8.3900 Y10.7602
G01 X8.3759 Y10.8432
G01 X8.3704 Y10.8916
G01 X8.3657 Y10.9756
G01 X8.3650 Y11.0000
G01 X8.3657 Y11.0244
G01 X8.3704 Y11.1084
G01 X8.3712 Y11.1083
G01 X8.3759 Y11.1568
G01 X8.3917 Y11.2494
G01 X8.4021 Y11.2919
G01 X8.3485 Y11.2964
G01 X8.2619 Y11.3091
G01 X8.2174 Y11.3184
G01 X8.1361 Y11.3399
G01 X8.0897 Y11.3550
G01 X8.0084 Y11.3865
G01 X7.9668 Y11.4056
G01 X7.8923 Y11.4446
G01 X7.8466 Y11.4723
G00 Z2.0000
G00 X7.6568 Y12.5439
G01 F100.00
G01 Z-0.2000
G01 F100.00
G01 X7.6538 Y12.4573
G01 X7.6618 Y12.3592
G01 X7.6798 Y12.2684
G01 X7.7078 Y12.1802
G01 X7.7456 Y12.0957
G01 X7.7918 Y12.0170
G01 X7.8482 Y11.9420
G01 X7.9074 Y11.8787
G01 X7.9824 Y11.8150
G01 X8.0593 Y11.7635
G01 X8.1410 Y11.7212
G01 X8.2280 Y11.6880
G01 X8.3170 Y11.6649
G01 X8.4092 Y11.6518
G01 X8.4958 Y11.6490
G01 X8.5939 Y11.6569
G01 X8.6765 Y11.6729
G01 X8.7650 Y11.7000
G01 X8.8574 Y11.7407
G01 X8.9361 Y11.7870
G01 X9.0046 Y11.8379
G01 X9.0744 Y11.9025
G01 X9.1381 Y11.9775
G01 X9.1853 Y12.0473
G01 X9.2286 Y12.1290
G01 X9.2640 Y12.2191
G01 X9.3421 Y12.4595
G01 X10.1523 Y13.2697
G01 X12.0667 Y13.2697
G01 X12.9997 Y12.3367
G01 X12.9997 Y7.0733
G01 X11.5903 Y5.6637
G01 X11.5530 Y5.6219
G01 X11.5153 Y5.5695
G01 X11.4802 Y5.5062
G01 X11.4585 Y5.4539
G01 X11.4402 Y5.3921
G01 X11.4280 Y5.3202
G01 X11.4247 Y5.2600
G01 X11.4247 Y2.6472
G01 X11.4052 Y2.6188
G01 X11.3678 Y2.5503
G01 X11.3380 Y2.4772
G01 X11.3170 Y2.4033
G01 X11.3040 Y2.3242
G01 X11.3000 Y2.2500
G01 X11.3050 Y2.1675
G01 X11.3186 Y2.0902
G01 X11.3408 Y2.0149
G01 X11.3713 Y1.9425
G01 X11.4090 Y1.8749
G01 X11.4554 Y1.8103
G01 X11.5081 Y1.7521
G01 X11.5669 Y1.7002
G01 X11.6312 Y1.6552
G01 X11.6997 Y1.6178
G01 X11.7728 Y1.5880
G01 X11.8467 Y1.5670
G01 X11.9258 Y1.5540
G01 X12.0000 Y1.5500
G01 X12.0742 Y1.5540
G01 X12.1516 Y1.5667
G01 X12.2272 Y1.5880
G01 X12.2999 Y1.6176
G01 X12.3751 Y1.6590
G01 X12.4397 Y1.7054
G01 X12.4979 Y1.7581
G01 X12.5446 Y1.8103
G01 X12.5904 Y1.8741
G01 X12.6322 Y1.9497
G01 X12.6620 Y2.0228
G01 X12.6830 Y2.0967
G01 X12.6960 Y2.1758
G01 X12.7000 Y2.2500
G01 X12.6960 Y2.3242
G01 X12.6814 Y2.4098
G01 X12.6620 Y2.4772
G01 X12.6324 Y2.5499
G01 X12.5948 Y2.6188
G01 X12.5753 Y2.6472
G01 X12.5753 Y5.0217
G01 X13.9847 Y6.4313
G01 X14.0220 Y6.4731
G01 X14.0597 Y6.5255
G01 X14.0948 Y6.5888
G01 X14.1192 Y6.6490
G01 X14.1363 Y6.7095
G01 X14.1460 Y6.7664
G01 X14.1503 Y6.8350
G01 X14.1503 Y12.5750
G01 X14.1470 Y12.6352
G01 X14.1366 Y12.6989
G01 X14.1192 Y12.7610
G01 X14.0950 Y12.8208
G01 X14.0597 Y12.8845
G01 X14.0220 Y12.9369
G01 X13.9818 Y12.9818
G01 X12.7118 Y14.2518
G01 X12.6669 Y14.2920
G01 X12.6145 Y14.3297
G01 X12.5583 Y14.3614
G01 X12.4989 Y14.3865
G01 X12.4289 Y14.4066
G01 X12.3652 Y14.4170
G01 X12.3050 Y14.4203
G01 X9.9140 Y14.4203
G01 X9.8455 Y14.4160
G01 X9.7820 Y14.4048
G01 X9.7201 Y14.3865
G01 X9.6683 Y14.3650
G01 X9.6360 Y14.3477
G01 X9.6297 Y14.3578
G01 X9.5787 Y14.4264
G01 X9.5141 Y14.4961
G01 X9.4391 Y14.5599
G01 X9.3622 Y14.6113
G01 X9.2805 Y14.6536
G01 X9.2015 Y14.6843
G01 X9.1122 Y14.7084
G01 X9.0207 Y14.7223
G01 X8.9198 Y14.7257
G01 X8.8276 Y14.7179
G01 X8.7449 Y14.7020
G01 X8.6565 Y14.6748
G01 X8.5716 Y14.6379
G01 X8.4914 Y14.5918
G01 X8.4168 Y14.5369
G01 X8.3471 Y14.4723
G01 X8.2834 Y14.3973
G01 X8.2319 Y14.3204
G01 X8.1896 Y14.2387
G01 X8.1575 Y14.1558
G01 X7.6940 Y12.7292
G01 X7.6697 Y12.6361
G01 X7.6574 Y12.5523
G01 X7.6568 Y12.5439
G00 Z2.0000
G00 X6.4963 Y11.0000
G01 F100.00
G01 Z-0.2000
G01 F100.00
G01 X6.4638 Y11.0091
G01 X6.3831 Y11.0383
G01 X6.3645 Y11.0463
G01 X6.2891 Y11.0837
G01 X6.2701 Y11.0945
G01 X6.1994 Y11.1401
G01 X6.1755 Y11.1570
G01 X5.5203 Y11.1570
G01 X4.6953 Y10.3320
G01 X4.6953 Y9.6458
G01 X4.7055 Y9.6647
G01 X4.7494 Y9.7365
G01 X4.7619 Y9.7544
G01 X4.8136 Y9.8208
G01 X4.8280 Y9.8373
G01 X4.8884 Y9.8990
G01 X4.9030 Y9.9122
G01 X4.9768 Y9.9721
G01 X6.1994 Y10.8599
G01 X6.2712 Y10.9062
G01 X6.2891 Y10.9163
G01 X6.3645 Y10.9537
G01 X6.3846 Y10.9622
G01 X6.4638 Y10.9909
G01 X6.4963 Y11.0000
G00 Z2.0000
G00 X6.1952 Y11.0000
G01 F100.00
G01 Z-0.2000
G01 F100.00
G01 X6.1377 Y11.0370
G01 X5.5700 Y11.0370
G01 X4.8153 Y10.2823
G01 X4.8153 Y9.9945
G01 X4.8271 Y10.0052
G01 X4.9063 Y10.0692
G01 X6.1198 Y10.9508
G01 X6.1952 Y11.0000
G00 Z2.0000
G00 X5.8691 Y10.9170
G01 F100.00
G01 Z-0.2000
G01 F100.00
G01 X5.6197 Y10.9170
G01 X4.9569 Y10.2543
G01 X5.8691 Y10.9170
G00 Z2.0000
G00 X4.7170 Y9.3322
G01 F100.00
G01 Z-0.2000
G01 F100.00
G01 X4.7079 Y9.2409
G01 X4.7088 Y9.1559
G01 X4.7198 Y9.0640
G01 X4.7409 Y8.9739
G01 X4.7753 Y8.8790
G01 X4.8165 Y8.7967
G01 X4.8673 Y8.7188
G01 X4.9256 Y8.6480
G01 X4.9864 Y8.5885
G01 X5.0591 Y8.5313
G01 X5.1377 Y8.4825
G01 X5.2214 Y8.4429
G01 X5.3089 Y8.4129
G01 X5.3992 Y8.3928
G01 X5.4247 Y8.3898
G01 X5.4247 Y2.6472
G01 X5.4052 Y2.6188
G01 X5.3678 Y2.5503
G01 X5.3380 Y2.4772
G01 X5.3170 Y2.4033
G01 X5.3040 Y2.3242
G01 X5.3000 Y2.2500
G01 X5.3040 Y2.1758
G01 X5.3167 Y2.0984
G01 X5.3380 Y2.0228
G01 X5.3676 Y1.9501
G01 X5.4096 Y1.8741
G01 X5.4554 Y1.8103
G01 X5.5081 Y1.7521
G01 X5.5603 Y1.7054
G01 X5.6241 Y1.6596
G01 X5.6925 Y1.6213
G01 X5.7649 Y1.5908
G01 X5.8484 Y1.5667
G01 X5.9258 Y1.5540
G01 X6.0000 Y1.5500
G01 X6.0742 Y1.5540
G01 X6.1516 Y1.5667
G01 X6.2351 Y1.5908
G01 X6.3075 Y1.6213
G01 X6.3751 Y1.6590
G01 X6.4397 Y1.7054
G01 X6.4979 Y1.7581
G01 X6.5446 Y1.8103
G01 X6.5948 Y1.8812
G01 X6.6322 Y1.9497
G01 X6.6592 Y2.0149
G01 X6.6830 Y2.0967
G01 X6.6960 Y2.1758
G01 X6.7000 Y2.2500
G01 X6.6960 Y2.3242
G01 X6.6814 Y2.4098
G01 X6.6620 Y2.4772
G01 X6.6324 Y2.5499
G01 X6.5948 Y2.6188
G01 X6.5753 Y2.6472
G01 X6.5753 Y8.9446
G01 X7.2345 Y9.4238
G01 X7.3053 Y9.4820
G01 X7.3647 Y9.5428
G01 X7.4268 Y9.6224
G01 X7.4747 Y9.7016
G01 X7.5133 Y9.7850
G01 X7.5404 Y9.8653
G01 X7.5605 Y9.9557
G01 X7.5703 Y10.0477
G01 X7.5697 Y10.1403
G01 X7.5588 Y10.2322
G01 X7.5376 Y10.3222
G01 X7.5065 Y10.4094
G01 X7.4659 Y10.4925
G01 X7.4161 Y10.5706
G01 X7.3523 Y10.6488
G01 X7.2858 Y10.7132
G01 X7.2125 Y10.7697
G01 X7.1335 Y10.8176
G01 X7.0572 Y10.8533
G01 X6.9615 Y10.8856
G01 X6.8710 Y10.9047
G01 X6.7788 Y10.9135
G01 X6.6863 Y10.9120
G01 X6.5945 Y10.9002
G01 X6.5127 Y10.8805
G01 X6.4255 Y10.8494
G01 X6.3355 Y10.8049
G01 X6.2609 Y10.7567
G01 X5.0474 Y9.8750
G01 X4.9788 Y9.8192
G01 X4.9083 Y9.7471
G01 X4.8517 Y9.6738
G01 X4.8039 Y9.5948
G01 X4.7652 Y9.5112
G01 X4.7381 Y9.4309
G01 X4.7181 Y9.3405
G01 X4.7170 Y9.3322
G00 Z2.0000
G00 X4.9353 Y8.1844
G01 F100.00
G01 Z-0.2000
G01 F100.00
G01 X4.9353 Y3.1796
G01 X4.9657 Y3.1454
G01 X4.9944 Y3.1047
G01 X5.0182 Y3.0610
G01 X5.0363 Y3.0165
G01 X5.0494 Y2.9703
G01 X5.0573 Y2.9230
G01 X5.0600 Y2.8750
G01 X5.0600 Y2.7385
G01 X5.0647 Y2.7471
G01 X5.0647 Y8.1187
G01 X4.9917 Y8.1529
G01 X4.9496 Y8.1756
G01 X4.9353 Y8.1844
G00 Z2.0000
G00 X7.3768 Y9.0820
G01 F100.00
G01 Z-0.2000
G01 F100.00
G01 X6.9353 Y8.7612
G01 X6.9353 Y2.7471
G01 X6.9438 Y2.7316
G01 X6.9650 Y2.6876
G01 X6.9918 Y2.6229
G01 X6.9999 Y2.5993
G01 X7.0082 Y2.6229
G01 X7.0360 Y2.6900
G01 X7.0562 Y2.7316
G01 X7.0647 Y2.7471
G01 X7.0647 Y8.2700
G01 X7.0686 Y8.3504
G01 X7.0694 Y8.3504
G01 X7.0740 Y8.3989
G01 X7.0834 Y8.4542
G01 X7.0943 Y8.5017
G01 X7.1098 Y8.5556
G01 X7.1259 Y8.6017
G01 X7.1484 Y8.6558
G01 X7.1686 Y8.6975
G01 X7.1957 Y8.7466
G01 X7.2217 Y8.7879
G01 X7.2541 Y8.8336
G01 X7.2845 Y8.8718
G01 X7.3219 Y8.9136
G01 X7.3387 Y8.9313
G01 X7.4044 Y8.9971
G01 X7.3768 Y9.0820
G00 Z2.0000
G00 X9.6314 Y12.1850
G01 F100.00
G01 Z-0.2000
G01 F100.00
G01 X11.0500 Y12.1850
G01 X11.0744 Y12.1843
G01 X11.1584 Y12.1796
G01 X11.1583 Y12.1788
G01 X11.2068 Y12.1741
G01 X11.2898 Y12.1600
G01 X11.3373 Y12.1492
G01 X11.4181 Y12.1259
G01 X11.4642 Y12.1098
G01 X11.5442 Y12.0766
G01 X11.5858 Y12.0564
G01 X11.6594 Y12.0158
G01 X11.7007 Y11.9898
G01 X11.7693 Y11.9411
G01 X11.8075 Y11.9107
G01 X11.8702 Y11.8547
G01 X11.9047 Y11.8202
G01 X11.9607 Y11.7575
G01 X11.9600 Y11.7568
G01 X11.9911 Y11.7193
G01 X12.0433 Y11.6458
G01 X12.0658 Y11.6094
G01 X12.1064 Y11.5358
G01 X12.1276 Y11.4919
G01 X12.1598 Y11.4142
G01 X12.1759 Y11.3681
G01 X12.1992 Y11.2873
G01 X12.2100 Y11.2398
G01 X12.2241 Y11.1568
G01 X12.2296 Y11.1084
G01 X12.2343 Y11.0244
G01 X12.2350 Y11.0000
G01 X12.2343 Y10.9756
G01 X12.2296 Y10.8916
G01 X12.2288 Y10.8917
G01 X12.2241 Y10.8432
G01 X12.2083 Y10.7506
G01 X12.1992 Y10.7127
G01 X12.1759 Y10.6319
G01 X12.1598 Y10.5858
G01 X12.1266 Y10.5058
G01 X12.1064 Y10.4642
G01 X12.0658 Y10.3906
G01 X12.0398 Y10.3493
G01 X11.9911 Y10.2807
G01 X11.9607 Y10.2425
G01 X11.9047 Y10.1798
G01 X11.8702 Y10.1453
G01 X11.8075 Y10.0893
G01 X11.8068 Y10.0900
G01 X11.7693 Y10.0589
G01 X11.7348 Y10.0343
G01 X11.7505 Y10.0168
G01 X11.7497 Y10.0161
G01 X11.7809 Y9.9786
G01 X11.8168 Y9.9279
G01 X11.8393 Y9.8916
G01 X11.8664 Y9.8425
G01 X11.8876 Y9.7985
G01 X11.9091 Y9.7467
G01 X11.9252 Y9.7006
G01 X11.9407 Y9.6467
G01 X11.9516 Y9.5992
G01 X11.9610 Y9.5439
G01 X11.9664 Y9.4954
G01 X11.9696 Y9.4394
G01 X11.9703 Y9.4150
G01 X11.9703 Y6.8600
G01 X11.9696 Y6.8356
G01 X11.9664 Y6.7796
G01 X11.9656 Y6.7796
G01 X11.9610 Y6.7311
G01 X11.9498 Y6.6662
G01 X11.9407 Y6.6283
G01 X11.9252 Y6.5744
G01 X11.9091 Y6.5283
G01 X11.8866 Y6.4742
G01 X11.8820 Y6.4647
G01 X12.6397 Y7.2224
G01 X12.6397 Y12.1876
G01 X11.9176 Y12.9097
G01 X10.3014 Y12.9097
G01 X9.6577 Y12.2661
G01 X9.6314 Y12.1850
G00 Z2.0000
G00 X6.9315 Y16.6162
G01 F100.00
G01 Z-0.2000
G01 F100.00
G01 X6.9250 Y16.5000
G01 X6.9314 Y16.3838
G01 X6.9511 Y16.2649
G01 X6.9840 Y16.1490
G01 X7.0297 Y16.0374
G01 X7.0876 Y15.9317
G01 X7.1622 Y15.8265
G01 X7.2429 Y15.7370
G01 X7.3331 Y15.6570
G01 X7.4246 Y15.5921
G01 X7.5298 Y15.5334
G01 X7.6410 Y15.4868
G01 X7.7567 Y15.4530
G01 X7.8838 Y15.4314
G01 X8.0000 Y15.4250
G01 X8.1162 Y15.4314
G01 X8.2351 Y15.4511
G01 X8.3510 Y15.4840
G01 X8.4626 Y15.5297
G01 X8.5683 Y15.5876
G01 X8.6735 Y15.6622
G01 X8.7630 Y15.7429
G01 X8.8430 Y15.8331
G01 X8.9079 Y15.9246
G01 X8.9666 Y16.0298
G01 X9.0132 Y16.1410
G01 X9.0470 Y16.2567
G01 X9.0686 Y16.3838
G01 X9.0750 Y16.5000
G01 X9.0686 Y16.6162
G01 X9.0489 Y16.7351
G01 X9.0160 Y16.8510
G01 X8.9703 Y16.9626
G01 X8.9124 Y17.0683
G01 X8.8378 Y17.1735
G01 X8.7571 Y17.2630
G01 X8.6669 Y17.3430
G01 X8.5754 Y17.4079
G01 X8.4702 Y17.4666
G01 X8.3590 Y17.5132
G01 X8.2433 Y17.5470
G01 X8.1162 Y17.5686
G01 X8.0000 Y17.5750
G01 X7.8838 Y17.5686
G01 X7.7649 Y17.5489
G01 X7.6490 Y17.5160
G01 X7.5374 Y17.4703
G01 X7.4317 Y17.4124
G01 X7.3265 Y17.3378
G01 X7.2370 Y17.2571
G01 X7.1570 Y17.1669
G01 X7.0921 Y17.0754
G01 X7.0334 Y16.9702
G01 X6.9868 Y16.8590
G01 X6.9530 Y16.7433
G01 X6.9323 Y16.6245
G01 X6.9315 Y16.6162
G00 Z2.0000
G00 X6.8120 Y16.6229
G01 F100.00
G01 Z-0.2000
G01 F100.00
G01 X6.8050 Y16.5000
G01 X6.8116 Y16.3771
G01 X6.8140 Y16.3554
G01 X6.8328 Y16.2448
G01 X6.8377 Y16.2235
G01 X6.8687 Y16.1157
G01 X6.8760 Y16.0951
G01 X6.9189 Y15.9915
G01 X6.9284 Y15.9718
G01 X6.9826 Y15.8736
G01 X6.9927 Y15.8574
G01 X7.0591 Y15.7637
G01 X7.0728 Y15.7466
G01 X7.1475 Y15.6630
G01 X7.1630 Y15.6475
G01 X7.2466 Y15.5728
G01 X7.2637 Y15.5591
G01 X7.3551 Y15.4942
G01 X7.3736 Y15.4826
G01 X7.4718 Y15.4284
G01 X7.4904 Y15.4193
G01 X7.5951 Y15.3760
G01 X7.6157 Y15.3687
G01 X7.7235 Y15.3377
G01 X7.7448 Y15.3328
G01 X7.8554 Y15.3140
G01 X7.8771 Y15.3116
G01 X8.0000 Y15.3050
G01 X8.1229 Y15.3116
G01 X8.1446 Y15.3140
G01 X8.2552 Y15.3328
G01 X8.2765 Y15.3377
G01 X8.3843 Y15.3687
G01 X8.4049 Y15.3760
G01 X8.5085 Y15.4189
G01 X8.5282 Y15.4284
G01 X8.6264 Y15.4826
G01 X8.6426 Y15.4927
G01 X8.7363 Y15.5591
G01 X8.7534 Y15.5728
G01 X8.8370 Y15.6475
G01 X8.8525 Y15.6630
G01 X8.9272 Y15.7466
G01 X8.9409 Y15.7637
G01 X9.0058 Y15.8551
G01 X9.0174 Y15.8736
G01 X9.0716 Y15.9718
G01 X9.0807 Y15.9904
G01 X9.1240 Y16.0951
G01 X9.1313 Y16.1157
G01 X9.1623 Y16.2235
G01 X9.1672 Y16.2448
G01 X9.1860 Y16.3554
G01 X9.1884 Y16.3771
G01 X9.1950 Y16.5000
G01 X9.1884 Y16.6229
G01 X9.1860 Y16.6446
G01 X9.1672 Y16.7552
G01 X9.1623 Y16.7765
G01 X9.1313 Y16.8843
G01 X9.1240 Y16.9049
G01 X9.0811 Y17.0085
G01 X9.0716 Y17.0282
G01 X9.0174 Y17.1264
G01 X9.0073 Y17.1426
G01 X8.9409 Y17.2363
G01 X8.9272 Y17.2534
G01 X8.8525 Y17.3370
G01 X8.8370 Y17.3525
G01 X8.7534 Y17.4272
G01 X8.7363 Y17.4409
G01 X8.6449 Y17.5058
G01 X8.6264 Y17.5174
G01 X8.5282 Y17.5716
G01 X8.5096 Y17.5807
G01 X8.4049 Y17.6240
G01 X8.3843 Y17.6313
G01 X8.2765 Y17.6623
G01 X8.2552 Y17.6672
G01 X8.1446 Y17.6860
G01 X8.1229 Y17.6884
G01 X8.0000 Y17.6950
G01 X7.8771 Y17.6884
G01 X7.8554 Y17.6860
G01 X7.7448 Y17.6672
G01 X7.7235 Y17.6623
G01 X7.6157 Y17.6313
G01 X7.5951 Y17.6240
G01 X7.4915 Y17.5811
G01 X7.4718 Y17.5716
G01 X7.3736 Y17.5174
G01 X7.3574 Y17.5073
G01 X7.2637 Y17.4409
G01 X7.2466 Y17.4272
G01 X7.1630 Y17.3525
G01 X7.1475 Y17.3370
G01 X7.0728 Y17.2534
G01 X7.0591 Y17.2363
G01 X6.9942 Y17.1449
G01 X6.9826 Y17.1264
G01 X6.9284 Y17.0282
G01 X6.9193 Y17.0096
G01 X6.8760 Y16.9049
G01 X6.8687 Y16.8843
G01 X6.8377 Y16.7765
G01 X6.8328 Y16.7552
G01 X6.8140 Y16.6446
G01 X6.8120 Y16.6229
G00 Z2.0000
G00 X6.6924 Y16.6296
G01 F100.00
G01 Z-0.2000
G01 F100.00
G01 X6.6918 Y16.6296
G01 X6.6850 Y16.5000
G01 X6.6918 Y16.3704
G01 X6.6957 Y16.3353
G01 X6.7145 Y16.2247
G01 X6.7224 Y16.1903
G01 X6.7534 Y16.0825
G01 X6.7651 Y16.0492
G01 X6.8080 Y15.9456
G01 X6.8233 Y15.9137
G01 X6.8776 Y15.8156
G01 X6.8939 Y15.7893
G01 X6.9613 Y15.6942
G01 X6.9838 Y15.6671
G01 X6.9833 Y15.6666
G01 X7.0580 Y15.5830
G01 X7.0830 Y15.5580
G01 X7.1666 Y15.4833
G01 X7.1942 Y15.4613
G01 X7.2857 Y15.3964
G01 X7.3156 Y15.3776
G01 X7.4137 Y15.3233
G01 X7.4439 Y15.3087
G01 X7.5492 Y15.2651
G01 X7.5825 Y15.2534
G01 X7.6903 Y15.2224
G01 X7.7177 Y15.2158
G01 X7.8353 Y15.1957
G01 X7.8704 Y15.1924
G01 X7.8704 Y15.1918
G01 X8.0000 Y15.1850
G01 X8.1296 Y15.1918
G01 X8.1647 Y15.1957
G01 X8.2753 Y15.2145
G01 X8.3097 Y15.2224
G01 X8.4175 Y15.2534
G01 X8.4508 Y15.2651
G01 X8.5544 Y15.3080
G01 X8.5863 Y15.3233
G01 X8.6844 Y15.3776
G01 X8.7107 Y15.3939
G01 X8.8058 Y15.4613
G01 X8.8329 Y15.4838
G01 X8.8334 Y15.4833
G01 X8.9170 Y15.5580
G01 X8.9420 Y15.5830
G01 X9.0167 Y15.6666
G01 X9.0387 Y15.6942
G01 X9.1036 Y15.7857
G01 X9.1224 Y15.8156
G01 X9.1767 Y15.9137
G01 X9.1913 Y15.9439
G01 X9.2349 Y16.0492
G01 X9.2466 Y16.0825
G01 X9.2776 Y16.1903
G01 X9.2842 Y16.2177
G01 X9.3043 Y16.3353
G01 X9.3076 Y16.3704
G01 X9.3082 Y16.3704
G01 X9.3150 Y16.5000
G01 X9.3082 Y16.6296
G01 X9.3043 Y16.6647
G01 X9.2855 Y16.7753
G01 X9.2776 Y16.8097
G01 X9.2466 Y16.9175
G01 X9.2349 Y16.9508
G01 X9.1920 Y17.0544
G01 X9.1767 Y17.0863
G01 X9.1224 Y17.1844
G01 X9.1061 Y17.2107
G01 X9.0387 Y17.3058
G01 X9.0162 Y17.3329
G01 X9.0167 Y17.3334
G01 X8.9420 Y17.4170
G01 X8.9170 Y17.4420
G01 X8.8334 Y17.5167
G01 X8.8058 Y17.5387
G01 X8.7143 Y17.6036
G01 X8.6844 Y17.6224
G01 X8.5863 Y17.6767
G01 X8.5561 Y17.6913
G01 X8.4508 Y17.7349
G01 X8.4175 Y17.7466
G01 X8.3097 Y17.7776
G01 X8.2823 Y17.7842
G01 X8.1647 Y17.8043
G01 X8.1296 Y17.8076
G01 X8.1296 Y17.8082
G01 X8.0000 Y17.8150
G01 X7.8704 Y17.8082
G01 X7.8353 Y17.8043
G01 X7.7247 Y17.7855
G01 X7.6903 Y17.7776
G01 X7.5825 Y17.7466
G01 X7.5492 Y17.7349
G01 X7.4456 Y17.6920
G01 X7.4137 Y17.6767
G01 X7.3156 Y17.6224
G01 X7.2893 Y17.6061
G01 X7.1942 Y17.5387
G01 X7.1671 Y17.5162
G01 X7.1666 Y17.5167
G01 X7.0830 Y17.4420
G01 X7.0580 Y17.4170
G01 X6.9833 Y17.3334
G01 X6.9613 Y17.3058
G01 X6.8964 Y17.2143
G01 X6.8776 Y17.1844
G01 X6.8233 Y17.0863
G01 X6.8087 Y17.0561
G01 X6.7651 Y16.9508
G01 X6.7534 Y16.9175
G01 X6.7224 Y16.8097
G01 X6.7158 Y16.7823
G01 X6.6957 Y16.6647
G01 X6.6924 Y16.6296
G00 Z2.0000
G00 X6.5728 Y16.6363
G01 F100.00
G01 Z-0.2000
G01 F100.00
G01 X6.5720 Y16.6364
G01 X6.5657 Y16.5244
G01 X6.5650 Y16.5000
G01 X6.5657 Y16.4756
G01 X6.5720 Y16.3636
G01 X6.5774 Y16.3152
G01 X6.5962 Y16.2046
G01 X6.6071 Y16.1571
G01 X6.6381 Y16.0493
G01 X6.6542 Y16.0033
G01 X6.6971 Y15.8996
G01 X6.7183 Y15.8557
G01 X6.7726 Y15.7576
G01 X6.7985 Y15.7162
G01 X6.8634 Y15.6248
G01 X6.8946 Y15.5873
G01 X6.8938 Y15.5866
G01 X6.9685 Y15.5030
G01 X7.0030 Y15.4685
G01 X7.0866 Y15.3938
G01 X7.1248 Y15.3634
G01 X7.2162 Y15.2985
G01 X7.2576 Y15.2726
G01 X7.3557 Y15.2183
G01 X7.3973 Y15.1981
G01 X7.5033 Y15.1542
G01 X7.5493 Y15.1381
G01 X7.6571 Y15.1071
G01 X7.6950 Y15.0980
G01 X7.8152 Y15.0774
G01 X7.8637 Y15.0728
G01 X7.8636 Y15.0720
G01 X7.9756 Y15.0657
G01 X8.0000 Y15.0650
G01 X8.0244 Y15.0657
G01 X8.1364 Y15.0720
G01 X8.1848 Y15.0774
G01 X8.2954 Y15.0962
G01 X8.3429 Y15.1071
G01 X8.4507 Y15.1381
G01 X8.4967 Y15.1542
G01 X8.6004 Y15.1971
G01 X8.6443 Y15.2183
G01 X8.7424 Y15.2726
G01 X8.7838 Y15.2985
G01 X8.8752 Y15.3634
G01 X8.9127 Y15.3946
G01 X8.9134 Y15.3938
G01 X8.9970 Y15.4685
G01 X9.0315 Y15.5030
G01 X9.1062 Y15.5866
G01 X9.1366 Y15.6248
G01 X9.2015 Y15.7162
G01 X9.2274 Y15.7576
G01 X9.2817 Y15.8557
G01 X9.3019 Y15.8973
G01 X9.3458 Y16.0033
G01 X9.3619 Y16.0493
G01 X9.3929 Y16.1571
G01 X9.4020 Y16.1950
G01 X9.4226 Y16.3152
G01 X9.4272 Y16.3637
G01 X9.4280 Y16.3636
G01 X9.4343 Y16.4756
G01 X9.4350 Y16.5000
G01 X9.4343 Y16.5244
G01 X9.4280 Y16.6364
G01 X9.4226 Y16.6848
G01 X9.4038 Y16.7954
G01 X9.3929 Y16.8429
G01 X9.3619 Y16.9507
G01 X9.3458 Y16.9967
G01 X9.3029 Y17.1004
G01 X9.2817 Y17.1443
G01 X9.2274 Y17.2424
G01 X9.2015 Y17.2838
G01 X9.1366 Y17.3752
G01 X9.1054 Y17.4127
G01 X9.1062 Y17.4134
G01 X9.0315 Y17.4970
G01 X8.9970 Y17.5315
G01 X8.9134 Y17.6062
G01 X8.8752 Y17.6366
G01 X8.7838 Y17.7015
G01 X8.7424 Y17.7274
G01 X8.6443 Y17.7817
G01 X8.6027 Y17.8019
G01 X8.4967 Y17.8458
G01 X8.4507 Y17.8619
G01 X8.3429 Y17.8929
G01 X8.3050 Y17.9020
G01 X8.1848 Y17.9226
G01 X8.1363 Y17.9272
G01 X8.1364 Y17.9280
G01 X8.0244 Y17.9343
G01 X8.0000 Y17.9350
G01 X7.9756 Y17.9343
G01 X7.8636 Y17.9280
G01 X7.8152 Y17.9226
G01 X7.7046 Y17.9038
G01 X7.6571 Y17.8929
G01 X7.5493 Y17.8619
G01 X7.5033 Y17.8458
G01 X7.3996 Y17.8029
G01 X7.3557 Y17.7817
G01 X7.2576 Y17.7274
G01 X7.2162 Y17.7015
G01 X7.1248 Y17.6366
G01 X7.0873 Y17.6054
G01 X7.0866 Y17.6062
G01 X7.0030 Y17.5315
G01 X6.9685 Y17.4970
G01 X6.8938 Y17.4134
G01 X6.8634 Y17.3752
G01 X6.7985 Y17.2838
G01 X6.7726 Y17.2424
G01 X6.7183 Y17.1443
G01 X6.6981 Y17.1027
G01 X6.6542 Y16.9967
G01 X6.6381 Y16.9507
G01 X6.6071 Y16.8429
G01 X6.5980 Y16.8050
G01 X6.5774 Y16.6848
G01 X6.5728 Y16.6363
G00 Z2.0000
M05
G00 Z2.0000
G00 Z20.00
G00 X0.0 Y0.0

