(G-CODE GENERATED BY FLATCAM v8.912 - www.flatcam.org - Version Date: 2019/03/17)

(Name: 5pin-PTH.drl_mill_cnc)
(Type: G-code from Geometry)
(Units: MM)

(Created on Thursday, 02 May 2019 at 20:27)

(TOOL DIAMETER: 0.1 mm)
(Feedrate: 100.0 mm/min)
(Feedrate_Z: 100.0 mm/min)
(Feedrate rapids 200.0 mm/min)

(Z_Cut: -2.0 mm)
(DepthPerCut: 0.2 mm <=>10 passes)
(Z_Move: 2.0 mm)
(Z Toolchange: 25.0 mm)
(X,Y Toolchange: 0.0000, 0.0000 mm)
(Z Start: None mm)
(Z End: 20.0 mm)
(Steps per circle: 64)
(Postprocessor Geometry: default)

(X range:    6.6770 ...    9.6000  mm)
(Y range:    9.4710 ...   16.6500  mm)

(Spindle Speed: 5000 RPM)

G21
G90
G94

G01 F100.00
G00 Z2.0000

M03 S5000
G00 X6.9770 Y10.1480
G01 F100.00
G01 Z-0.2000
G01 F100.00
G01 X6.9763 Y10.1333
G01 X6.9741 Y10.1187
G01 X6.9705 Y10.1045
G01 X6.9656 Y10.0906
G01 X6.9593 Y10.0773
G01 X6.9517 Y10.0647
G01 X6.9430 Y10.0528
G01 X6.9331 Y10.0419
G01 X6.9222 Y10.0320
G01 X6.9103 Y10.0233
G01 X6.8977 Y10.0157
G01 X6.8844 Y10.0094
G01 X6.8705 Y10.0045
G01 X6.8563 Y10.0009
G01 X6.8417 Y9.9987
G01 X6.8270 Y9.9980
G01 X6.8123 Y9.9987
G01 X6.7977 Y10.0009
G01 X6.7835 Y10.0045
G01 X6.7696 Y10.0094
G01 X6.7563 Y10.0157
G01 X6.7437 Y10.0233
G01 X6.7318 Y10.0320
G01 X6.7209 Y10.0419
G01 X6.7110 Y10.0528
G01 X6.7023 Y10.0647
G01 X6.6947 Y10.0773
G01 X6.6884 Y10.0906
G01 X6.6835 Y10.1045
G01 X6.6799 Y10.1187
G01 X6.6777 Y10.1333
G01 X6.6770 Y10.1480
G01 X6.6777 Y10.1627
G01 X6.6799 Y10.1773
G01 X6.6835 Y10.1915
G01 X6.6884 Y10.2054
G01 X6.6947 Y10.2187
G01 X6.7023 Y10.2313
G01 X6.7110 Y10.2432
G01 X6.7209 Y10.2541
G01 X6.7318 Y10.2640
G01 X6.7437 Y10.2727
G01 X6.7563 Y10.2803
G01 X6.7696 Y10.2866
G01 X6.7835 Y10.2915
G01 X6.7977 Y10.2951
G01 X6.8123 Y10.2973
G01 X6.8270 Y10.2980
G01 X6.8417 Y10.2973
G01 X6.8563 Y10.2951
G01 X6.8705 Y10.2915
G01 X6.8844 Y10.2866
G01 X6.8977 Y10.2803
G01 X6.9103 Y10.2727
G01 X6.9222 Y10.2640
G01 X6.9331 Y10.2541
G01 X6.9430 Y10.2432
G01 X6.9517 Y10.2313
G01 X6.9593 Y10.2187
G01 X6.9656 Y10.2054
G01 X6.9705 Y10.1915
G01 X6.9741 Y10.1773
G01 X6.9763 Y10.1627
G01 X6.9770 Y10.1480
G00 X6.9770 Y10.1480
G01 F100.00
G01 Z-0.4000
G01 F100.00
G01 X6.9763 Y10.1333
G01 X6.9741 Y10.1187
G01 X6.9705 Y10.1045
G01 X6.9656 Y10.0906
G01 X6.9593 Y10.0773
G01 X6.9517 Y10.0647
G01 X6.9430 Y10.0528
G01 X6.9331 Y10.0419
G01 X6.9222 Y10.0320
G01 X6.9103 Y10.0233
G01 X6.8977 Y10.0157
G01 X6.8844 Y10.0094
G01 X6.8705 Y10.0045
G01 X6.8563 Y10.0009
G01 X6.8417 Y9.9987
G01 X6.8270 Y9.9980
G01 X6.8123 Y9.9987
G01 X6.7977 Y10.0009
G01 X6.7835 Y10.0045
G01 X6.7696 Y10.0094
G01 X6.7563 Y10.0157
G01 X6.7437 Y10.0233
G01 X6.7318 Y10.0320
G01 X6.7209 Y10.0419
G01 X6.7110 Y10.0528
G01 X6.7023 Y10.0647
G01 X6.6947 Y10.0773
G01 X6.6884 Y10.0906
G01 X6.6835 Y10.1045
G01 X6.6799 Y10.1187
G01 X6.6777 Y10.1333
G01 X6.6770 Y10.1480
G01 X6.6777 Y10.1627
G01 X6.6799 Y10.1773
G01 X6.6835 Y10.1915
G01 X6.6884 Y10.2054
G01 X6.6947 Y10.2187
G01 X6.7023 Y10.2313
G01 X6.7110 Y10.2432
G01 X6.7209 Y10.2541
G01 X6.7318 Y10.2640
G01 X6.7437 Y10.2727
G01 X6.7563 Y10.2803
G01 X6.7696 Y10.2866
G01 X6.7835 Y10.2915
G01 X6.7977 Y10.2951
G01 X6.8123 Y10.2973
G01 X6.8270 Y10.2980
G01 X6.8417 Y10.2973
G01 X6.8563 Y10.2951
G01 X6.8705 Y10.2915
G01 X6.8844 Y10.2866
G01 X6.8977 Y10.2803
G01 X6.9103 Y10.2727
G01 X6.9222 Y10.2640
G01 X6.9331 Y10.2541
G01 X6.9430 Y10.2432
G01 X6.9517 Y10.2313
G01 X6.9593 Y10.2187
G01 X6.9656 Y10.2054
G01 X6.9705 Y10.1915
G01 X6.9741 Y10.1773
G01 X6.9763 Y10.1627
G01 X6.9770 Y10.1480
G00 X6.9770 Y10.1480
G01 F100.00
G01 Z-0.6000
G01 F100.00
G01 X6.9763 Y10.1333
G01 X6.9741 Y10.1187
G01 X6.9705 Y10.1045
G01 X6.9656 Y10.0906
G01 X6.9593 Y10.0773
G01 X6.9517 Y10.0647
G01 X6.9430 Y10.0528
G01 X6.9331 Y10.0419
G01 X6.9222 Y10.0320
G01 X6.9103 Y10.0233
G01 X6.8977 Y10.0157
G01 X6.8844 Y10.0094
G01 X6.8705 Y10.0045
G01 X6.8563 Y10.0009
G01 X6.8417 Y9.9987
G01 X6.8270 Y9.9980
G01 X6.8123 Y9.9987
G01 X6.7977 Y10.0009
G01 X6.7835 Y10.0045
G01 X6.7696 Y10.0094
G01 X6.7563 Y10.0157
G01 X6.7437 Y10.0233
G01 X6.7318 Y10.0320
G01 X6.7209 Y10.0419
G01 X6.7110 Y10.0528
G01 X6.7023 Y10.0647
G01 X6.6947 Y10.0773
G01 X6.6884 Y10.0906
G01 X6.6835 Y10.1045
G01 X6.6799 Y10.1187
G01 X6.6777 Y10.1333
G01 X6.6770 Y10.1480
G01 X6.6777 Y10.1627
G01 X6.6799 Y10.1773
G01 X6.6835 Y10.1915
G01 X6.6884 Y10.2054
G01 X6.6947 Y10.2187
G01 X6.7023 Y10.2313
G01 X6.7110 Y10.2432
G01 X6.7209 Y10.2541
G01 X6.7318 Y10.2640
G01 X6.7437 Y10.2727
G01 X6.7563 Y10.2803
G01 X6.7696 Y10.2866
G01 X6.7835 Y10.2915
G01 X6.7977 Y10.2951
G01 X6.8123 Y10.2973
G01 X6.8270 Y10.2980
G01 X6.8417 Y10.2973
G01 X6.8563 Y10.2951
G01 X6.8705 Y10.2915
G01 X6.8844 Y10.2866
G01 X6.8977 Y10.2803
G01 X6.9103 Y10.2727
G01 X6.9222 Y10.2640
G01 X6.9331 Y10.2541
G01 X6.9430 Y10.2432
G01 X6.9517 Y10.2313
G01 X6.9593 Y10.2187
G01 X6.9656 Y10.2054
G01 X6.9705 Y10.1915
G01 X6.9741 Y10.1773
G01 X6.9763 Y10.1627
G01 X6.9770 Y10.1480
G00 X6.9770 Y10.1480
G01 F100.00
G01 Z-0.8000
G01 F100.00
G01 X6.9763 Y10.1333
G01 X6.9741 Y10.1187
G01 X6.9705 Y10.1045
G01 X6.9656 Y10.0906
G01 X6.9593 Y10.0773
G01 X6.9517 Y10.0647
G01 X6.9430 Y10.0528
G01 X6.9331 Y10.0419
G01 X6.9222 Y10.0320
G01 X6.9103 Y10.0233
G01 X6.8977 Y10.0157
G01 X6.8844 Y10.0094
G01 X6.8705 Y10.0045
G01 X6.8563 Y10.0009
G01 X6.8417 Y9.9987
G01 X6.8270 Y9.9980
G01 X6.8123 Y9.9987
G01 X6.7977 Y10.0009
G01 X6.7835 Y10.0045
G01 X6.7696 Y10.0094
G01 X6.7563 Y10.0157
G01 X6.7437 Y10.0233
G01 X6.7318 Y10.0320
G01 X6.7209 Y10.0419
G01 X6.7110 Y10.0528
G01 X6.7023 Y10.0647
G01 X6.6947 Y10.0773
G01 X6.6884 Y10.0906
G01 X6.6835 Y10.1045
G01 X6.6799 Y10.1187
G01 X6.6777 Y10.1333
G01 X6.6770 Y10.1480
G01 X6.6777 Y10.1627
G01 X6.6799 Y10.1773
G01 X6.6835 Y10.1915
G01 X6.6884 Y10.2054
G01 X6.6947 Y10.2187
G01 X6.7023 Y10.2313
G01 X6.7110 Y10.2432
G01 X6.7209 Y10.2541
G01 X6.7318 Y10.2640
G01 X6.7437 Y10.2727
G01 X6.7563 Y10.2803
G01 X6.7696 Y10.2866
G01 X6.7835 Y10.2915
G01 X6.7977 Y10.2951
G01 X6.8123 Y10.2973
G01 X6.8270 Y10.2980
G01 X6.8417 Y10.2973
G01 X6.8563 Y10.2951
G01 X6.8705 Y10.2915
G01 X6.8844 Y10.2866
G01 X6.8977 Y10.2803
G01 X6.9103 Y10.2727
G01 X6.9222 Y10.2640
G01 X6.9331 Y10.2541
G01 X6.9430 Y10.2432
G01 X6.9517 Y10.2313
G01 X6.9593 Y10.2187
G01 X6.9656 Y10.2054
G01 X6.9705 Y10.1915
G01 X6.9741 Y10.1773
G01 X6.9763 Y10.1627
G01 X6.9770 Y10.1480
G00 X6.9770 Y10.1480
G01 F100.00
G01 Z-1.0000
G01 F100.00
G01 X6.9763 Y10.1333
G01 X6.9741 Y10.1187
G01 X6.9705 Y10.1045
G01 X6.9656 Y10.0906
G01 X6.9593 Y10.0773
G01 X6.9517 Y10.0647
G01 X6.9430 Y10.0528
G01 X6.9331 Y10.0419
G01 X6.9222 Y10.0320
G01 X6.9103 Y10.0233
G01 X6.8977 Y10.0157
G01 X6.8844 Y10.0094
G01 X6.8705 Y10.0045
G01 X6.8563 Y10.0009
G01 X6.8417 Y9.9987
G01 X6.8270 Y9.9980
G01 X6.8123 Y9.9987
G01 X6.7977 Y10.0009
G01 X6.7835 Y10.0045
G01 X6.7696 Y10.0094
G01 X6.7563 Y10.0157
G01 X6.7437 Y10.0233
G01 X6.7318 Y10.0320
G01 X6.7209 Y10.0419
G01 X6.7110 Y10.0528
G01 X6.7023 Y10.0647
G01 X6.6947 Y10.0773
G01 X6.6884 Y10.0906
G01 X6.6835 Y10.1045
G01 X6.6799 Y10.1187
G01 X6.6777 Y10.1333
G01 X6.6770 Y10.1480
G01 X6.6777 Y10.1627
G01 X6.6799 Y10.1773
G01 X6.6835 Y10.1915
G01 X6.6884 Y10.2054
G01 X6.6947 Y10.2187
G01 X6.7023 Y10.2313
G01 X6.7110 Y10.2432
G01 X6.7209 Y10.2541
G01 X6.7318 Y10.2640
G01 X6.7437 Y10.2727
G01 X6.7563 Y10.2803
G01 X6.7696 Y10.2866
G01 X6.7835 Y10.2915
G01 X6.7977 Y10.2951
G01 X6.8123 Y10.2973
G01 X6.8270 Y10.2980
G01 X6.8417 Y10.2973
G01 X6.8563 Y10.2951
G01 X6.8705 Y10.2915
G01 X6.8844 Y10.2866
G01 X6.8977 Y10.2803
G01 X6.9103 Y10.2727
G01 X6.9222 Y10.2640
G01 X6.9331 Y10.2541
G01 X6.9430 Y10.2432
G01 X6.9517 Y10.2313
G01 X6.9593 Y10.2187
G01 X6.9656 Y10.2054
G01 X6.9705 Y10.1915
G01 X6.9741 Y10.1773
G01 X6.9763 Y10.1627
G01 X6.9770 Y10.1480
G00 X6.9770 Y10.1480
G01 F100.00
G01 Z-1.2000
G01 F100.00
G01 X6.9763 Y10.1333
G01 X6.9741 Y10.1187
G01 X6.9705 Y10.1045
G01 X6.9656 Y10.0906
G01 X6.9593 Y10.0773
G01 X6.9517 Y10.0647
G01 X6.9430 Y10.0528
G01 X6.9331 Y10.0419
G01 X6.9222 Y10.0320
G01 X6.9103 Y10.0233
G01 X6.8977 Y10.0157
G01 X6.8844 Y10.0094
G01 X6.8705 Y10.0045
G01 X6.8563 Y10.0009
G01 X6.8417 Y9.9987
G01 X6.8270 Y9.9980
G01 X6.8123 Y9.9987
G01 X6.7977 Y10.0009
G01 X6.7835 Y10.0045
G01 X6.7696 Y10.0094
G01 X6.7563 Y10.0157
G01 X6.7437 Y10.0233
G01 X6.7318 Y10.0320
G01 X6.7209 Y10.0419
G01 X6.7110 Y10.0528
G01 X6.7023 Y10.0647
G01 X6.6947 Y10.0773
G01 X6.6884 Y10.0906
G01 X6.6835 Y10.1045
G01 X6.6799 Y10.1187
G01 X6.6777 Y10.1333
G01 X6.6770 Y10.1480
G01 X6.6777 Y10.1627
G01 X6.6799 Y10.1773
G01 X6.6835 Y10.1915
G01 X6.6884 Y10.2054
G01 X6.6947 Y10.2187
G01 X6.7023 Y10.2313
G01 X6.7110 Y10.2432
G01 X6.7209 Y10.2541
G01 X6.7318 Y10.2640
G01 X6.7437 Y10.2727
G01 X6.7563 Y10.2803
G01 X6.7696 Y10.2866
G01 X6.7835 Y10.2915
G01 X6.7977 Y10.2951
G01 X6.8123 Y10.2973
G01 X6.8270 Y10.2980
G01 X6.8417 Y10.2973
G01 X6.8563 Y10.2951
G01 X6.8705 Y10.2915
G01 X6.8844 Y10.2866
G01 X6.8977 Y10.2803
G01 X6.9103 Y10.2727
G01 X6.9222 Y10.2640
G01 X6.9331 Y10.2541
G01 X6.9430 Y10.2432
G01 X6.9517 Y10.2313
G01 X6.9593 Y10.2187
G01 X6.9656 Y10.2054
G01 X6.9705 Y10.1915
G01 X6.9741 Y10.1773
G01 X6.9763 Y10.1627
G01 X6.9770 Y10.1480
G00 X6.9770 Y10.1480
G01 F100.00
G01 Z-1.4000
G01 F100.00
G01 X6.9763 Y10.1333
G01 X6.9741 Y10.1187
G01 X6.9705 Y10.1045
G01 X6.9656 Y10.0906
G01 X6.9593 Y10.0773
G01 X6.9517 Y10.0647
G01 X6.9430 Y10.0528
G01 X6.9331 Y10.0419
G01 X6.9222 Y10.0320
G01 X6.9103 Y10.0233
G01 X6.8977 Y10.0157
G01 X6.8844 Y10.0094
G01 X6.8705 Y10.0045
G01 X6.8563 Y10.0009
G01 X6.8417 Y9.9987
G01 X6.8270 Y9.9980
G01 X6.8123 Y9.9987
G01 X6.7977 Y10.0009
G01 X6.7835 Y10.0045
G01 X6.7696 Y10.0094
G01 X6.7563 Y10.0157
G01 X6.7437 Y10.0233
G01 X6.7318 Y10.0320
G01 X6.7209 Y10.0419
G01 X6.7110 Y10.0528
G01 X6.7023 Y10.0647
G01 X6.6947 Y10.0773
G01 X6.6884 Y10.0906
G01 X6.6835 Y10.1045
G01 X6.6799 Y10.1187
G01 X6.6777 Y10.1333
G01 X6.6770 Y10.1480
G01 X6.6777 Y10.1627
G01 X6.6799 Y10.1773
G01 X6.6835 Y10.1915
G01 X6.6884 Y10.2054
G01 X6.6947 Y10.2187
G01 X6.7023 Y10.2313
G01 X6.7110 Y10.2432
G01 X6.7209 Y10.2541
G01 X6.7318 Y10.2640
G01 X6.7437 Y10.2727
G01 X6.7563 Y10.2803
G01 X6.7696 Y10.2866
G01 X6.7835 Y10.2915
G01 X6.7977 Y10.2951
G01 X6.8123 Y10.2973
G01 X6.8270 Y10.2980
G01 X6.8417 Y10.2973
G01 X6.8563 Y10.2951
G01 X6.8705 Y10.2915
G01 X6.8844 Y10.2866
G01 X6.8977 Y10.2803
G01 X6.9103 Y10.2727
G01 X6.9222 Y10.2640
G01 X6.9331 Y10.2541
G01 X6.9430 Y10.2432
G01 X6.9517 Y10.2313
G01 X6.9593 Y10.2187
G01 X6.9656 Y10.2054
G01 X6.9705 Y10.1915
G01 X6.9741 Y10.1773
G01 X6.9763 Y10.1627
G01 X6.9770 Y10.1480
G00 X6.9770 Y10.1480
G01 F100.00
G01 Z-1.6000
G01 F100.00
G01 X6.9763 Y10.1333
G01 X6.9741 Y10.1187
G01 X6.9705 Y10.1045
G01 X6.9656 Y10.0906
G01 X6.9593 Y10.0773
G01 X6.9517 Y10.0647
G01 X6.9430 Y10.0528
G01 X6.9331 Y10.0419
G01 X6.9222 Y10.0320
G01 X6.9103 Y10.0233
G01 X6.8977 Y10.0157
G01 X6.8844 Y10.0094
G01 X6.8705 Y10.0045
G01 X6.8563 Y10.0009
G01 X6.8417 Y9.9987
G01 X6.8270 Y9.9980
G01 X6.8123 Y9.9987
G01 X6.7977 Y10.0009
G01 X6.7835 Y10.0045
G01 X6.7696 Y10.0094
G01 X6.7563 Y10.0157
G01 X6.7437 Y10.0233
G01 X6.7318 Y10.0320
G01 X6.7209 Y10.0419
G01 X6.7110 Y10.0528
G01 X6.7023 Y10.0647
G01 X6.6947 Y10.0773
G01 X6.6884 Y10.0906
G01 X6.6835 Y10.1045
G01 X6.6799 Y10.1187
G01 X6.6777 Y10.1333
G01 X6.6770 Y10.1480
G01 X6.6777 Y10.1627
G01 X6.6799 Y10.1773
G01 X6.6835 Y10.1915
G01 X6.6884 Y10.2054
G01 X6.6947 Y10.2187
G01 X6.7023 Y10.2313
G01 X6.7110 Y10.2432
G01 X6.7209 Y10.2541
G01 X6.7318 Y10.2640
G01 X6.7437 Y10.2727
G01 X6.7563 Y10.2803
G01 X6.7696 Y10.2866
G01 X6.7835 Y10.2915
G01 X6.7977 Y10.2951
G01 X6.8123 Y10.2973
G01 X6.8270 Y10.2980
G01 X6.8417 Y10.2973
G01 X6.8563 Y10.2951
G01 X6.8705 Y10.2915
G01 X6.8844 Y10.2866
G01 X6.8977 Y10.2803
G01 X6.9103 Y10.2727
G01 X6.9222 Y10.2640
G01 X6.9331 Y10.2541
G01 X6.9430 Y10.2432
G01 X6.9517 Y10.2313
G01 X6.9593 Y10.2187
G01 X6.9656 Y10.2054
G01 X6.9705 Y10.1915
G01 X6.9741 Y10.1773
G01 X6.9763 Y10.1627
G01 X6.9770 Y10.1480
G00 X6.9770 Y10.1480
G01 F100.00
G01 Z-1.8000
G01 F100.00
G01 X6.9763 Y10.1333
G01 X6.9741 Y10.1187
G01 X6.9705 Y10.1045
G01 X6.9656 Y10.0906
G01 X6.9593 Y10.0773
G01 X6.9517 Y10.0647
G01 X6.9430 Y10.0528
G01 X6.9331 Y10.0419
G01 X6.9222 Y10.0320
G01 X6.9103 Y10.0233
G01 X6.8977 Y10.0157
G01 X6.8844 Y10.0094
G01 X6.8705 Y10.0045
G01 X6.8563 Y10.0009
G01 X6.8417 Y9.9987
G01 X6.8270 Y9.9980
G01 X6.8123 Y9.9987
G01 X6.7977 Y10.0009
G01 X6.7835 Y10.0045
G01 X6.7696 Y10.0094
G01 X6.7563 Y10.0157
G01 X6.7437 Y10.0233
G01 X6.7318 Y10.0320
G01 X6.7209 Y10.0419
G01 X6.7110 Y10.0528
G01 X6.7023 Y10.0647
G01 X6.6947 Y10.0773
G01 X6.6884 Y10.0906
G01 X6.6835 Y10.1045
G01 X6.6799 Y10.1187
G01 X6.6777 Y10.1333
G01 X6.6770 Y10.1480
G01 X6.6777 Y10.1627
G01 X6.6799 Y10.1773
G01 X6.6835 Y10.1915
G01 X6.6884 Y10.2054
G01 X6.6947 Y10.2187
G01 X6.7023 Y10.2313
G01 X6.7110 Y10.2432
G01 X6.7209 Y10.2541
G01 X6.7318 Y10.2640
G01 X6.7437 Y10.2727
G01 X6.7563 Y10.2803
G01 X6.7696 Y10.2866
G01 X6.7835 Y10.2915
G01 X6.7977 Y10.2951
G01 X6.8123 Y10.2973
G01 X6.8270 Y10.2980
G01 X6.8417 Y10.2973
G01 X6.8563 Y10.2951
G01 X6.8705 Y10.2915
G01 X6.8844 Y10.2866
G01 X6.8977 Y10.2803
G01 X6.9103 Y10.2727
G01 X6.9222 Y10.2640
G01 X6.9331 Y10.2541
G01 X6.9430 Y10.2432
G01 X6.9517 Y10.2313
G01 X6.9593 Y10.2187
G01 X6.9656 Y10.2054
G01 X6.9705 Y10.1915
G01 X6.9741 Y10.1773
G01 X6.9763 Y10.1627
G01 X6.9770 Y10.1480
G00 X6.9770 Y10.1480
G01 F100.00
G01 Z-2.0000
G01 F100.00
G01 X6.9763 Y10.1333
G01 X6.9741 Y10.1187
G01 X6.9705 Y10.1045
G01 X6.9656 Y10.0906
G01 X6.9593 Y10.0773
G01 X6.9517 Y10.0647
G01 X6.9430 Y10.0528
G01 X6.9331 Y10.0419
G01 X6.9222 Y10.0320
G01 X6.9103 Y10.0233
G01 X6.8977 Y10.0157
G01 X6.8844 Y10.0094
G01 X6.8705 Y10.0045
G01 X6.8563 Y10.0009
G01 X6.8417 Y9.9987
G01 X6.8270 Y9.9980
G01 X6.8123 Y9.9987
G01 X6.7977 Y10.0009
G01 X6.7835 Y10.0045
G01 X6.7696 Y10.0094
G01 X6.7563 Y10.0157
G01 X6.7437 Y10.0233
G01 X6.7318 Y10.0320
G01 X6.7209 Y10.0419
G01 X6.7110 Y10.0528
G01 X6.7023 Y10.0647
G01 X6.6947 Y10.0773
G01 X6.6884 Y10.0906
G01 X6.6835 Y10.1045
G01 X6.6799 Y10.1187
G01 X6.6777 Y10.1333
G01 X6.6770 Y10.1480
G01 X6.6777 Y10.1627
G01 X6.6799 Y10.1773
G01 X6.6835 Y10.1915
G01 X6.6884 Y10.2054
G01 X6.6947 Y10.2187
G01 X6.7023 Y10.2313
G01 X6.7110 Y10.2432
G01 X6.7209 Y10.2541
G01 X6.7318 Y10.2640
G01 X6.7437 Y10.2727
G01 X6.7563 Y10.2803
G01 X6.7696 Y10.2866
G01 X6.7835 Y10.2915
G01 X6.7977 Y10.2951
G01 X6.8123 Y10.2973
G01 X6.8270 Y10.2980
G01 X6.8417 Y10.2973
G01 X6.8563 Y10.2951
G01 X6.8705 Y10.2915
G01 X6.8844 Y10.2866
G01 X6.8977 Y10.2803
G01 X6.9103 Y10.2727
G01 X6.9222 Y10.2640
G01 X6.9331 Y10.2541
G01 X6.9430 Y10.2432
G01 X6.9517 Y10.2313
G01 X6.9593 Y10.2187
G01 X6.9656 Y10.2054
G01 X6.9705 Y10.1915
G01 X6.9741 Y10.1773
G01 X6.9763 Y10.1627
G01 X6.9770 Y10.1480
G00 Z2.0000
G00 X6.9770 Y11.8520
G01 F100.00
G01 Z-0.2000
G01 F100.00
G01 X6.9763 Y11.8373
G01 X6.9741 Y11.8227
G01 X6.9705 Y11.8085
G01 X6.9656 Y11.7946
G01 X6.9593 Y11.7813
G01 X6.9517 Y11.7687
G01 X6.9430 Y11.7568
G01 X6.9331 Y11.7459
G01 X6.9222 Y11.7360
G01 X6.9103 Y11.7273
G01 X6.8977 Y11.7197
G01 X6.8844 Y11.7134
G01 X6.8705 Y11.7085
G01 X6.8563 Y11.7049
G01 X6.8417 Y11.7027
G01 X6.8270 Y11.7020
G01 X6.8123 Y11.7027
G01 X6.7977 Y11.7049
G01 X6.7835 Y11.7085
G01 X6.7696 Y11.7134
G01 X6.7563 Y11.7197
G01 X6.7437 Y11.7273
G01 X6.7318 Y11.7360
G01 X6.7209 Y11.7459
G01 X6.7110 Y11.7568
G01 X6.7023 Y11.7687
G01 X6.6947 Y11.7813
G01 X6.6884 Y11.7946
G01 X6.6835 Y11.8085
G01 X6.6799 Y11.8227
G01 X6.6777 Y11.8373
G01 X6.6770 Y11.8520
G01 X6.6777 Y11.8667
G01 X6.6799 Y11.8813
G01 X6.6835 Y11.8955
G01 X6.6884 Y11.9094
G01 X6.6947 Y11.9227
G01 X6.7023 Y11.9353
G01 X6.7110 Y11.9472
G01 X6.7209 Y11.9581
G01 X6.7318 Y11.9680
G01 X6.7437 Y11.9767
G01 X6.7563 Y11.9843
G01 X6.7696 Y11.9906
G01 X6.7835 Y11.9955
G01 X6.7977 Y11.9991
G01 X6.8123 Y12.0013
G01 X6.8270 Y12.0020
G01 X6.8417 Y12.0013
G01 X6.8563 Y11.9991
G01 X6.8705 Y11.9955
G01 X6.8844 Y11.9906
G01 X6.8977 Y11.9843
G01 X6.9103 Y11.9767
G01 X6.9222 Y11.9680
G01 X6.9331 Y11.9581
G01 X6.9430 Y11.9472
G01 X6.9517 Y11.9353
G01 X6.9593 Y11.9227
G01 X6.9656 Y11.9094
G01 X6.9705 Y11.8955
G01 X6.9741 Y11.8813
G01 X6.9763 Y11.8667
G01 X6.9770 Y11.8520
G00 X6.9770 Y11.8520
G01 F100.00
G01 Z-0.4000
G01 F100.00
G01 X6.9763 Y11.8373
G01 X6.9741 Y11.8227
G01 X6.9705 Y11.8085
G01 X6.9656 Y11.7946
G01 X6.9593 Y11.7813
G01 X6.9517 Y11.7687
G01 X6.9430 Y11.7568
G01 X6.9331 Y11.7459
G01 X6.9222 Y11.7360
G01 X6.9103 Y11.7273
G01 X6.8977 Y11.7197
G01 X6.8844 Y11.7134
G01 X6.8705 Y11.7085
G01 X6.8563 Y11.7049
G01 X6.8417 Y11.7027
G01 X6.8270 Y11.7020
G01 X6.8123 Y11.7027
G01 X6.7977 Y11.7049
G01 X6.7835 Y11.7085
G01 X6.7696 Y11.7134
G01 X6.7563 Y11.7197
G01 X6.7437 Y11.7273
G01 X6.7318 Y11.7360
G01 X6.7209 Y11.7459
G01 X6.7110 Y11.7568
G01 X6.7023 Y11.7687
G01 X6.6947 Y11.7813
G01 X6.6884 Y11.7946
G01 X6.6835 Y11.8085
G01 X6.6799 Y11.8227
G01 X6.6777 Y11.8373
G01 X6.6770 Y11.8520
G01 X6.6777 Y11.8667
G01 X6.6799 Y11.8813
G01 X6.6835 Y11.8955
G01 X6.6884 Y11.9094
G01 X6.6947 Y11.9227
G01 X6.7023 Y11.9353
G01 X6.7110 Y11.9472
G01 X6.7209 Y11.9581
G01 X6.7318 Y11.9680
G01 X6.7437 Y11.9767
G01 X6.7563 Y11.9843
G01 X6.7696 Y11.9906
G01 X6.7835 Y11.9955
G01 X6.7977 Y11.9991
G01 X6.8123 Y12.0013
G01 X6.8270 Y12.0020
G01 X6.8417 Y12.0013
G01 X6.8563 Y11.9991
G01 X6.8705 Y11.9955
G01 X6.8844 Y11.9906
G01 X6.8977 Y11.9843
G01 X6.9103 Y11.9767
G01 X6.9222 Y11.9680
G01 X6.9331 Y11.9581
G01 X6.9430 Y11.9472
G01 X6.9517 Y11.9353
G01 X6.9593 Y11.9227
G01 X6.9656 Y11.9094
G01 X6.9705 Y11.8955
G01 X6.9741 Y11.8813
G01 X6.9763 Y11.8667
G01 X6.9770 Y11.8520
G00 X6.9770 Y11.8520
G01 F100.00
G01 Z-0.6000
G01 F100.00
G01 X6.9763 Y11.8373
G01 X6.9741 Y11.8227
G01 X6.9705 Y11.8085
G01 X6.9656 Y11.7946
G01 X6.9593 Y11.7813
G01 X6.9517 Y11.7687
G01 X6.9430 Y11.7568
G01 X6.9331 Y11.7459
G01 X6.9222 Y11.7360
G01 X6.9103 Y11.7273
G01 X6.8977 Y11.7197
G01 X6.8844 Y11.7134
G01 X6.8705 Y11.7085
G01 X6.8563 Y11.7049
G01 X6.8417 Y11.7027
G01 X6.8270 Y11.7020
G01 X6.8123 Y11.7027
G01 X6.7977 Y11.7049
G01 X6.7835 Y11.7085
G01 X6.7696 Y11.7134
G01 X6.7563 Y11.7197
G01 X6.7437 Y11.7273
G01 X6.7318 Y11.7360
G01 X6.7209 Y11.7459
G01 X6.7110 Y11.7568
G01 X6.7023 Y11.7687
G01 X6.6947 Y11.7813
G01 X6.6884 Y11.7946
G01 X6.6835 Y11.8085
G01 X6.6799 Y11.8227
G01 X6.6777 Y11.8373
G01 X6.6770 Y11.8520
G01 X6.6777 Y11.8667
G01 X6.6799 Y11.8813
G01 X6.6835 Y11.8955
G01 X6.6884 Y11.9094
G01 X6.6947 Y11.9227
G01 X6.7023 Y11.9353
G01 X6.7110 Y11.9472
G01 X6.7209 Y11.9581
G01 X6.7318 Y11.9680
G01 X6.7437 Y11.9767
G01 X6.7563 Y11.9843
G01 X6.7696 Y11.9906
G01 X6.7835 Y11.9955
G01 X6.7977 Y11.9991
G01 X6.8123 Y12.0013
G01 X6.8270 Y12.0020
G01 X6.8417 Y12.0013
G01 X6.8563 Y11.9991
G01 X6.8705 Y11.9955
G01 X6.8844 Y11.9906
G01 X6.8977 Y11.9843
G01 X6.9103 Y11.9767
G01 X6.9222 Y11.9680
G01 X6.9331 Y11.9581
G01 X6.9430 Y11.9472
G01 X6.9517 Y11.9353
G01 X6.9593 Y11.9227
G01 X6.9656 Y11.9094
G01 X6.9705 Y11.8955
G01 X6.9741 Y11.8813
G01 X6.9763 Y11.8667
G01 X6.9770 Y11.8520
G00 X6.9770 Y11.8520
G01 F100.00
G01 Z-0.8000
G01 F100.00
G01 X6.9763 Y11.8373
G01 X6.9741 Y11.8227
G01 X6.9705 Y11.8085
G01 X6.9656 Y11.7946
G01 X6.9593 Y11.7813
G01 X6.9517 Y11.7687
G01 X6.9430 Y11.7568
G01 X6.9331 Y11.7459
G01 X6.9222 Y11.7360
G01 X6.9103 Y11.7273
G01 X6.8977 Y11.7197
G01 X6.8844 Y11.7134
G01 X6.8705 Y11.7085
G01 X6.8563 Y11.7049
G01 X6.8417 Y11.7027
G01 X6.8270 Y11.7020
G01 X6.8123 Y11.7027
G01 X6.7977 Y11.7049
G01 X6.7835 Y11.7085
G01 X6.7696 Y11.7134
G01 X6.7563 Y11.7197
G01 X6.7437 Y11.7273
G01 X6.7318 Y11.7360
G01 X6.7209 Y11.7459
G01 X6.7110 Y11.7568
G01 X6.7023 Y11.7687
G01 X6.6947 Y11.7813
G01 X6.6884 Y11.7946
G01 X6.6835 Y11.8085
G01 X6.6799 Y11.8227
G01 X6.6777 Y11.8373
G01 X6.6770 Y11.8520
G01 X6.6777 Y11.8667
G01 X6.6799 Y11.8813
G01 X6.6835 Y11.8955
G01 X6.6884 Y11.9094
G01 X6.6947 Y11.9227
G01 X6.7023 Y11.9353
G01 X6.7110 Y11.9472
G01 X6.7209 Y11.9581
G01 X6.7318 Y11.9680
G01 X6.7437 Y11.9767
G01 X6.7563 Y11.9843
G01 X6.7696 Y11.9906
G01 X6.7835 Y11.9955
G01 X6.7977 Y11.9991
G01 X6.8123 Y12.0013
G01 X6.8270 Y12.0020
G01 X6.8417 Y12.0013
G01 X6.8563 Y11.9991
G01 X6.8705 Y11.9955
G01 X6.8844 Y11.9906
G01 X6.8977 Y11.9843
G01 X6.9103 Y11.9767
G01 X6.9222 Y11.9680
G01 X6.9331 Y11.9581
G01 X6.9430 Y11.9472
G01 X6.9517 Y11.9353
G01 X6.9593 Y11.9227
G01 X6.9656 Y11.9094
G01 X6.9705 Y11.8955
G01 X6.9741 Y11.8813
G01 X6.9763 Y11.8667
G01 X6.9770 Y11.8520
G00 X6.9770 Y11.8520
G01 F100.00
G01 Z-1.0000
G01 F100.00
G01 X6.9763 Y11.8373
G01 X6.9741 Y11.8227
G01 X6.9705 Y11.8085
G01 X6.9656 Y11.7946
G01 X6.9593 Y11.7813
G01 X6.9517 Y11.7687
G01 X6.9430 Y11.7568
G01 X6.9331 Y11.7459
G01 X6.9222 Y11.7360
G01 X6.9103 Y11.7273
G01 X6.8977 Y11.7197
G01 X6.8844 Y11.7134
G01 X6.8705 Y11.7085
G01 X6.8563 Y11.7049
G01 X6.8417 Y11.7027
G01 X6.8270 Y11.7020
G01 X6.8123 Y11.7027
G01 X6.7977 Y11.7049
G01 X6.7835 Y11.7085
G01 X6.7696 Y11.7134
G01 X6.7563 Y11.7197
G01 X6.7437 Y11.7273
G01 X6.7318 Y11.7360
G01 X6.7209 Y11.7459
G01 X6.7110 Y11.7568
G01 X6.7023 Y11.7687
G01 X6.6947 Y11.7813
G01 X6.6884 Y11.7946
G01 X6.6835 Y11.8085
G01 X6.6799 Y11.8227
G01 X6.6777 Y11.8373
G01 X6.6770 Y11.8520
G01 X6.6777 Y11.8667
G01 X6.6799 Y11.8813
G01 X6.6835 Y11.8955
G01 X6.6884 Y11.9094
G01 X6.6947 Y11.9227
G01 X6.7023 Y11.9353
G01 X6.7110 Y11.9472
G01 X6.7209 Y11.9581
G01 X6.7318 Y11.9680
G01 X6.7437 Y11.9767
G01 X6.7563 Y11.9843
G01 X6.7696 Y11.9906
G01 X6.7835 Y11.9955
G01 X6.7977 Y11.9991
G01 X6.8123 Y12.0013
G01 X6.8270 Y12.0020
G01 X6.8417 Y12.0013
G01 X6.8563 Y11.9991
G01 X6.8705 Y11.9955
G01 X6.8844 Y11.9906
G01 X6.8977 Y11.9843
G01 X6.9103 Y11.9767
G01 X6.9222 Y11.9680
G01 X6.9331 Y11.9581
G01 X6.9430 Y11.9472
G01 X6.9517 Y11.9353
G01 X6.9593 Y11.9227
G01 X6.9656 Y11.9094
G01 X6.9705 Y11.8955
G01 X6.9741 Y11.8813
G01 X6.9763 Y11.8667
G01 X6.9770 Y11.8520
G00 X6.9770 Y11.8520
G01 F100.00
G01 Z-1.2000
G01 F100.00
G01 X6.9763 Y11.8373
G01 X6.9741 Y11.8227
G01 X6.9705 Y11.8085
G01 X6.9656 Y11.7946
G01 X6.9593 Y11.7813
G01 X6.9517 Y11.7687
G01 X6.9430 Y11.7568
G01 X6.9331 Y11.7459
G01 X6.9222 Y11.7360
G01 X6.9103 Y11.7273
G01 X6.8977 Y11.7197
G01 X6.8844 Y11.7134
G01 X6.8705 Y11.7085
G01 X6.8563 Y11.7049
G01 X6.8417 Y11.7027
G01 X6.8270 Y11.7020
G01 X6.8123 Y11.7027
G01 X6.7977 Y11.7049
G01 X6.7835 Y11.7085
G01 X6.7696 Y11.7134
G01 X6.7563 Y11.7197
G01 X6.7437 Y11.7273
G01 X6.7318 Y11.7360
G01 X6.7209 Y11.7459
G01 X6.7110 Y11.7568
G01 X6.7023 Y11.7687
G01 X6.6947 Y11.7813
G01 X6.6884 Y11.7946
G01 X6.6835 Y11.8085
G01 X6.6799 Y11.8227
G01 X6.6777 Y11.8373
G01 X6.6770 Y11.8520
G01 X6.6777 Y11.8667
G01 X6.6799 Y11.8813
G01 X6.6835 Y11.8955
G01 X6.6884 Y11.9094
G01 X6.6947 Y11.9227
G01 X6.7023 Y11.9353
G01 X6.7110 Y11.9472
G01 X6.7209 Y11.9581
G01 X6.7318 Y11.9680
G01 X6.7437 Y11.9767
G01 X6.7563 Y11.9843
G01 X6.7696 Y11.9906
G01 X6.7835 Y11.9955
G01 X6.7977 Y11.9991
G01 X6.8123 Y12.0013
G01 X6.8270 Y12.0020
G01 X6.8417 Y12.0013
G01 X6.8563 Y11.9991
G01 X6.8705 Y11.9955
G01 X6.8844 Y11.9906
G01 X6.8977 Y11.9843
G01 X6.9103 Y11.9767
G01 X6.9222 Y11.9680
G01 X6.9331 Y11.9581
G01 X6.9430 Y11.9472
G01 X6.9517 Y11.9353
G01 X6.9593 Y11.9227
G01 X6.9656 Y11.9094
G01 X6.9705 Y11.8955
G01 X6.9741 Y11.8813
G01 X6.9763 Y11.8667
G01 X6.9770 Y11.8520
G00 X6.9770 Y11.8520
G01 F100.00
G01 Z-1.4000
G01 F100.00
G01 X6.9763 Y11.8373
G01 X6.9741 Y11.8227
G01 X6.9705 Y11.8085
G01 X6.9656 Y11.7946
G01 X6.9593 Y11.7813
G01 X6.9517 Y11.7687
G01 X6.9430 Y11.7568
G01 X6.9331 Y11.7459
G01 X6.9222 Y11.7360
G01 X6.9103 Y11.7273
G01 X6.8977 Y11.7197
G01 X6.8844 Y11.7134
G01 X6.8705 Y11.7085
G01 X6.8563 Y11.7049
G01 X6.8417 Y11.7027
G01 X6.8270 Y11.7020
G01 X6.8123 Y11.7027
G01 X6.7977 Y11.7049
G01 X6.7835 Y11.7085
G01 X6.7696 Y11.7134
G01 X6.7563 Y11.7197
G01 X6.7437 Y11.7273
G01 X6.7318 Y11.7360
G01 X6.7209 Y11.7459
G01 X6.7110 Y11.7568
G01 X6.7023 Y11.7687
G01 X6.6947 Y11.7813
G01 X6.6884 Y11.7946
G01 X6.6835 Y11.8085
G01 X6.6799 Y11.8227
G01 X6.6777 Y11.8373
G01 X6.6770 Y11.8520
G01 X6.6777 Y11.8667
G01 X6.6799 Y11.8813
G01 X6.6835 Y11.8955
G01 X6.6884 Y11.9094
G01 X6.6947 Y11.9227
G01 X6.7023 Y11.9353
G01 X6.7110 Y11.9472
G01 X6.7209 Y11.9581
G01 X6.7318 Y11.9680
G01 X6.7437 Y11.9767
G01 X6.7563 Y11.9843
G01 X6.7696 Y11.9906
G01 X6.7835 Y11.9955
G01 X6.7977 Y11.9991
G01 X6.8123 Y12.0013
G01 X6.8270 Y12.0020
G01 X6.8417 Y12.0013
G01 X6.8563 Y11.9991
G01 X6.8705 Y11.9955
G01 X6.8844 Y11.9906
G01 X6.8977 Y11.9843
G01 X6.9103 Y11.9767
G01 X6.9222 Y11.9680
G01 X6.9331 Y11.9581
G01 X6.9430 Y11.9472
G01 X6.9517 Y11.9353
G01 X6.9593 Y11.9227
G01 X6.9656 Y11.9094
G01 X6.9705 Y11.8955
G01 X6.9741 Y11.8813
G01 X6.9763 Y11.8667
G01 X6.9770 Y11.8520
G00 X6.9770 Y11.8520
G01 F100.00
G01 Z-1.6000
G01 F100.00
G01 X6.9763 Y11.8373
G01 X6.9741 Y11.8227
G01 X6.9705 Y11.8085
G01 X6.9656 Y11.7946
G01 X6.9593 Y11.7813
G01 X6.9517 Y11.7687
G01 X6.9430 Y11.7568
G01 X6.9331 Y11.7459
G01 X6.9222 Y11.7360
G01 X6.9103 Y11.7273
G01 X6.8977 Y11.7197
G01 X6.8844 Y11.7134
G01 X6.8705 Y11.7085
G01 X6.8563 Y11.7049
G01 X6.8417 Y11.7027
G01 X6.8270 Y11.7020
G01 X6.8123 Y11.7027
G01 X6.7977 Y11.7049
G01 X6.7835 Y11.7085
G01 X6.7696 Y11.7134
G01 X6.7563 Y11.7197
G01 X6.7437 Y11.7273
G01 X6.7318 Y11.7360
G01 X6.7209 Y11.7459
G01 X6.7110 Y11.7568
G01 X6.7023 Y11.7687
G01 X6.6947 Y11.7813
G01 X6.6884 Y11.7946
G01 X6.6835 Y11.8085
G01 X6.6799 Y11.8227
G01 X6.6777 Y11.8373
G01 X6.6770 Y11.8520
G01 X6.6777 Y11.8667
G01 X6.6799 Y11.8813
G01 X6.6835 Y11.8955
G01 X6.6884 Y11.9094
G01 X6.6947 Y11.9227
G01 X6.7023 Y11.9353
G01 X6.7110 Y11.9472
G01 X6.7209 Y11.9581
G01 X6.7318 Y11.9680
G01 X6.7437 Y11.9767
G01 X6.7563 Y11.9843
G01 X6.7696 Y11.9906
G01 X6.7835 Y11.9955
G01 X6.7977 Y11.9991
G01 X6.8123 Y12.0013
G01 X6.8270 Y12.0020
G01 X6.8417 Y12.0013
G01 X6.8563 Y11.9991
G01 X6.8705 Y11.9955
G01 X6.8844 Y11.9906
G01 X6.8977 Y11.9843
G01 X6.9103 Y11.9767
G01 X6.9222 Y11.9680
G01 X6.9331 Y11.9581
G01 X6.9430 Y11.9472
G01 X6.9517 Y11.9353
G01 X6.9593 Y11.9227
G01 X6.9656 Y11.9094
G01 X6.9705 Y11.8955
G01 X6.9741 Y11.8813
G01 X6.9763 Y11.8667
G01 X6.9770 Y11.8520
G00 X6.9770 Y11.8520
G01 F100.00
G01 Z-1.8000
G01 F100.00
G01 X6.9763 Y11.8373
G01 X6.9741 Y11.8227
G01 X6.9705 Y11.8085
G01 X6.9656 Y11.7946
G01 X6.9593 Y11.7813
G01 X6.9517 Y11.7687
G01 X6.9430 Y11.7568
G01 X6.9331 Y11.7459
G01 X6.9222 Y11.7360
G01 X6.9103 Y11.7273
G01 X6.8977 Y11.7197
G01 X6.8844 Y11.7134
G01 X6.8705 Y11.7085
G01 X6.8563 Y11.7049
G01 X6.8417 Y11.7027
G01 X6.8270 Y11.7020
G01 X6.8123 Y11.7027
G01 X6.7977 Y11.7049
G01 X6.7835 Y11.7085
G01 X6.7696 Y11.7134
G01 X6.7563 Y11.7197
G01 X6.7437 Y11.7273
G01 X6.7318 Y11.7360
G01 X6.7209 Y11.7459
G01 X6.7110 Y11.7568
G01 X6.7023 Y11.7687
G01 X6.6947 Y11.7813
G01 X6.6884 Y11.7946
G01 X6.6835 Y11.8085
G01 X6.6799 Y11.8227
G01 X6.6777 Y11.8373
G01 X6.6770 Y11.8520
G01 X6.6777 Y11.8667
G01 X6.6799 Y11.8813
G01 X6.6835 Y11.8955
G01 X6.6884 Y11.9094
G01 X6.6947 Y11.9227
G01 X6.7023 Y11.9353
G01 X6.7110 Y11.9472
G01 X6.7209 Y11.9581
G01 X6.7318 Y11.9680
G01 X6.7437 Y11.9767
G01 X6.7563 Y11.9843
G01 X6.7696 Y11.9906
G01 X6.7835 Y11.9955
G01 X6.7977 Y11.9991
G01 X6.8123 Y12.0013
G01 X6.8270 Y12.0020
G01 X6.8417 Y12.0013
G01 X6.8563 Y11.9991
G01 X6.8705 Y11.9955
G01 X6.8844 Y11.9906
G01 X6.8977 Y11.9843
G01 X6.9103 Y11.9767
G01 X6.9222 Y11.9680
G01 X6.9331 Y11.9581
G01 X6.9430 Y11.9472
G01 X6.9517 Y11.9353
G01 X6.9593 Y11.9227
G01 X6.9656 Y11.9094
G01 X6.9705 Y11.8955
G01 X6.9741 Y11.8813
G01 X6.9763 Y11.8667
G01 X6.9770 Y11.8520
G00 X6.9770 Y11.8520
G01 F100.00
G01 Z-2.0000
G01 F100.00
G01 X6.9763 Y11.8373
G01 X6.9741 Y11.8227
G01 X6.9705 Y11.8085
G01 X6.9656 Y11.7946
G01 X6.9593 Y11.7813
G01 X6.9517 Y11.7687
G01 X6.9430 Y11.7568
G01 X6.9331 Y11.7459
G01 X6.9222 Y11.7360
G01 X6.9103 Y11.7273
G01 X6.8977 Y11.7197
G01 X6.8844 Y11.7134
G01 X6.8705 Y11.7085
G01 X6.8563 Y11.7049
G01 X6.8417 Y11.7027
G01 X6.8270 Y11.7020
G01 X6.8123 Y11.7027
G01 X6.7977 Y11.7049
G01 X6.7835 Y11.7085
G01 X6.7696 Y11.7134
G01 X6.7563 Y11.7197
G01 X6.7437 Y11.7273
G01 X6.7318 Y11.7360
G01 X6.7209 Y11.7459
G01 X6.7110 Y11.7568
G01 X6.7023 Y11.7687
G01 X6.6947 Y11.7813
G01 X6.6884 Y11.7946
G01 X6.6835 Y11.8085
G01 X6.6799 Y11.8227
G01 X6.6777 Y11.8373
G01 X6.6770 Y11.8520
G01 X6.6777 Y11.8667
G01 X6.6799 Y11.8813
G01 X6.6835 Y11.8955
G01 X6.6884 Y11.9094
G01 X6.6947 Y11.9227
G01 X6.7023 Y11.9353
G01 X6.7110 Y11.9472
G01 X6.7209 Y11.9581
G01 X6.7318 Y11.9680
G01 X6.7437 Y11.9767
G01 X6.7563 Y11.9843
G01 X6.7696 Y11.9906
G01 X6.7835 Y11.9955
G01 X6.7977 Y11.9991
G01 X6.8123 Y12.0013
G01 X6.8270 Y12.0020
G01 X6.8417 Y12.0013
G01 X6.8563 Y11.9991
G01 X6.8705 Y11.9955
G01 X6.8844 Y11.9906
G01 X6.8977 Y11.9843
G01 X6.9103 Y11.9767
G01 X6.9222 Y11.9680
G01 X6.9331 Y11.9581
G01 X6.9430 Y11.9472
G01 X6.9517 Y11.9353
G01 X6.9593 Y11.9227
G01 X6.9656 Y11.9094
G01 X6.9705 Y11.8955
G01 X6.9741 Y11.8813
G01 X6.9763 Y11.8667
G01 X6.9770 Y11.8520
G00 Z2.0000
G00 X8.5980 Y12.3790
G01 F100.00
G01 Z-0.2000
G01 F100.00
G01 X8.5973 Y12.3643
G01 X8.5951 Y12.3497
G01 X8.5915 Y12.3355
G01 X8.5866 Y12.3216
G01 X8.5803 Y12.3083
G01 X8.5727 Y12.2957
G01 X8.5640 Y12.2838
G01 X8.5541 Y12.2729
G01 X8.5432 Y12.2630
G01 X8.5313 Y12.2543
G01 X8.5187 Y12.2467
G01 X8.5054 Y12.2404
G01 X8.4915 Y12.2355
G01 X8.4773 Y12.2319
G01 X8.4627 Y12.2297
G01 X8.4480 Y12.2290
G01 X8.4333 Y12.2297
G01 X8.4187 Y12.2319
G01 X8.4045 Y12.2355
G01 X8.3906 Y12.2404
G01 X8.3773 Y12.2467
G01 X8.3647 Y12.2543
G01 X8.3528 Y12.2630
G01 X8.3419 Y12.2729
G01 X8.3320 Y12.2838
G01 X8.3233 Y12.2957
G01 X8.3157 Y12.3083
G01 X8.3094 Y12.3216
G01 X8.3045 Y12.3355
G01 X8.3009 Y12.3497
G01 X8.2987 Y12.3643
G01 X8.2980 Y12.3790
G01 X8.2987 Y12.3937
G01 X8.3009 Y12.4083
G01 X8.3045 Y12.4225
G01 X8.3094 Y12.4364
G01 X8.3157 Y12.4497
G01 X8.3233 Y12.4623
G01 X8.3320 Y12.4742
G01 X8.3419 Y12.4851
G01 X8.3528 Y12.4950
G01 X8.3647 Y12.5037
G01 X8.3773 Y12.5113
G01 X8.3906 Y12.5176
G01 X8.4045 Y12.5225
G01 X8.4187 Y12.5261
G01 X8.4333 Y12.5283
G01 X8.4480 Y12.5290
G01 X8.4627 Y12.5283
G01 X8.4773 Y12.5261
G01 X8.4915 Y12.5225
G01 X8.5054 Y12.5176
G01 X8.5187 Y12.5113
G01 X8.5313 Y12.5037
G01 X8.5432 Y12.4950
G01 X8.5541 Y12.4851
G01 X8.5640 Y12.4742
G01 X8.5727 Y12.4623
G01 X8.5803 Y12.4497
G01 X8.5866 Y12.4364
G01 X8.5915 Y12.4225
G01 X8.5951 Y12.4083
G01 X8.5973 Y12.3937
G01 X8.5980 Y12.3790
G00 X8.5980 Y12.3790
G01 F100.00
G01 Z-0.4000
G01 F100.00
G01 X8.5973 Y12.3643
G01 X8.5951 Y12.3497
G01 X8.5915 Y12.3355
G01 X8.5866 Y12.3216
G01 X8.5803 Y12.3083
G01 X8.5727 Y12.2957
G01 X8.5640 Y12.2838
G01 X8.5541 Y12.2729
G01 X8.5432 Y12.2630
G01 X8.5313 Y12.2543
G01 X8.5187 Y12.2467
G01 X8.5054 Y12.2404
G01 X8.4915 Y12.2355
G01 X8.4773 Y12.2319
G01 X8.4627 Y12.2297
G01 X8.4480 Y12.2290
G01 X8.4333 Y12.2297
G01 X8.4187 Y12.2319
G01 X8.4045 Y12.2355
G01 X8.3906 Y12.2404
G01 X8.3773 Y12.2467
G01 X8.3647 Y12.2543
G01 X8.3528 Y12.2630
G01 X8.3419 Y12.2729
G01 X8.3320 Y12.2838
G01 X8.3233 Y12.2957
G01 X8.3157 Y12.3083
G01 X8.3094 Y12.3216
G01 X8.3045 Y12.3355
G01 X8.3009 Y12.3497
G01 X8.2987 Y12.3643
G01 X8.2980 Y12.3790
G01 X8.2987 Y12.3937
G01 X8.3009 Y12.4083
G01 X8.3045 Y12.4225
G01 X8.3094 Y12.4364
G01 X8.3157 Y12.4497
G01 X8.3233 Y12.4623
G01 X8.3320 Y12.4742
G01 X8.3419 Y12.4851
G01 X8.3528 Y12.4950
G01 X8.3647 Y12.5037
G01 X8.3773 Y12.5113
G01 X8.3906 Y12.5176
G01 X8.4045 Y12.5225
G01 X8.4187 Y12.5261
G01 X8.4333 Y12.5283
G01 X8.4480 Y12.5290
G01 X8.4627 Y12.5283
G01 X8.4773 Y12.5261
G01 X8.4915 Y12.5225
G01 X8.5054 Y12.5176
G01 X8.5187 Y12.5113
G01 X8.5313 Y12.5037
G01 X8.5432 Y12.4950
G01 X8.5541 Y12.4851
G01 X8.5640 Y12.4742
G01 X8.5727 Y12.4623
G01 X8.5803 Y12.4497
G01 X8.5866 Y12.4364
G01 X8.5915 Y12.4225
G01 X8.5951 Y12.4083
G01 X8.5973 Y12.3937
G01 X8.5980 Y12.3790
G00 X8.5980 Y12.3790
G01 F100.00
G01 Z-0.6000
G01 F100.00
G01 X8.5973 Y12.3643
G01 X8.5951 Y12.3497
G01 X8.5915 Y12.3355
G01 X8.5866 Y12.3216
G01 X8.5803 Y12.3083
G01 X8.5727 Y12.2957
G01 X8.5640 Y12.2838
G01 X8.5541 Y12.2729
G01 X8.5432 Y12.2630
G01 X8.5313 Y12.2543
G01 X8.5187 Y12.2467
G01 X8.5054 Y12.2404
G01 X8.4915 Y12.2355
G01 X8.4773 Y12.2319
G01 X8.4627 Y12.2297
G01 X8.4480 Y12.2290
G01 X8.4333 Y12.2297
G01 X8.4187 Y12.2319
G01 X8.4045 Y12.2355
G01 X8.3906 Y12.2404
G01 X8.3773 Y12.2467
G01 X8.3647 Y12.2543
G01 X8.3528 Y12.2630
G01 X8.3419 Y12.2729
G01 X8.3320 Y12.2838
G01 X8.3233 Y12.2957
G01 X8.3157 Y12.3083
G01 X8.3094 Y12.3216
G01 X8.3045 Y12.3355
G01 X8.3009 Y12.3497
G01 X8.2987 Y12.3643
G01 X8.2980 Y12.3790
G01 X8.2987 Y12.3937
G01 X8.3009 Y12.4083
G01 X8.3045 Y12.4225
G01 X8.3094 Y12.4364
G01 X8.3157 Y12.4497
G01 X8.3233 Y12.4623
G01 X8.3320 Y12.4742
G01 X8.3419 Y12.4851
G01 X8.3528 Y12.4950
G01 X8.3647 Y12.5037
G01 X8.3773 Y12.5113
G01 X8.3906 Y12.5176
G01 X8.4045 Y12.5225
G01 X8.4187 Y12.5261
G01 X8.4333 Y12.5283
G01 X8.4480 Y12.5290
G01 X8.4627 Y12.5283
G01 X8.4773 Y12.5261
G01 X8.4915 Y12.5225
G01 X8.5054 Y12.5176
G01 X8.5187 Y12.5113
G01 X8.5313 Y12.5037
G01 X8.5432 Y12.4950
G01 X8.5541 Y12.4851
G01 X8.5640 Y12.4742
G01 X8.5727 Y12.4623
G01 X8.5803 Y12.4497
G01 X8.5866 Y12.4364
G01 X8.5915 Y12.4225
G01 X8.5951 Y12.4083
G01 X8.5973 Y12.3937
G01 X8.5980 Y12.3790
G00 X8.5980 Y12.3790
G01 F100.00
G01 Z-0.8000
G01 F100.00
G01 X8.5973 Y12.3643
G01 X8.5951 Y12.3497
G01 X8.5915 Y12.3355
G01 X8.5866 Y12.3216
G01 X8.5803 Y12.3083
G01 X8.5727 Y12.2957
G01 X8.5640 Y12.2838
G01 X8.5541 Y12.2729
G01 X8.5432 Y12.2630
G01 X8.5313 Y12.2543
G01 X8.5187 Y12.2467
G01 X8.5054 Y12.2404
G01 X8.4915 Y12.2355
G01 X8.4773 Y12.2319
G01 X8.4627 Y12.2297
G01 X8.4480 Y12.2290
G01 X8.4333 Y12.2297
G01 X8.4187 Y12.2319
G01 X8.4045 Y12.2355
G01 X8.3906 Y12.2404
G01 X8.3773 Y12.2467
G01 X8.3647 Y12.2543
G01 X8.3528 Y12.2630
G01 X8.3419 Y12.2729
G01 X8.3320 Y12.2838
G01 X8.3233 Y12.2957
G01 X8.3157 Y12.3083
G01 X8.3094 Y12.3216
G01 X8.3045 Y12.3355
G01 X8.3009 Y12.3497
G01 X8.2987 Y12.3643
G01 X8.2980 Y12.3790
G01 X8.2987 Y12.3937
G01 X8.3009 Y12.4083
G01 X8.3045 Y12.4225
G01 X8.3094 Y12.4364
G01 X8.3157 Y12.4497
G01 X8.3233 Y12.4623
G01 X8.3320 Y12.4742
G01 X8.3419 Y12.4851
G01 X8.3528 Y12.4950
G01 X8.3647 Y12.5037
G01 X8.3773 Y12.5113
G01 X8.3906 Y12.5176
G01 X8.4045 Y12.5225
G01 X8.4187 Y12.5261
G01 X8.4333 Y12.5283
G01 X8.4480 Y12.5290
G01 X8.4627 Y12.5283
G01 X8.4773 Y12.5261
G01 X8.4915 Y12.5225
G01 X8.5054 Y12.5176
G01 X8.5187 Y12.5113
G01 X8.5313 Y12.5037
G01 X8.5432 Y12.4950
G01 X8.5541 Y12.4851
G01 X8.5640 Y12.4742
G01 X8.5727 Y12.4623
G01 X8.5803 Y12.4497
G01 X8.5866 Y12.4364
G01 X8.5915 Y12.4225
G01 X8.5951 Y12.4083
G01 X8.5973 Y12.3937
G01 X8.5980 Y12.3790
G00 X8.5980 Y12.3790
G01 F100.00
G01 Z-1.0000
G01 F100.00
G01 X8.5973 Y12.3643
G01 X8.5951 Y12.3497
G01 X8.5915 Y12.3355
G01 X8.5866 Y12.3216
G01 X8.5803 Y12.3083
G01 X8.5727 Y12.2957
G01 X8.5640 Y12.2838
G01 X8.5541 Y12.2729
G01 X8.5432 Y12.2630
G01 X8.5313 Y12.2543
G01 X8.5187 Y12.2467
G01 X8.5054 Y12.2404
G01 X8.4915 Y12.2355
G01 X8.4773 Y12.2319
G01 X8.4627 Y12.2297
G01 X8.4480 Y12.2290
G01 X8.4333 Y12.2297
G01 X8.4187 Y12.2319
G01 X8.4045 Y12.2355
G01 X8.3906 Y12.2404
G01 X8.3773 Y12.2467
G01 X8.3647 Y12.2543
G01 X8.3528 Y12.2630
G01 X8.3419 Y12.2729
G01 X8.3320 Y12.2838
G01 X8.3233 Y12.2957
G01 X8.3157 Y12.3083
G01 X8.3094 Y12.3216
G01 X8.3045 Y12.3355
G01 X8.3009 Y12.3497
G01 X8.2987 Y12.3643
G01 X8.2980 Y12.3790
G01 X8.2987 Y12.3937
G01 X8.3009 Y12.4083
G01 X8.3045 Y12.4225
G01 X8.3094 Y12.4364
G01 X8.3157 Y12.4497
G01 X8.3233 Y12.4623
G01 X8.3320 Y12.4742
G01 X8.3419 Y12.4851
G01 X8.3528 Y12.4950
G01 X8.3647 Y12.5037
G01 X8.3773 Y12.5113
G01 X8.3906 Y12.5176
G01 X8.4045 Y12.5225
G01 X8.4187 Y12.5261
G01 X8.4333 Y12.5283
G01 X8.4480 Y12.5290
G01 X8.4627 Y12.5283
G01 X8.4773 Y12.5261
G01 X8.4915 Y12.5225
G01 X8.5054 Y12.5176
G01 X8.5187 Y12.5113
G01 X8.5313 Y12.5037
G01 X8.5432 Y12.4950
G01 X8.5541 Y12.4851
G01 X8.5640 Y12.4742
G01 X8.5727 Y12.4623
G01 X8.5803 Y12.4497
G01 X8.5866 Y12.4364
G01 X8.5915 Y12.4225
G01 X8.5951 Y12.4083
G01 X8.5973 Y12.3937
G01 X8.5980 Y12.3790
G00 X8.5980 Y12.3790
G01 F100.00
G01 Z-1.2000
G01 F100.00
G01 X8.5973 Y12.3643
G01 X8.5951 Y12.3497
G01 X8.5915 Y12.3355
G01 X8.5866 Y12.3216
G01 X8.5803 Y12.3083
G01 X8.5727 Y12.2957
G01 X8.5640 Y12.2838
G01 X8.5541 Y12.2729
G01 X8.5432 Y12.2630
G01 X8.5313 Y12.2543
G01 X8.5187 Y12.2467
G01 X8.5054 Y12.2404
G01 X8.4915 Y12.2355
G01 X8.4773 Y12.2319
G01 X8.4627 Y12.2297
G01 X8.4480 Y12.2290
G01 X8.4333 Y12.2297
G01 X8.4187 Y12.2319
G01 X8.4045 Y12.2355
G01 X8.3906 Y12.2404
G01 X8.3773 Y12.2467
G01 X8.3647 Y12.2543
G01 X8.3528 Y12.2630
G01 X8.3419 Y12.2729
G01 X8.3320 Y12.2838
G01 X8.3233 Y12.2957
G01 X8.3157 Y12.3083
G01 X8.3094 Y12.3216
G01 X8.3045 Y12.3355
G01 X8.3009 Y12.3497
G01 X8.2987 Y12.3643
G01 X8.2980 Y12.3790
G01 X8.2987 Y12.3937
G01 X8.3009 Y12.4083
G01 X8.3045 Y12.4225
G01 X8.3094 Y12.4364
G01 X8.3157 Y12.4497
G01 X8.3233 Y12.4623
G01 X8.3320 Y12.4742
G01 X8.3419 Y12.4851
G01 X8.3528 Y12.4950
G01 X8.3647 Y12.5037
G01 X8.3773 Y12.5113
G01 X8.3906 Y12.5176
G01 X8.4045 Y12.5225
G01 X8.4187 Y12.5261
G01 X8.4333 Y12.5283
G01 X8.4480 Y12.5290
G01 X8.4627 Y12.5283
G01 X8.4773 Y12.5261
G01 X8.4915 Y12.5225
G01 X8.5054 Y12.5176
G01 X8.5187 Y12.5113
G01 X8.5313 Y12.5037
G01 X8.5432 Y12.4950
G01 X8.5541 Y12.4851
G01 X8.5640 Y12.4742
G01 X8.5727 Y12.4623
G01 X8.5803 Y12.4497
G01 X8.5866 Y12.4364
G01 X8.5915 Y12.4225
G01 X8.5951 Y12.4083
G01 X8.5973 Y12.3937
G01 X8.5980 Y12.3790
G00 X8.5980 Y12.3790
G01 F100.00
G01 Z-1.4000
G01 F100.00
G01 X8.5973 Y12.3643
G01 X8.5951 Y12.3497
G01 X8.5915 Y12.3355
G01 X8.5866 Y12.3216
G01 X8.5803 Y12.3083
G01 X8.5727 Y12.2957
G01 X8.5640 Y12.2838
G01 X8.5541 Y12.2729
G01 X8.5432 Y12.2630
G01 X8.5313 Y12.2543
G01 X8.5187 Y12.2467
G01 X8.5054 Y12.2404
G01 X8.4915 Y12.2355
G01 X8.4773 Y12.2319
G01 X8.4627 Y12.2297
G01 X8.4480 Y12.2290
G01 X8.4333 Y12.2297
G01 X8.4187 Y12.2319
G01 X8.4045 Y12.2355
G01 X8.3906 Y12.2404
G01 X8.3773 Y12.2467
G01 X8.3647 Y12.2543
G01 X8.3528 Y12.2630
G01 X8.3419 Y12.2729
G01 X8.3320 Y12.2838
G01 X8.3233 Y12.2957
G01 X8.3157 Y12.3083
G01 X8.3094 Y12.3216
G01 X8.3045 Y12.3355
G01 X8.3009 Y12.3497
G01 X8.2987 Y12.3643
G01 X8.2980 Y12.3790
G01 X8.2987 Y12.3937
G01 X8.3009 Y12.4083
G01 X8.3045 Y12.4225
G01 X8.3094 Y12.4364
G01 X8.3157 Y12.4497
G01 X8.3233 Y12.4623
G01 X8.3320 Y12.4742
G01 X8.3419 Y12.4851
G01 X8.3528 Y12.4950
G01 X8.3647 Y12.5037
G01 X8.3773 Y12.5113
G01 X8.3906 Y12.5176
G01 X8.4045 Y12.5225
G01 X8.4187 Y12.5261
G01 X8.4333 Y12.5283
G01 X8.4480 Y12.5290
G01 X8.4627 Y12.5283
G01 X8.4773 Y12.5261
G01 X8.4915 Y12.5225
G01 X8.5054 Y12.5176
G01 X8.5187 Y12.5113
G01 X8.5313 Y12.5037
G01 X8.5432 Y12.4950
G01 X8.5541 Y12.4851
G01 X8.5640 Y12.4742
G01 X8.5727 Y12.4623
G01 X8.5803 Y12.4497
G01 X8.5866 Y12.4364
G01 X8.5915 Y12.4225
G01 X8.5951 Y12.4083
G01 X8.5973 Y12.3937
G01 X8.5980 Y12.3790
G00 X8.5980 Y12.3790
G01 F100.00
G01 Z-1.6000
G01 F100.00
G01 X8.5973 Y12.3643
G01 X8.5951 Y12.3497
G01 X8.5915 Y12.3355
G01 X8.5866 Y12.3216
G01 X8.5803 Y12.3083
G01 X8.5727 Y12.2957
G01 X8.5640 Y12.2838
G01 X8.5541 Y12.2729
G01 X8.5432 Y12.2630
G01 X8.5313 Y12.2543
G01 X8.5187 Y12.2467
G01 X8.5054 Y12.2404
G01 X8.4915 Y12.2355
G01 X8.4773 Y12.2319
G01 X8.4627 Y12.2297
G01 X8.4480 Y12.2290
G01 X8.4333 Y12.2297
G01 X8.4187 Y12.2319
G01 X8.4045 Y12.2355
G01 X8.3906 Y12.2404
G01 X8.3773 Y12.2467
G01 X8.3647 Y12.2543
G01 X8.3528 Y12.2630
G01 X8.3419 Y12.2729
G01 X8.3320 Y12.2838
G01 X8.3233 Y12.2957
G01 X8.3157 Y12.3083
G01 X8.3094 Y12.3216
G01 X8.3045 Y12.3355
G01 X8.3009 Y12.3497
G01 X8.2987 Y12.3643
G01 X8.2980 Y12.3790
G01 X8.2987 Y12.3937
G01 X8.3009 Y12.4083
G01 X8.3045 Y12.4225
G01 X8.3094 Y12.4364
G01 X8.3157 Y12.4497
G01 X8.3233 Y12.4623
G01 X8.3320 Y12.4742
G01 X8.3419 Y12.4851
G01 X8.3528 Y12.4950
G01 X8.3647 Y12.5037
G01 X8.3773 Y12.5113
G01 X8.3906 Y12.5176
G01 X8.4045 Y12.5225
G01 X8.4187 Y12.5261
G01 X8.4333 Y12.5283
G01 X8.4480 Y12.5290
G01 X8.4627 Y12.5283
G01 X8.4773 Y12.5261
G01 X8.4915 Y12.5225
G01 X8.5054 Y12.5176
G01 X8.5187 Y12.5113
G01 X8.5313 Y12.5037
G01 X8.5432 Y12.4950
G01 X8.5541 Y12.4851
G01 X8.5640 Y12.4742
G01 X8.5727 Y12.4623
G01 X8.5803 Y12.4497
G01 X8.5866 Y12.4364
G01 X8.5915 Y12.4225
G01 X8.5951 Y12.4083
G01 X8.5973 Y12.3937
G01 X8.5980 Y12.3790
G00 X8.5980 Y12.3790
G01 F100.00
G01 Z-1.8000
G01 F100.00
G01 X8.5973 Y12.3643
G01 X8.5951 Y12.3497
G01 X8.5915 Y12.3355
G01 X8.5866 Y12.3216
G01 X8.5803 Y12.3083
G01 X8.5727 Y12.2957
G01 X8.5640 Y12.2838
G01 X8.5541 Y12.2729
G01 X8.5432 Y12.2630
G01 X8.5313 Y12.2543
G01 X8.5187 Y12.2467
G01 X8.5054 Y12.2404
G01 X8.4915 Y12.2355
G01 X8.4773 Y12.2319
G01 X8.4627 Y12.2297
G01 X8.4480 Y12.2290
G01 X8.4333 Y12.2297
G01 X8.4187 Y12.2319
G01 X8.4045 Y12.2355
G01 X8.3906 Y12.2404
G01 X8.3773 Y12.2467
G01 X8.3647 Y12.2543
G01 X8.3528 Y12.2630
G01 X8.3419 Y12.2729
G01 X8.3320 Y12.2838
G01 X8.3233 Y12.2957
G01 X8.3157 Y12.3083
G01 X8.3094 Y12.3216
G01 X8.3045 Y12.3355
G01 X8.3009 Y12.3497
G01 X8.2987 Y12.3643
G01 X8.2980 Y12.3790
G01 X8.2987 Y12.3937
G01 X8.3009 Y12.4083
G01 X8.3045 Y12.4225
G01 X8.3094 Y12.4364
G01 X8.3157 Y12.4497
G01 X8.3233 Y12.4623
G01 X8.3320 Y12.4742
G01 X8.3419 Y12.4851
G01 X8.3528 Y12.4950
G01 X8.3647 Y12.5037
G01 X8.3773 Y12.5113
G01 X8.3906 Y12.5176
G01 X8.4045 Y12.5225
G01 X8.4187 Y12.5261
G01 X8.4333 Y12.5283
G01 X8.4480 Y12.5290
G01 X8.4627 Y12.5283
G01 X8.4773 Y12.5261
G01 X8.4915 Y12.5225
G01 X8.5054 Y12.5176
G01 X8.5187 Y12.5113
G01 X8.5313 Y12.5037
G01 X8.5432 Y12.4950
G01 X8.5541 Y12.4851
G01 X8.5640 Y12.4742
G01 X8.5727 Y12.4623
G01 X8.5803 Y12.4497
G01 X8.5866 Y12.4364
G01 X8.5915 Y12.4225
G01 X8.5951 Y12.4083
G01 X8.5973 Y12.3937
G01 X8.5980 Y12.3790
G00 X8.5980 Y12.3790
G01 F100.00
G01 Z-2.0000
G01 F100.00
G01 X8.5973 Y12.3643
G01 X8.5951 Y12.3497
G01 X8.5915 Y12.3355
G01 X8.5866 Y12.3216
G01 X8.5803 Y12.3083
G01 X8.5727 Y12.2957
G01 X8.5640 Y12.2838
G01 X8.5541 Y12.2729
G01 X8.5432 Y12.2630
G01 X8.5313 Y12.2543
G01 X8.5187 Y12.2467
G01 X8.5054 Y12.2404
G01 X8.4915 Y12.2355
G01 X8.4773 Y12.2319
G01 X8.4627 Y12.2297
G01 X8.4480 Y12.2290
G01 X8.4333 Y12.2297
G01 X8.4187 Y12.2319
G01 X8.4045 Y12.2355
G01 X8.3906 Y12.2404
G01 X8.3773 Y12.2467
G01 X8.3647 Y12.2543
G01 X8.3528 Y12.2630
G01 X8.3419 Y12.2729
G01 X8.3320 Y12.2838
G01 X8.3233 Y12.2957
G01 X8.3157 Y12.3083
G01 X8.3094 Y12.3216
G01 X8.3045 Y12.3355
G01 X8.3009 Y12.3497
G01 X8.2987 Y12.3643
G01 X8.2980 Y12.3790
G01 X8.2987 Y12.3937
G01 X8.3009 Y12.4083
G01 X8.3045 Y12.4225
G01 X8.3094 Y12.4364
G01 X8.3157 Y12.4497
G01 X8.3233 Y12.4623
G01 X8.3320 Y12.4742
G01 X8.3419 Y12.4851
G01 X8.3528 Y12.4950
G01 X8.3647 Y12.5037
G01 X8.3773 Y12.5113
G01 X8.3906 Y12.5176
G01 X8.4045 Y12.5225
G01 X8.4187 Y12.5261
G01 X8.4333 Y12.5283
G01 X8.4480 Y12.5290
G01 X8.4627 Y12.5283
G01 X8.4773 Y12.5261
G01 X8.4915 Y12.5225
G01 X8.5054 Y12.5176
G01 X8.5187 Y12.5113
G01 X8.5313 Y12.5037
G01 X8.5432 Y12.4950
G01 X8.5541 Y12.4851
G01 X8.5640 Y12.4742
G01 X8.5727 Y12.4623
G01 X8.5803 Y12.4497
G01 X8.5866 Y12.4364
G01 X8.5915 Y12.4225
G01 X8.5951 Y12.4083
G01 X8.5973 Y12.3937
G01 X8.5980 Y12.3790
G00 Z2.0000
G00 X9.6000 Y11.0000
G01 F100.00
G01 Z-0.2000
G01 F100.00
G01 X9.5993 Y10.9853
G01 X9.5971 Y10.9707
G01 X9.5935 Y10.9565
G01 X9.5886 Y10.9426
G01 X9.5823 Y10.9293
G01 X9.5747 Y10.9167
G01 X9.5660 Y10.9048
G01 X9.5561 Y10.8939
G01 X9.5452 Y10.8840
G01 X9.5333 Y10.8753
G01 X9.5207 Y10.8677
G01 X9.5074 Y10.8614
G01 X9.4935 Y10.8565
G01 X9.4793 Y10.8529
G01 X9.4647 Y10.8507
G01 X9.4500 Y10.8500
G01 X9.4353 Y10.8507
G01 X9.4207 Y10.8529
G01 X9.4065 Y10.8565
G01 X9.3926 Y10.8614
G01 X9.3793 Y10.8677
G01 X9.3667 Y10.8753
G01 X9.3548 Y10.8840
G01 X9.3439 Y10.8939
G01 X9.3340 Y10.9048
G01 X9.3253 Y10.9167
G01 X9.3177 Y10.9293
G01 X9.3114 Y10.9426
G01 X9.3065 Y10.9565
G01 X9.3029 Y10.9707
G01 X9.3007 Y10.9853
G01 X9.3000 Y11.0000
G01 X9.3007 Y11.0147
G01 X9.3029 Y11.0293
G01 X9.3065 Y11.0435
G01 X9.3114 Y11.0574
G01 X9.3177 Y11.0707
G01 X9.3253 Y11.0833
G01 X9.3340 Y11.0952
G01 X9.3439 Y11.1061
G01 X9.3548 Y11.1160
G01 X9.3667 Y11.1247
G01 X9.3793 Y11.1323
G01 X9.3926 Y11.1386
G01 X9.4065 Y11.1435
G01 X9.4207 Y11.1471
G01 X9.4353 Y11.1493
G01 X9.4500 Y11.1500
G01 X9.4647 Y11.1493
G01 X9.4793 Y11.1471
G01 X9.4935 Y11.1435
G01 X9.5074 Y11.1386
G01 X9.5207 Y11.1323
G01 X9.5333 Y11.1247
G01 X9.5452 Y11.1160
G01 X9.5561 Y11.1061
G01 X9.5660 Y11.0952
G01 X9.5747 Y11.0833
G01 X9.5823 Y11.0707
G01 X9.5886 Y11.0574
G01 X9.5935 Y11.0435
G01 X9.5971 Y11.0293
G01 X9.5993 Y11.0147
G01 X9.6000 Y11.0000
G00 X9.6000 Y11.0000
G01 F100.00
G01 Z-0.4000
G01 F100.00
G01 X9.5993 Y10.9853
G01 X9.5971 Y10.9707
G01 X9.5935 Y10.9565
G01 X9.5886 Y10.9426
G01 X9.5823 Y10.9293
G01 X9.5747 Y10.9167
G01 X9.5660 Y10.9048
G01 X9.5561 Y10.8939
G01 X9.5452 Y10.8840
G01 X9.5333 Y10.8753
G01 X9.5207 Y10.8677
G01 X9.5074 Y10.8614
G01 X9.4935 Y10.8565
G01 X9.4793 Y10.8529
G01 X9.4647 Y10.8507
G01 X9.4500 Y10.8500
G01 X9.4353 Y10.8507
G01 X9.4207 Y10.8529
G01 X9.4065 Y10.8565
G01 X9.3926 Y10.8614
G01 X9.3793 Y10.8677
G01 X9.3667 Y10.8753
G01 X9.3548 Y10.8840
G01 X9.3439 Y10.8939
G01 X9.3340 Y10.9048
G01 X9.3253 Y10.9167
G01 X9.3177 Y10.9293
G01 X9.3114 Y10.9426
G01 X9.3065 Y10.9565
G01 X9.3029 Y10.9707
G01 X9.3007 Y10.9853
G01 X9.3000 Y11.0000
G01 X9.3007 Y11.0147
G01 X9.3029 Y11.0293
G01 X9.3065 Y11.0435
G01 X9.3114 Y11.0574
G01 X9.3177 Y11.0707
G01 X9.3253 Y11.0833
G01 X9.3340 Y11.0952
G01 X9.3439 Y11.1061
G01 X9.3548 Y11.1160
G01 X9.3667 Y11.1247
G01 X9.3793 Y11.1323
G01 X9.3926 Y11.1386
G01 X9.4065 Y11.1435
G01 X9.4207 Y11.1471
G01 X9.4353 Y11.1493
G01 X9.4500 Y11.1500
G01 X9.4647 Y11.1493
G01 X9.4793 Y11.1471
G01 X9.4935 Y11.1435
G01 X9.5074 Y11.1386
G01 X9.5207 Y11.1323
G01 X9.5333 Y11.1247
G01 X9.5452 Y11.1160
G01 X9.5561 Y11.1061
G01 X9.5660 Y11.0952
G01 X9.5747 Y11.0833
G01 X9.5823 Y11.0707
G01 X9.5886 Y11.0574
G01 X9.5935 Y11.0435
G01 X9.5971 Y11.0293
G01 X9.5993 Y11.0147
G01 X9.6000 Y11.0000
G00 X9.6000 Y11.0000
G01 F100.00
G01 Z-0.6000
G01 F100.00
G01 X9.5993 Y10.9853
G01 X9.5971 Y10.9707
G01 X9.5935 Y10.9565
G01 X9.5886 Y10.9426
G01 X9.5823 Y10.9293
G01 X9.5747 Y10.9167
G01 X9.5660 Y10.9048
G01 X9.5561 Y10.8939
G01 X9.5452 Y10.8840
G01 X9.5333 Y10.8753
G01 X9.5207 Y10.8677
G01 X9.5074 Y10.8614
G01 X9.4935 Y10.8565
G01 X9.4793 Y10.8529
G01 X9.4647 Y10.8507
G01 X9.4500 Y10.8500
G01 X9.4353 Y10.8507
G01 X9.4207 Y10.8529
G01 X9.4065 Y10.8565
G01 X9.3926 Y10.8614
G01 X9.3793 Y10.8677
G01 X9.3667 Y10.8753
G01 X9.3548 Y10.8840
G01 X9.3439 Y10.8939
G01 X9.3340 Y10.9048
G01 X9.3253 Y10.9167
G01 X9.3177 Y10.9293
G01 X9.3114 Y10.9426
G01 X9.3065 Y10.9565
G01 X9.3029 Y10.9707
G01 X9.3007 Y10.9853
G01 X9.3000 Y11.0000
G01 X9.3007 Y11.0147
G01 X9.3029 Y11.0293
G01 X9.3065 Y11.0435
G01 X9.3114 Y11.0574
G01 X9.3177 Y11.0707
G01 X9.3253 Y11.0833
G01 X9.3340 Y11.0952
G01 X9.3439 Y11.1061
G01 X9.3548 Y11.1160
G01 X9.3667 Y11.1247
G01 X9.3793 Y11.1323
G01 X9.3926 Y11.1386
G01 X9.4065 Y11.1435
G01 X9.4207 Y11.1471
G01 X9.4353 Y11.1493
G01 X9.4500 Y11.1500
G01 X9.4647 Y11.1493
G01 X9.4793 Y11.1471
G01 X9.4935 Y11.1435
G01 X9.5074 Y11.1386
G01 X9.5207 Y11.1323
G01 X9.5333 Y11.1247
G01 X9.5452 Y11.1160
G01 X9.5561 Y11.1061
G01 X9.5660 Y11.0952
G01 X9.5747 Y11.0833
G01 X9.5823 Y11.0707
G01 X9.5886 Y11.0574
G01 X9.5935 Y11.0435
G01 X9.5971 Y11.0293
G01 X9.5993 Y11.0147
G01 X9.6000 Y11.0000
G00 X9.6000 Y11.0000
G01 F100.00
G01 Z-0.8000
G01 F100.00
G01 X9.5993 Y10.9853
G01 X9.5971 Y10.9707
G01 X9.5935 Y10.9565
G01 X9.5886 Y10.9426
G01 X9.5823 Y10.9293
G01 X9.5747 Y10.9167
G01 X9.5660 Y10.9048
G01 X9.5561 Y10.8939
G01 X9.5452 Y10.8840
G01 X9.5333 Y10.8753
G01 X9.5207 Y10.8677
G01 X9.5074 Y10.8614
G01 X9.4935 Y10.8565
G01 X9.4793 Y10.8529
G01 X9.4647 Y10.8507
G01 X9.4500 Y10.8500
G01 X9.4353 Y10.8507
G01 X9.4207 Y10.8529
G01 X9.4065 Y10.8565
G01 X9.3926 Y10.8614
G01 X9.3793 Y10.8677
G01 X9.3667 Y10.8753
G01 X9.3548 Y10.8840
G01 X9.3439 Y10.8939
G01 X9.3340 Y10.9048
G01 X9.3253 Y10.9167
G01 X9.3177 Y10.9293
G01 X9.3114 Y10.9426
G01 X9.3065 Y10.9565
G01 X9.3029 Y10.9707
G01 X9.3007 Y10.9853
G01 X9.3000 Y11.0000
G01 X9.3007 Y11.0147
G01 X9.3029 Y11.0293
G01 X9.3065 Y11.0435
G01 X9.3114 Y11.0574
G01 X9.3177 Y11.0707
G01 X9.3253 Y11.0833
G01 X9.3340 Y11.0952
G01 X9.3439 Y11.1061
G01 X9.3548 Y11.1160
G01 X9.3667 Y11.1247
G01 X9.3793 Y11.1323
G01 X9.3926 Y11.1386
G01 X9.4065 Y11.1435
G01 X9.4207 Y11.1471
G01 X9.4353 Y11.1493
G01 X9.4500 Y11.1500
G01 X9.4647 Y11.1493
G01 X9.4793 Y11.1471
G01 X9.4935 Y11.1435
G01 X9.5074 Y11.1386
G01 X9.5207 Y11.1323
G01 X9.5333 Y11.1247
G01 X9.5452 Y11.1160
G01 X9.5561 Y11.1061
G01 X9.5660 Y11.0952
G01 X9.5747 Y11.0833
G01 X9.5823 Y11.0707
G01 X9.5886 Y11.0574
G01 X9.5935 Y11.0435
G01 X9.5971 Y11.0293
G01 X9.5993 Y11.0147
G01 X9.6000 Y11.0000
G00 X9.6000 Y11.0000
G01 F100.00
G01 Z-1.0000
G01 F100.00
G01 X9.5993 Y10.9853
G01 X9.5971 Y10.9707
G01 X9.5935 Y10.9565
G01 X9.5886 Y10.9426
G01 X9.5823 Y10.9293
G01 X9.5747 Y10.9167
G01 X9.5660 Y10.9048
G01 X9.5561 Y10.8939
G01 X9.5452 Y10.8840
G01 X9.5333 Y10.8753
G01 X9.5207 Y10.8677
G01 X9.5074 Y10.8614
G01 X9.4935 Y10.8565
G01 X9.4793 Y10.8529
G01 X9.4647 Y10.8507
G01 X9.4500 Y10.8500
G01 X9.4353 Y10.8507
G01 X9.4207 Y10.8529
G01 X9.4065 Y10.8565
G01 X9.3926 Y10.8614
G01 X9.3793 Y10.8677
G01 X9.3667 Y10.8753
G01 X9.3548 Y10.8840
G01 X9.3439 Y10.8939
G01 X9.3340 Y10.9048
G01 X9.3253 Y10.9167
G01 X9.3177 Y10.9293
G01 X9.3114 Y10.9426
G01 X9.3065 Y10.9565
G01 X9.3029 Y10.9707
G01 X9.3007 Y10.9853
G01 X9.3000 Y11.0000
G01 X9.3007 Y11.0147
G01 X9.3029 Y11.0293
G01 X9.3065 Y11.0435
G01 X9.3114 Y11.0574
G01 X9.3177 Y11.0707
G01 X9.3253 Y11.0833
G01 X9.3340 Y11.0952
G01 X9.3439 Y11.1061
G01 X9.3548 Y11.1160
G01 X9.3667 Y11.1247
G01 X9.3793 Y11.1323
G01 X9.3926 Y11.1386
G01 X9.4065 Y11.1435
G01 X9.4207 Y11.1471
G01 X9.4353 Y11.1493
G01 X9.4500 Y11.1500
G01 X9.4647 Y11.1493
G01 X9.4793 Y11.1471
G01 X9.4935 Y11.1435
G01 X9.5074 Y11.1386
G01 X9.5207 Y11.1323
G01 X9.5333 Y11.1247
G01 X9.5452 Y11.1160
G01 X9.5561 Y11.1061
G01 X9.5660 Y11.0952
G01 X9.5747 Y11.0833
G01 X9.5823 Y11.0707
G01 X9.5886 Y11.0574
G01 X9.5935 Y11.0435
G01 X9.5971 Y11.0293
G01 X9.5993 Y11.0147
G01 X9.6000 Y11.0000
G00 X9.6000 Y11.0000
G01 F100.00
G01 Z-1.2000
G01 F100.00
G01 X9.5993 Y10.9853
G01 X9.5971 Y10.9707
G01 X9.5935 Y10.9565
G01 X9.5886 Y10.9426
G01 X9.5823 Y10.9293
G01 X9.5747 Y10.9167
G01 X9.5660 Y10.9048
G01 X9.5561 Y10.8939
G01 X9.5452 Y10.8840
G01 X9.5333 Y10.8753
G01 X9.5207 Y10.8677
G01 X9.5074 Y10.8614
G01 X9.4935 Y10.8565
G01 X9.4793 Y10.8529
G01 X9.4647 Y10.8507
G01 X9.4500 Y10.8500
G01 X9.4353 Y10.8507
G01 X9.4207 Y10.8529
G01 X9.4065 Y10.8565
G01 X9.3926 Y10.8614
G01 X9.3793 Y10.8677
G01 X9.3667 Y10.8753
G01 X9.3548 Y10.8840
G01 X9.3439 Y10.8939
G01 X9.3340 Y10.9048
G01 X9.3253 Y10.9167
G01 X9.3177 Y10.9293
G01 X9.3114 Y10.9426
G01 X9.3065 Y10.9565
G01 X9.3029 Y10.9707
G01 X9.3007 Y10.9853
G01 X9.3000 Y11.0000
G01 X9.3007 Y11.0147
G01 X9.3029 Y11.0293
G01 X9.3065 Y11.0435
G01 X9.3114 Y11.0574
G01 X9.3177 Y11.0707
G01 X9.3253 Y11.0833
G01 X9.3340 Y11.0952
G01 X9.3439 Y11.1061
G01 X9.3548 Y11.1160
G01 X9.3667 Y11.1247
G01 X9.3793 Y11.1323
G01 X9.3926 Y11.1386
G01 X9.4065 Y11.1435
G01 X9.4207 Y11.1471
G01 X9.4353 Y11.1493
G01 X9.4500 Y11.1500
G01 X9.4647 Y11.1493
G01 X9.4793 Y11.1471
G01 X9.4935 Y11.1435
G01 X9.5074 Y11.1386
G01 X9.5207 Y11.1323
G01 X9.5333 Y11.1247
G01 X9.5452 Y11.1160
G01 X9.5561 Y11.1061
G01 X9.5660 Y11.0952
G01 X9.5747 Y11.0833
G01 X9.5823 Y11.0707
G01 X9.5886 Y11.0574
G01 X9.5935 Y11.0435
G01 X9.5971 Y11.0293
G01 X9.5993 Y11.0147
G01 X9.6000 Y11.0000
G00 X9.6000 Y11.0000
G01 F100.00
G01 Z-1.4000
G01 F100.00
G01 X9.5993 Y10.9853
G01 X9.5971 Y10.9707
G01 X9.5935 Y10.9565
G01 X9.5886 Y10.9426
G01 X9.5823 Y10.9293
G01 X9.5747 Y10.9167
G01 X9.5660 Y10.9048
G01 X9.5561 Y10.8939
G01 X9.5452 Y10.8840
G01 X9.5333 Y10.8753
G01 X9.5207 Y10.8677
G01 X9.5074 Y10.8614
G01 X9.4935 Y10.8565
G01 X9.4793 Y10.8529
G01 X9.4647 Y10.8507
G01 X9.4500 Y10.8500
G01 X9.4353 Y10.8507
G01 X9.4207 Y10.8529
G01 X9.4065 Y10.8565
G01 X9.3926 Y10.8614
G01 X9.3793 Y10.8677
G01 X9.3667 Y10.8753
G01 X9.3548 Y10.8840
G01 X9.3439 Y10.8939
G01 X9.3340 Y10.9048
G01 X9.3253 Y10.9167
G01 X9.3177 Y10.9293
G01 X9.3114 Y10.9426
G01 X9.3065 Y10.9565
G01 X9.3029 Y10.9707
G01 X9.3007 Y10.9853
G01 X9.3000 Y11.0000
G01 X9.3007 Y11.0147
G01 X9.3029 Y11.0293
G01 X9.3065 Y11.0435
G01 X9.3114 Y11.0574
G01 X9.3177 Y11.0707
G01 X9.3253 Y11.0833
G01 X9.3340 Y11.0952
G01 X9.3439 Y11.1061
G01 X9.3548 Y11.1160
G01 X9.3667 Y11.1247
G01 X9.3793 Y11.1323
G01 X9.3926 Y11.1386
G01 X9.4065 Y11.1435
G01 X9.4207 Y11.1471
G01 X9.4353 Y11.1493
G01 X9.4500 Y11.1500
G01 X9.4647 Y11.1493
G01 X9.4793 Y11.1471
G01 X9.4935 Y11.1435
G01 X9.5074 Y11.1386
G01 X9.5207 Y11.1323
G01 X9.5333 Y11.1247
G01 X9.5452 Y11.1160
G01 X9.5561 Y11.1061
G01 X9.5660 Y11.0952
G01 X9.5747 Y11.0833
G01 X9.5823 Y11.0707
G01 X9.5886 Y11.0574
G01 X9.5935 Y11.0435
G01 X9.5971 Y11.0293
G01 X9.5993 Y11.0147
G01 X9.6000 Y11.0000
G00 X9.6000 Y11.0000
G01 F100.00
G01 Z-1.6000
G01 F100.00
G01 X9.5993 Y10.9853
G01 X9.5971 Y10.9707
G01 X9.5935 Y10.9565
G01 X9.5886 Y10.9426
G01 X9.5823 Y10.9293
G01 X9.5747 Y10.9167
G01 X9.5660 Y10.9048
G01 X9.5561 Y10.8939
G01 X9.5452 Y10.8840
G01 X9.5333 Y10.8753
G01 X9.5207 Y10.8677
G01 X9.5074 Y10.8614
G01 X9.4935 Y10.8565
G01 X9.4793 Y10.8529
G01 X9.4647 Y10.8507
G01 X9.4500 Y10.8500
G01 X9.4353 Y10.8507
G01 X9.4207 Y10.8529
G01 X9.4065 Y10.8565
G01 X9.3926 Y10.8614
G01 X9.3793 Y10.8677
G01 X9.3667 Y10.8753
G01 X9.3548 Y10.8840
G01 X9.3439 Y10.8939
G01 X9.3340 Y10.9048
G01 X9.3253 Y10.9167
G01 X9.3177 Y10.9293
G01 X9.3114 Y10.9426
G01 X9.3065 Y10.9565
G01 X9.3029 Y10.9707
G01 X9.3007 Y10.9853
G01 X9.3000 Y11.0000
G01 X9.3007 Y11.0147
G01 X9.3029 Y11.0293
G01 X9.3065 Y11.0435
G01 X9.3114 Y11.0574
G01 X9.3177 Y11.0707
G01 X9.3253 Y11.0833
G01 X9.3340 Y11.0952
G01 X9.3439 Y11.1061
G01 X9.3548 Y11.1160
G01 X9.3667 Y11.1247
G01 X9.3793 Y11.1323
G01 X9.3926 Y11.1386
G01 X9.4065 Y11.1435
G01 X9.4207 Y11.1471
G01 X9.4353 Y11.1493
G01 X9.4500 Y11.1500
G01 X9.4647 Y11.1493
G01 X9.4793 Y11.1471
G01 X9.4935 Y11.1435
G01 X9.5074 Y11.1386
G01 X9.5207 Y11.1323
G01 X9.5333 Y11.1247
G01 X9.5452 Y11.1160
G01 X9.5561 Y11.1061
G01 X9.5660 Y11.0952
G01 X9.5747 Y11.0833
G01 X9.5823 Y11.0707
G01 X9.5886 Y11.0574
G01 X9.5935 Y11.0435
G01 X9.5971 Y11.0293
G01 X9.5993 Y11.0147
G01 X9.6000 Y11.0000
G00 X9.6000 Y11.0000
G01 F100.00
G01 Z-1.8000
G01 F100.00
G01 X9.5993 Y10.9853
G01 X9.5971 Y10.9707
G01 X9.5935 Y10.9565
G01 X9.5886 Y10.9426
G01 X9.5823 Y10.9293
G01 X9.5747 Y10.9167
G01 X9.5660 Y10.9048
G01 X9.5561 Y10.8939
G01 X9.5452 Y10.8840
G01 X9.5333 Y10.8753
G01 X9.5207 Y10.8677
G01 X9.5074 Y10.8614
G01 X9.4935 Y10.8565
G01 X9.4793 Y10.8529
G01 X9.4647 Y10.8507
G01 X9.4500 Y10.8500
G01 X9.4353 Y10.8507
G01 X9.4207 Y10.8529
G01 X9.4065 Y10.8565
G01 X9.3926 Y10.8614
G01 X9.3793 Y10.8677
G01 X9.3667 Y10.8753
G01 X9.3548 Y10.8840
G01 X9.3439 Y10.8939
G01 X9.3340 Y10.9048
G01 X9.3253 Y10.9167
G01 X9.3177 Y10.9293
G01 X9.3114 Y10.9426
G01 X9.3065 Y10.9565
G01 X9.3029 Y10.9707
G01 X9.3007 Y10.9853
G01 X9.3000 Y11.0000
G01 X9.3007 Y11.0147
G01 X9.3029 Y11.0293
G01 X9.3065 Y11.0435
G01 X9.3114 Y11.0574
G01 X9.3177 Y11.0707
G01 X9.3253 Y11.0833
G01 X9.3340 Y11.0952
G01 X9.3439 Y11.1061
G01 X9.3548 Y11.1160
G01 X9.3667 Y11.1247
G01 X9.3793 Y11.1323
G01 X9.3926 Y11.1386
G01 X9.4065 Y11.1435
G01 X9.4207 Y11.1471
G01 X9.4353 Y11.1493
G01 X9.4500 Y11.1500
G01 X9.4647 Y11.1493
G01 X9.4793 Y11.1471
G01 X9.4935 Y11.1435
G01 X9.5074 Y11.1386
G01 X9.5207 Y11.1323
G01 X9.5333 Y11.1247
G01 X9.5452 Y11.1160
G01 X9.5561 Y11.1061
G01 X9.5660 Y11.0952
G01 X9.5747 Y11.0833
G01 X9.5823 Y11.0707
G01 X9.5886 Y11.0574
G01 X9.5935 Y11.0435
G01 X9.5971 Y11.0293
G01 X9.5993 Y11.0147
G01 X9.6000 Y11.0000
G00 X9.6000 Y11.0000
G01 F100.00
G01 Z-2.0000
G01 F100.00
G01 X9.5993 Y10.9853
G01 X9.5971 Y10.9707
G01 X9.5935 Y10.9565
G01 X9.5886 Y10.9426
G01 X9.5823 Y10.9293
G01 X9.5747 Y10.9167
G01 X9.5660 Y10.9048
G01 X9.5561 Y10.8939
G01 X9.5452 Y10.8840
G01 X9.5333 Y10.8753
G01 X9.5207 Y10.8677
G01 X9.5074 Y10.8614
G01 X9.4935 Y10.8565
G01 X9.4793 Y10.8529
G01 X9.4647 Y10.8507
G01 X9.4500 Y10.8500
G01 X9.4353 Y10.8507
G01 X9.4207 Y10.8529
G01 X9.4065 Y10.8565
G01 X9.3926 Y10.8614
G01 X9.3793 Y10.8677
G01 X9.3667 Y10.8753
G01 X9.3548 Y10.8840
G01 X9.3439 Y10.8939
G01 X9.3340 Y10.9048
G01 X9.3253 Y10.9167
G01 X9.3177 Y10.9293
G01 X9.3114 Y10.9426
G01 X9.3065 Y10.9565
G01 X9.3029 Y10.9707
G01 X9.3007 Y10.9853
G01 X9.3000 Y11.0000
G01 X9.3007 Y11.0147
G01 X9.3029 Y11.0293
G01 X9.3065 Y11.0435
G01 X9.3114 Y11.0574
G01 X9.3177 Y11.0707
G01 X9.3253 Y11.0833
G01 X9.3340 Y11.0952
G01 X9.3439 Y11.1061
G01 X9.3548 Y11.1160
G01 X9.3667 Y11.1247
G01 X9.3793 Y11.1323
G01 X9.3926 Y11.1386
G01 X9.4065 Y11.1435
G01 X9.4207 Y11.1471
G01 X9.4353 Y11.1493
G01 X9.4500 Y11.1500
G01 X9.4647 Y11.1493
G01 X9.4793 Y11.1471
G01 X9.4935 Y11.1435
G01 X9.5074 Y11.1386
G01 X9.5207 Y11.1323
G01 X9.5333 Y11.1247
G01 X9.5452 Y11.1160
G01 X9.5561 Y11.1061
G01 X9.5660 Y11.0952
G01 X9.5747 Y11.0833
G01 X9.5823 Y11.0707
G01 X9.5886 Y11.0574
G01 X9.5935 Y11.0435
G01 X9.5971 Y11.0293
G01 X9.5993 Y11.0147
G01 X9.6000 Y11.0000
G00 Z2.0000
G00 X8.5980 Y9.6210
G01 F100.00
G01 Z-0.2000
G01 F100.00
G01 X8.5973 Y9.6063
G01 X8.5951 Y9.5917
G01 X8.5915 Y9.5775
G01 X8.5866 Y9.5636
G01 X8.5803 Y9.5503
G01 X8.5727 Y9.5377
G01 X8.5640 Y9.5258
G01 X8.5541 Y9.5149
G01 X8.5432 Y9.5050
G01 X8.5313 Y9.4963
G01 X8.5187 Y9.4887
G01 X8.5054 Y9.4824
G01 X8.4915 Y9.4775
G01 X8.4773 Y9.4739
G01 X8.4627 Y9.4717
G01 X8.4480 Y9.4710
G01 X8.4333 Y9.4717
G01 X8.4187 Y9.4739
G01 X8.4045 Y9.4775
G01 X8.3906 Y9.4824
G01 X8.3773 Y9.4887
G01 X8.3647 Y9.4963
G01 X8.3528 Y9.5050
G01 X8.3419 Y9.5149
G01 X8.3320 Y9.5258
G01 X8.3233 Y9.5377
G01 X8.3157 Y9.5503
G01 X8.3094 Y9.5636
G01 X8.3045 Y9.5775
G01 X8.3009 Y9.5917
G01 X8.2987 Y9.6063
G01 X8.2980 Y9.6210
G01 X8.2987 Y9.6357
G01 X8.3009 Y9.6503
G01 X8.3045 Y9.6645
G01 X8.3094 Y9.6784
G01 X8.3157 Y9.6917
G01 X8.3233 Y9.7043
G01 X8.3320 Y9.7162
G01 X8.3419 Y9.7271
G01 X8.3528 Y9.7370
G01 X8.3647 Y9.7457
G01 X8.3773 Y9.7533
G01 X8.3906 Y9.7596
G01 X8.4045 Y9.7645
G01 X8.4187 Y9.7681
G01 X8.4333 Y9.7703
G01 X8.4480 Y9.7710
G01 X8.4627 Y9.7703
G01 X8.4773 Y9.7681
G01 X8.4915 Y9.7645
G01 X8.5054 Y9.7596
G01 X8.5187 Y9.7533
G01 X8.5313 Y9.7457
G01 X8.5432 Y9.7370
G01 X8.5541 Y9.7271
G01 X8.5640 Y9.7162
G01 X8.5727 Y9.7043
G01 X8.5803 Y9.6917
G01 X8.5866 Y9.6784
G01 X8.5915 Y9.6645
G01 X8.5951 Y9.6503
G01 X8.5973 Y9.6357
G01 X8.5980 Y9.6210
G00 X8.5980 Y9.6210
G01 F100.00
G01 Z-0.4000
G01 F100.00
G01 X8.5973 Y9.6063
G01 X8.5951 Y9.5917
G01 X8.5915 Y9.5775
G01 X8.5866 Y9.5636
G01 X8.5803 Y9.5503
G01 X8.5727 Y9.5377
G01 X8.5640 Y9.5258
G01 X8.5541 Y9.5149
G01 X8.5432 Y9.5050
G01 X8.5313 Y9.4963
G01 X8.5187 Y9.4887
G01 X8.5054 Y9.4824
G01 X8.4915 Y9.4775
G01 X8.4773 Y9.4739
G01 X8.4627 Y9.4717
G01 X8.4480 Y9.4710
G01 X8.4333 Y9.4717
G01 X8.4187 Y9.4739
G01 X8.4045 Y9.4775
G01 X8.3906 Y9.4824
G01 X8.3773 Y9.4887
G01 X8.3647 Y9.4963
G01 X8.3528 Y9.5050
G01 X8.3419 Y9.5149
G01 X8.3320 Y9.5258
G01 X8.3233 Y9.5377
G01 X8.3157 Y9.5503
G01 X8.3094 Y9.5636
G01 X8.3045 Y9.5775
G01 X8.3009 Y9.5917
G01 X8.2987 Y9.6063
G01 X8.2980 Y9.6210
G01 X8.2987 Y9.6357
G01 X8.3009 Y9.6503
G01 X8.3045 Y9.6645
G01 X8.3094 Y9.6784
G01 X8.3157 Y9.6917
G01 X8.3233 Y9.7043
G01 X8.3320 Y9.7162
G01 X8.3419 Y9.7271
G01 X8.3528 Y9.7370
G01 X8.3647 Y9.7457
G01 X8.3773 Y9.7533
G01 X8.3906 Y9.7596
G01 X8.4045 Y9.7645
G01 X8.4187 Y9.7681
G01 X8.4333 Y9.7703
G01 X8.4480 Y9.7710
G01 X8.4627 Y9.7703
G01 X8.4773 Y9.7681
G01 X8.4915 Y9.7645
G01 X8.5054 Y9.7596
G01 X8.5187 Y9.7533
G01 X8.5313 Y9.7457
G01 X8.5432 Y9.7370
G01 X8.5541 Y9.7271
G01 X8.5640 Y9.7162
G01 X8.5727 Y9.7043
G01 X8.5803 Y9.6917
G01 X8.5866 Y9.6784
G01 X8.5915 Y9.6645
G01 X8.5951 Y9.6503
G01 X8.5973 Y9.6357
G01 X8.5980 Y9.6210
G00 X8.5980 Y9.6210
G01 F100.00
G01 Z-0.6000
G01 F100.00
G01 X8.5973 Y9.6063
G01 X8.5951 Y9.5917
G01 X8.5915 Y9.5775
G01 X8.5866 Y9.5636
G01 X8.5803 Y9.5503
G01 X8.5727 Y9.5377
G01 X8.5640 Y9.5258
G01 X8.5541 Y9.5149
G01 X8.5432 Y9.5050
G01 X8.5313 Y9.4963
G01 X8.5187 Y9.4887
G01 X8.5054 Y9.4824
G01 X8.4915 Y9.4775
G01 X8.4773 Y9.4739
G01 X8.4627 Y9.4717
G01 X8.4480 Y9.4710
G01 X8.4333 Y9.4717
G01 X8.4187 Y9.4739
G01 X8.4045 Y9.4775
G01 X8.3906 Y9.4824
G01 X8.3773 Y9.4887
G01 X8.3647 Y9.4963
G01 X8.3528 Y9.5050
G01 X8.3419 Y9.5149
G01 X8.3320 Y9.5258
G01 X8.3233 Y9.5377
G01 X8.3157 Y9.5503
G01 X8.3094 Y9.5636
G01 X8.3045 Y9.5775
G01 X8.3009 Y9.5917
G01 X8.2987 Y9.6063
G01 X8.2980 Y9.6210
G01 X8.2987 Y9.6357
G01 X8.3009 Y9.6503
G01 X8.3045 Y9.6645
G01 X8.3094 Y9.6784
G01 X8.3157 Y9.6917
G01 X8.3233 Y9.7043
G01 X8.3320 Y9.7162
G01 X8.3419 Y9.7271
G01 X8.3528 Y9.7370
G01 X8.3647 Y9.7457
G01 X8.3773 Y9.7533
G01 X8.3906 Y9.7596
G01 X8.4045 Y9.7645
G01 X8.4187 Y9.7681
G01 X8.4333 Y9.7703
G01 X8.4480 Y9.7710
G01 X8.4627 Y9.7703
G01 X8.4773 Y9.7681
G01 X8.4915 Y9.7645
G01 X8.5054 Y9.7596
G01 X8.5187 Y9.7533
G01 X8.5313 Y9.7457
G01 X8.5432 Y9.7370
G01 X8.5541 Y9.7271
G01 X8.5640 Y9.7162
G01 X8.5727 Y9.7043
G01 X8.5803 Y9.6917
G01 X8.5866 Y9.6784
G01 X8.5915 Y9.6645
G01 X8.5951 Y9.6503
G01 X8.5973 Y9.6357
G01 X8.5980 Y9.6210
G00 X8.5980 Y9.6210
G01 F100.00
G01 Z-0.8000
G01 F100.00
G01 X8.5973 Y9.6063
G01 X8.5951 Y9.5917
G01 X8.5915 Y9.5775
G01 X8.5866 Y9.5636
G01 X8.5803 Y9.5503
G01 X8.5727 Y9.5377
G01 X8.5640 Y9.5258
G01 X8.5541 Y9.5149
G01 X8.5432 Y9.5050
G01 X8.5313 Y9.4963
G01 X8.5187 Y9.4887
G01 X8.5054 Y9.4824
G01 X8.4915 Y9.4775
G01 X8.4773 Y9.4739
G01 X8.4627 Y9.4717
G01 X8.4480 Y9.4710
G01 X8.4333 Y9.4717
G01 X8.4187 Y9.4739
G01 X8.4045 Y9.4775
G01 X8.3906 Y9.4824
G01 X8.3773 Y9.4887
G01 X8.3647 Y9.4963
G01 X8.3528 Y9.5050
G01 X8.3419 Y9.5149
G01 X8.3320 Y9.5258
G01 X8.3233 Y9.5377
G01 X8.3157 Y9.5503
G01 X8.3094 Y9.5636
G01 X8.3045 Y9.5775
G01 X8.3009 Y9.5917
G01 X8.2987 Y9.6063
G01 X8.2980 Y9.6210
G01 X8.2987 Y9.6357
G01 X8.3009 Y9.6503
G01 X8.3045 Y9.6645
G01 X8.3094 Y9.6784
G01 X8.3157 Y9.6917
G01 X8.3233 Y9.7043
G01 X8.3320 Y9.7162
G01 X8.3419 Y9.7271
G01 X8.3528 Y9.7370
G01 X8.3647 Y9.7457
G01 X8.3773 Y9.7533
G01 X8.3906 Y9.7596
G01 X8.4045 Y9.7645
G01 X8.4187 Y9.7681
G01 X8.4333 Y9.7703
G01 X8.4480 Y9.7710
G01 X8.4627 Y9.7703
G01 X8.4773 Y9.7681
G01 X8.4915 Y9.7645
G01 X8.5054 Y9.7596
G01 X8.5187 Y9.7533
G01 X8.5313 Y9.7457
G01 X8.5432 Y9.7370
G01 X8.5541 Y9.7271
G01 X8.5640 Y9.7162
G01 X8.5727 Y9.7043
G01 X8.5803 Y9.6917
G01 X8.5866 Y9.6784
G01 X8.5915 Y9.6645
G01 X8.5951 Y9.6503
G01 X8.5973 Y9.6357
G01 X8.5980 Y9.6210
G00 X8.5980 Y9.6210
G01 F100.00
G01 Z-1.0000
G01 F100.00
G01 X8.5973 Y9.6063
G01 X8.5951 Y9.5917
G01 X8.5915 Y9.5775
G01 X8.5866 Y9.5636
G01 X8.5803 Y9.5503
G01 X8.5727 Y9.5377
G01 X8.5640 Y9.5258
G01 X8.5541 Y9.5149
G01 X8.5432 Y9.5050
G01 X8.5313 Y9.4963
G01 X8.5187 Y9.4887
G01 X8.5054 Y9.4824
G01 X8.4915 Y9.4775
G01 X8.4773 Y9.4739
G01 X8.4627 Y9.4717
G01 X8.4480 Y9.4710
G01 X8.4333 Y9.4717
G01 X8.4187 Y9.4739
G01 X8.4045 Y9.4775
G01 X8.3906 Y9.4824
G01 X8.3773 Y9.4887
G01 X8.3647 Y9.4963
G01 X8.3528 Y9.5050
G01 X8.3419 Y9.5149
G01 X8.3320 Y9.5258
G01 X8.3233 Y9.5377
G01 X8.3157 Y9.5503
G01 X8.3094 Y9.5636
G01 X8.3045 Y9.5775
G01 X8.3009 Y9.5917
G01 X8.2987 Y9.6063
G01 X8.2980 Y9.6210
G01 X8.2987 Y9.6357
G01 X8.3009 Y9.6503
G01 X8.3045 Y9.6645
G01 X8.3094 Y9.6784
G01 X8.3157 Y9.6917
G01 X8.3233 Y9.7043
G01 X8.3320 Y9.7162
G01 X8.3419 Y9.7271
G01 X8.3528 Y9.7370
G01 X8.3647 Y9.7457
G01 X8.3773 Y9.7533
G01 X8.3906 Y9.7596
G01 X8.4045 Y9.7645
G01 X8.4187 Y9.7681
G01 X8.4333 Y9.7703
G01 X8.4480 Y9.7710
G01 X8.4627 Y9.7703
G01 X8.4773 Y9.7681
G01 X8.4915 Y9.7645
G01 X8.5054 Y9.7596
G01 X8.5187 Y9.7533
G01 X8.5313 Y9.7457
G01 X8.5432 Y9.7370
G01 X8.5541 Y9.7271
G01 X8.5640 Y9.7162
G01 X8.5727 Y9.7043
G01 X8.5803 Y9.6917
G01 X8.5866 Y9.6784
G01 X8.5915 Y9.6645
G01 X8.5951 Y9.6503
G01 X8.5973 Y9.6357
G01 X8.5980 Y9.6210
G00 X8.5980 Y9.6210
G01 F100.00
G01 Z-1.2000
G01 F100.00
G01 X8.5973 Y9.6063
G01 X8.5951 Y9.5917
G01 X8.5915 Y9.5775
G01 X8.5866 Y9.5636
G01 X8.5803 Y9.5503
G01 X8.5727 Y9.5377
G01 X8.5640 Y9.5258
G01 X8.5541 Y9.5149
G01 X8.5432 Y9.5050
G01 X8.5313 Y9.4963
G01 X8.5187 Y9.4887
G01 X8.5054 Y9.4824
G01 X8.4915 Y9.4775
G01 X8.4773 Y9.4739
G01 X8.4627 Y9.4717
G01 X8.4480 Y9.4710
G01 X8.4333 Y9.4717
G01 X8.4187 Y9.4739
G01 X8.4045 Y9.4775
G01 X8.3906 Y9.4824
G01 X8.3773 Y9.4887
G01 X8.3647 Y9.4963
G01 X8.3528 Y9.5050
G01 X8.3419 Y9.5149
G01 X8.3320 Y9.5258
G01 X8.3233 Y9.5377
G01 X8.3157 Y9.5503
G01 X8.3094 Y9.5636
G01 X8.3045 Y9.5775
G01 X8.3009 Y9.5917
G01 X8.2987 Y9.6063
G01 X8.2980 Y9.6210
G01 X8.2987 Y9.6357
G01 X8.3009 Y9.6503
G01 X8.3045 Y9.6645
G01 X8.3094 Y9.6784
G01 X8.3157 Y9.6917
G01 X8.3233 Y9.7043
G01 X8.3320 Y9.7162
G01 X8.3419 Y9.7271
G01 X8.3528 Y9.7370
G01 X8.3647 Y9.7457
G01 X8.3773 Y9.7533
G01 X8.3906 Y9.7596
G01 X8.4045 Y9.7645
G01 X8.4187 Y9.7681
G01 X8.4333 Y9.7703
G01 X8.4480 Y9.7710
G01 X8.4627 Y9.7703
G01 X8.4773 Y9.7681
G01 X8.4915 Y9.7645
G01 X8.5054 Y9.7596
G01 X8.5187 Y9.7533
G01 X8.5313 Y9.7457
G01 X8.5432 Y9.7370
G01 X8.5541 Y9.7271
G01 X8.5640 Y9.7162
G01 X8.5727 Y9.7043
G01 X8.5803 Y9.6917
G01 X8.5866 Y9.6784
G01 X8.5915 Y9.6645
G01 X8.5951 Y9.6503
G01 X8.5973 Y9.6357
G01 X8.5980 Y9.6210
G00 X8.5980 Y9.6210
G01 F100.00
G01 Z-1.4000
G01 F100.00
G01 X8.5973 Y9.6063
G01 X8.5951 Y9.5917
G01 X8.5915 Y9.5775
G01 X8.5866 Y9.5636
G01 X8.5803 Y9.5503
G01 X8.5727 Y9.5377
G01 X8.5640 Y9.5258
G01 X8.5541 Y9.5149
G01 X8.5432 Y9.5050
G01 X8.5313 Y9.4963
G01 X8.5187 Y9.4887
G01 X8.5054 Y9.4824
G01 X8.4915 Y9.4775
G01 X8.4773 Y9.4739
G01 X8.4627 Y9.4717
G01 X8.4480 Y9.4710
G01 X8.4333 Y9.4717
G01 X8.4187 Y9.4739
G01 X8.4045 Y9.4775
G01 X8.3906 Y9.4824
G01 X8.3773 Y9.4887
G01 X8.3647 Y9.4963
G01 X8.3528 Y9.5050
G01 X8.3419 Y9.5149
G01 X8.3320 Y9.5258
G01 X8.3233 Y9.5377
G01 X8.3157 Y9.5503
G01 X8.3094 Y9.5636
G01 X8.3045 Y9.5775
G01 X8.3009 Y9.5917
G01 X8.2987 Y9.6063
G01 X8.2980 Y9.6210
G01 X8.2987 Y9.6357
G01 X8.3009 Y9.6503
G01 X8.3045 Y9.6645
G01 X8.3094 Y9.6784
G01 X8.3157 Y9.6917
G01 X8.3233 Y9.7043
G01 X8.3320 Y9.7162
G01 X8.3419 Y9.7271
G01 X8.3528 Y9.7370
G01 X8.3647 Y9.7457
G01 X8.3773 Y9.7533
G01 X8.3906 Y9.7596
G01 X8.4045 Y9.7645
G01 X8.4187 Y9.7681
G01 X8.4333 Y9.7703
G01 X8.4480 Y9.7710
G01 X8.4627 Y9.7703
G01 X8.4773 Y9.7681
G01 X8.4915 Y9.7645
G01 X8.5054 Y9.7596
G01 X8.5187 Y9.7533
G01 X8.5313 Y9.7457
G01 X8.5432 Y9.7370
G01 X8.5541 Y9.7271
G01 X8.5640 Y9.7162
G01 X8.5727 Y9.7043
G01 X8.5803 Y9.6917
G01 X8.5866 Y9.6784
G01 X8.5915 Y9.6645
G01 X8.5951 Y9.6503
G01 X8.5973 Y9.6357
G01 X8.5980 Y9.6210
G00 X8.5980 Y9.6210
G01 F100.00
G01 Z-1.6000
G01 F100.00
G01 X8.5973 Y9.6063
G01 X8.5951 Y9.5917
G01 X8.5915 Y9.5775
G01 X8.5866 Y9.5636
G01 X8.5803 Y9.5503
G01 X8.5727 Y9.5377
G01 X8.5640 Y9.5258
G01 X8.5541 Y9.5149
G01 X8.5432 Y9.5050
G01 X8.5313 Y9.4963
G01 X8.5187 Y9.4887
G01 X8.5054 Y9.4824
G01 X8.4915 Y9.4775
G01 X8.4773 Y9.4739
G01 X8.4627 Y9.4717
G01 X8.4480 Y9.4710
G01 X8.4333 Y9.4717
G01 X8.4187 Y9.4739
G01 X8.4045 Y9.4775
G01 X8.3906 Y9.4824
G01 X8.3773 Y9.4887
G01 X8.3647 Y9.4963
G01 X8.3528 Y9.5050
G01 X8.3419 Y9.5149
G01 X8.3320 Y9.5258
G01 X8.3233 Y9.5377
G01 X8.3157 Y9.5503
G01 X8.3094 Y9.5636
G01 X8.3045 Y9.5775
G01 X8.3009 Y9.5917
G01 X8.2987 Y9.6063
G01 X8.2980 Y9.6210
G01 X8.2987 Y9.6357
G01 X8.3009 Y9.6503
G01 X8.3045 Y9.6645
G01 X8.3094 Y9.6784
G01 X8.3157 Y9.6917
G01 X8.3233 Y9.7043
G01 X8.3320 Y9.7162
G01 X8.3419 Y9.7271
G01 X8.3528 Y9.7370
G01 X8.3647 Y9.7457
G01 X8.3773 Y9.7533
G01 X8.3906 Y9.7596
G01 X8.4045 Y9.7645
G01 X8.4187 Y9.7681
G01 X8.4333 Y9.7703
G01 X8.4480 Y9.7710
G01 X8.4627 Y9.7703
G01 X8.4773 Y9.7681
G01 X8.4915 Y9.7645
G01 X8.5054 Y9.7596
G01 X8.5187 Y9.7533
G01 X8.5313 Y9.7457
G01 X8.5432 Y9.7370
G01 X8.5541 Y9.7271
G01 X8.5640 Y9.7162
G01 X8.5727 Y9.7043
G01 X8.5803 Y9.6917
G01 X8.5866 Y9.6784
G01 X8.5915 Y9.6645
G01 X8.5951 Y9.6503
G01 X8.5973 Y9.6357
G01 X8.5980 Y9.6210
G00 X8.5980 Y9.6210
G01 F100.00
G01 Z-1.8000
G01 F100.00
G01 X8.5973 Y9.6063
G01 X8.5951 Y9.5917
G01 X8.5915 Y9.5775
G01 X8.5866 Y9.5636
G01 X8.5803 Y9.5503
G01 X8.5727 Y9.5377
G01 X8.5640 Y9.5258
G01 X8.5541 Y9.5149
G01 X8.5432 Y9.5050
G01 X8.5313 Y9.4963
G01 X8.5187 Y9.4887
G01 X8.5054 Y9.4824
G01 X8.4915 Y9.4775
G01 X8.4773 Y9.4739
G01 X8.4627 Y9.4717
G01 X8.4480 Y9.4710
G01 X8.4333 Y9.4717
G01 X8.4187 Y9.4739
G01 X8.4045 Y9.4775
G01 X8.3906 Y9.4824
G01 X8.3773 Y9.4887
G01 X8.3647 Y9.4963
G01 X8.3528 Y9.5050
G01 X8.3419 Y9.5149
G01 X8.3320 Y9.5258
G01 X8.3233 Y9.5377
G01 X8.3157 Y9.5503
G01 X8.3094 Y9.5636
G01 X8.3045 Y9.5775
G01 X8.3009 Y9.5917
G01 X8.2987 Y9.6063
G01 X8.2980 Y9.6210
G01 X8.2987 Y9.6357
G01 X8.3009 Y9.6503
G01 X8.3045 Y9.6645
G01 X8.3094 Y9.6784
G01 X8.3157 Y9.6917
G01 X8.3233 Y9.7043
G01 X8.3320 Y9.7162
G01 X8.3419 Y9.7271
G01 X8.3528 Y9.7370
G01 X8.3647 Y9.7457
G01 X8.3773 Y9.7533
G01 X8.3906 Y9.7596
G01 X8.4045 Y9.7645
G01 X8.4187 Y9.7681
G01 X8.4333 Y9.7703
G01 X8.4480 Y9.7710
G01 X8.4627 Y9.7703
G01 X8.4773 Y9.7681
G01 X8.4915 Y9.7645
G01 X8.5054 Y9.7596
G01 X8.5187 Y9.7533
G01 X8.5313 Y9.7457
G01 X8.5432 Y9.7370
G01 X8.5541 Y9.7271
G01 X8.5640 Y9.7162
G01 X8.5727 Y9.7043
G01 X8.5803 Y9.6917
G01 X8.5866 Y9.6784
G01 X8.5915 Y9.6645
G01 X8.5951 Y9.6503
G01 X8.5973 Y9.6357
G01 X8.5980 Y9.6210
G00 X8.5980 Y9.6210
G01 F100.00
G01 Z-2.0000
G01 F100.00
G01 X8.5973 Y9.6063
G01 X8.5951 Y9.5917
G01 X8.5915 Y9.5775
G01 X8.5866 Y9.5636
G01 X8.5803 Y9.5503
G01 X8.5727 Y9.5377
G01 X8.5640 Y9.5258
G01 X8.5541 Y9.5149
G01 X8.5432 Y9.5050
G01 X8.5313 Y9.4963
G01 X8.5187 Y9.4887
G01 X8.5054 Y9.4824
G01 X8.4915 Y9.4775
G01 X8.4773 Y9.4739
G01 X8.4627 Y9.4717
G01 X8.4480 Y9.4710
G01 X8.4333 Y9.4717
G01 X8.4187 Y9.4739
G01 X8.4045 Y9.4775
G01 X8.3906 Y9.4824
G01 X8.3773 Y9.4887
G01 X8.3647 Y9.4963
G01 X8.3528 Y9.5050
G01 X8.3419 Y9.5149
G01 X8.3320 Y9.5258
G01 X8.3233 Y9.5377
G01 X8.3157 Y9.5503
G01 X8.3094 Y9.5636
G01 X8.3045 Y9.5775
G01 X8.3009 Y9.5917
G01 X8.2987 Y9.6063
G01 X8.2980 Y9.6210
G01 X8.2987 Y9.6357
G01 X8.3009 Y9.6503
G01 X8.3045 Y9.6645
G01 X8.3094 Y9.6784
G01 X8.3157 Y9.6917
G01 X8.3233 Y9.7043
G01 X8.3320 Y9.7162
G01 X8.3419 Y9.7271
G01 X8.3528 Y9.7370
G01 X8.3647 Y9.7457
G01 X8.3773 Y9.7533
G01 X8.3906 Y9.7596
G01 X8.4045 Y9.7645
G01 X8.4187 Y9.7681
G01 X8.4333 Y9.7703
G01 X8.4480 Y9.7710
G01 X8.4627 Y9.7703
G01 X8.4773 Y9.7681
G01 X8.4915 Y9.7645
G01 X8.5054 Y9.7596
G01 X8.5187 Y9.7533
G01 X8.5313 Y9.7457
G01 X8.5432 Y9.7370
G01 X8.5541 Y9.7271
G01 X8.5640 Y9.7162
G01 X8.5727 Y9.7043
G01 X8.5803 Y9.6917
G01 X8.5866 Y9.6784
G01 X8.5915 Y9.6645
G01 X8.5951 Y9.6503
G01 X8.5973 Y9.6357
G01 X8.5980 Y9.6210
G00 Z2.0000
G00 X8.1500 Y16.5000
G01 F100.00
G01 Z-0.2000
G01 F100.00
G01 X8.1493 Y16.4853
G01 X8.1471 Y16.4707
G01 X8.1435 Y16.4565
G01 X8.1386 Y16.4426
G01 X8.1323 Y16.4293
G01 X8.1247 Y16.4167
G01 X8.1160 Y16.4048
G01 X8.1061 Y16.3939
G01 X8.0952 Y16.3840
G01 X8.0833 Y16.3753
G01 X8.0707 Y16.3677
G01 X8.0574 Y16.3614
G01 X8.0435 Y16.3565
G01 X8.0293 Y16.3529
G01 X8.0147 Y16.3507
G01 X8.0000 Y16.3500
G01 X7.9853 Y16.3507
G01 X7.9707 Y16.3529
G01 X7.9565 Y16.3565
G01 X7.9426 Y16.3614
G01 X7.9293 Y16.3677
G01 X7.9167 Y16.3753
G01 X7.9048 Y16.3840
G01 X7.8939 Y16.3939
G01 X7.8840 Y16.4048
G01 X7.8753 Y16.4167
G01 X7.8677 Y16.4293
G01 X7.8614 Y16.4426
G01 X7.8565 Y16.4565
G01 X7.8529 Y16.4707
G01 X7.8507 Y16.4853
G01 X7.8500 Y16.5000
G01 X7.8507 Y16.5147
G01 X7.8529 Y16.5293
G01 X7.8565 Y16.5435
G01 X7.8614 Y16.5574
G01 X7.8677 Y16.5707
G01 X7.8753 Y16.5833
G01 X7.8840 Y16.5952
G01 X7.8939 Y16.6061
G01 X7.9048 Y16.6160
G01 X7.9167 Y16.6247
G01 X7.9293 Y16.6323
G01 X7.9426 Y16.6386
G01 X7.9565 Y16.6435
G01 X7.9707 Y16.6471
G01 X7.9853 Y16.6493
G01 X8.0000 Y16.6500
G01 X8.0147 Y16.6493
G01 X8.0293 Y16.6471
G01 X8.0435 Y16.6435
G01 X8.0574 Y16.6386
G01 X8.0707 Y16.6323
G01 X8.0833 Y16.6247
G01 X8.0952 Y16.6160
G01 X8.1061 Y16.6061
G01 X8.1160 Y16.5952
G01 X8.1247 Y16.5833
G01 X8.1323 Y16.5707
G01 X8.1386 Y16.5574
G01 X8.1435 Y16.5435
G01 X8.1471 Y16.5293
G01 X8.1493 Y16.5147
G01 X8.1500 Y16.5000
G00 X8.1500 Y16.5000
G01 F100.00
G01 Z-0.4000
G01 F100.00
G01 X8.1493 Y16.4853
G01 X8.1471 Y16.4707
G01 X8.1435 Y16.4565
G01 X8.1386 Y16.4426
G01 X8.1323 Y16.4293
G01 X8.1247 Y16.4167
G01 X8.1160 Y16.4048
G01 X8.1061 Y16.3939
G01 X8.0952 Y16.3840
G01 X8.0833 Y16.3753
G01 X8.0707 Y16.3677
G01 X8.0574 Y16.3614
G01 X8.0435 Y16.3565
G01 X8.0293 Y16.3529
G01 X8.0147 Y16.3507
G01 X8.0000 Y16.3500
G01 X7.9853 Y16.3507
G01 X7.9707 Y16.3529
G01 X7.9565 Y16.3565
G01 X7.9426 Y16.3614
G01 X7.9293 Y16.3677
G01 X7.9167 Y16.3753
G01 X7.9048 Y16.3840
G01 X7.8939 Y16.3939
G01 X7.8840 Y16.4048
G01 X7.8753 Y16.4167
G01 X7.8677 Y16.4293
G01 X7.8614 Y16.4426
G01 X7.8565 Y16.4565
G01 X7.8529 Y16.4707
G01 X7.8507 Y16.4853
G01 X7.8500 Y16.5000
G01 X7.8507 Y16.5147
G01 X7.8529 Y16.5293
G01 X7.8565 Y16.5435
G01 X7.8614 Y16.5574
G01 X7.8677 Y16.5707
G01 X7.8753 Y16.5833
G01 X7.8840 Y16.5952
G01 X7.8939 Y16.6061
G01 X7.9048 Y16.6160
G01 X7.9167 Y16.6247
G01 X7.9293 Y16.6323
G01 X7.9426 Y16.6386
G01 X7.9565 Y16.6435
G01 X7.9707 Y16.6471
G01 X7.9853 Y16.6493
G01 X8.0000 Y16.6500
G01 X8.0147 Y16.6493
G01 X8.0293 Y16.6471
G01 X8.0435 Y16.6435
G01 X8.0574 Y16.6386
G01 X8.0707 Y16.6323
G01 X8.0833 Y16.6247
G01 X8.0952 Y16.6160
G01 X8.1061 Y16.6061
G01 X8.1160 Y16.5952
G01 X8.1247 Y16.5833
G01 X8.1323 Y16.5707
G01 X8.1386 Y16.5574
G01 X8.1435 Y16.5435
G01 X8.1471 Y16.5293
G01 X8.1493 Y16.5147
G01 X8.1500 Y16.5000
G00 X8.1500 Y16.5000
G01 F100.00
G01 Z-0.6000
G01 F100.00
G01 X8.1493 Y16.4853
G01 X8.1471 Y16.4707
G01 X8.1435 Y16.4565
G01 X8.1386 Y16.4426
G01 X8.1323 Y16.4293
G01 X8.1247 Y16.4167
G01 X8.1160 Y16.4048
G01 X8.1061 Y16.3939
G01 X8.0952 Y16.3840
G01 X8.0833 Y16.3753
G01 X8.0707 Y16.3677
G01 X8.0574 Y16.3614
G01 X8.0435 Y16.3565
G01 X8.0293 Y16.3529
G01 X8.0147 Y16.3507
G01 X8.0000 Y16.3500
G01 X7.9853 Y16.3507
G01 X7.9707 Y16.3529
G01 X7.9565 Y16.3565
G01 X7.9426 Y16.3614
G01 X7.9293 Y16.3677
G01 X7.9167 Y16.3753
G01 X7.9048 Y16.3840
G01 X7.8939 Y16.3939
G01 X7.8840 Y16.4048
G01 X7.8753 Y16.4167
G01 X7.8677 Y16.4293
G01 X7.8614 Y16.4426
G01 X7.8565 Y16.4565
G01 X7.8529 Y16.4707
G01 X7.8507 Y16.4853
G01 X7.8500 Y16.5000
G01 X7.8507 Y16.5147
G01 X7.8529 Y16.5293
G01 X7.8565 Y16.5435
G01 X7.8614 Y16.5574
G01 X7.8677 Y16.5707
G01 X7.8753 Y16.5833
G01 X7.8840 Y16.5952
G01 X7.8939 Y16.6061
G01 X7.9048 Y16.6160
G01 X7.9167 Y16.6247
G01 X7.9293 Y16.6323
G01 X7.9426 Y16.6386
G01 X7.9565 Y16.6435
G01 X7.9707 Y16.6471
G01 X7.9853 Y16.6493
G01 X8.0000 Y16.6500
G01 X8.0147 Y16.6493
G01 X8.0293 Y16.6471
G01 X8.0435 Y16.6435
G01 X8.0574 Y16.6386
G01 X8.0707 Y16.6323
G01 X8.0833 Y16.6247
G01 X8.0952 Y16.6160
G01 X8.1061 Y16.6061
G01 X8.1160 Y16.5952
G01 X8.1247 Y16.5833
G01 X8.1323 Y16.5707
G01 X8.1386 Y16.5574
G01 X8.1435 Y16.5435
G01 X8.1471 Y16.5293
G01 X8.1493 Y16.5147
G01 X8.1500 Y16.5000
G00 X8.1500 Y16.5000
G01 F100.00
G01 Z-0.8000
G01 F100.00
G01 X8.1493 Y16.4853
G01 X8.1471 Y16.4707
G01 X8.1435 Y16.4565
G01 X8.1386 Y16.4426
G01 X8.1323 Y16.4293
G01 X8.1247 Y16.4167
G01 X8.1160 Y16.4048
G01 X8.1061 Y16.3939
G01 X8.0952 Y16.3840
G01 X8.0833 Y16.3753
G01 X8.0707 Y16.3677
G01 X8.0574 Y16.3614
G01 X8.0435 Y16.3565
G01 X8.0293 Y16.3529
G01 X8.0147 Y16.3507
G01 X8.0000 Y16.3500
G01 X7.9853 Y16.3507
G01 X7.9707 Y16.3529
G01 X7.9565 Y16.3565
G01 X7.9426 Y16.3614
G01 X7.9293 Y16.3677
G01 X7.9167 Y16.3753
G01 X7.9048 Y16.3840
G01 X7.8939 Y16.3939
G01 X7.8840 Y16.4048
G01 X7.8753 Y16.4167
G01 X7.8677 Y16.4293
G01 X7.8614 Y16.4426
G01 X7.8565 Y16.4565
G01 X7.8529 Y16.4707
G01 X7.8507 Y16.4853
G01 X7.8500 Y16.5000
G01 X7.8507 Y16.5147
G01 X7.8529 Y16.5293
G01 X7.8565 Y16.5435
G01 X7.8614 Y16.5574
G01 X7.8677 Y16.5707
G01 X7.8753 Y16.5833
G01 X7.8840 Y16.5952
G01 X7.8939 Y16.6061
G01 X7.9048 Y16.6160
G01 X7.9167 Y16.6247
G01 X7.9293 Y16.6323
G01 X7.9426 Y16.6386
G01 X7.9565 Y16.6435
G01 X7.9707 Y16.6471
G01 X7.9853 Y16.6493
G01 X8.0000 Y16.6500
G01 X8.0147 Y16.6493
G01 X8.0293 Y16.6471
G01 X8.0435 Y16.6435
G01 X8.0574 Y16.6386
G01 X8.0707 Y16.6323
G01 X8.0833 Y16.6247
G01 X8.0952 Y16.6160
G01 X8.1061 Y16.6061
G01 X8.1160 Y16.5952
G01 X8.1247 Y16.5833
G01 X8.1323 Y16.5707
G01 X8.1386 Y16.5574
G01 X8.1435 Y16.5435
G01 X8.1471 Y16.5293
G01 X8.1493 Y16.5147
G01 X8.1500 Y16.5000
G00 X8.1500 Y16.5000
G01 F100.00
G01 Z-1.0000
G01 F100.00
G01 X8.1493 Y16.4853
G01 X8.1471 Y16.4707
G01 X8.1435 Y16.4565
G01 X8.1386 Y16.4426
G01 X8.1323 Y16.4293
G01 X8.1247 Y16.4167
G01 X8.1160 Y16.4048
G01 X8.1061 Y16.3939
G01 X8.0952 Y16.3840
G01 X8.0833 Y16.3753
G01 X8.0707 Y16.3677
G01 X8.0574 Y16.3614
G01 X8.0435 Y16.3565
G01 X8.0293 Y16.3529
G01 X8.0147 Y16.3507
G01 X8.0000 Y16.3500
G01 X7.9853 Y16.3507
G01 X7.9707 Y16.3529
G01 X7.9565 Y16.3565
G01 X7.9426 Y16.3614
G01 X7.9293 Y16.3677
G01 X7.9167 Y16.3753
G01 X7.9048 Y16.3840
G01 X7.8939 Y16.3939
G01 X7.8840 Y16.4048
G01 X7.8753 Y16.4167
G01 X7.8677 Y16.4293
G01 X7.8614 Y16.4426
G01 X7.8565 Y16.4565
G01 X7.8529 Y16.4707
G01 X7.8507 Y16.4853
G01 X7.8500 Y16.5000
G01 X7.8507 Y16.5147
G01 X7.8529 Y16.5293
G01 X7.8565 Y16.5435
G01 X7.8614 Y16.5574
G01 X7.8677 Y16.5707
G01 X7.8753 Y16.5833
G01 X7.8840 Y16.5952
G01 X7.8939 Y16.6061
G01 X7.9048 Y16.6160
G01 X7.9167 Y16.6247
G01 X7.9293 Y16.6323
G01 X7.9426 Y16.6386
G01 X7.9565 Y16.6435
G01 X7.9707 Y16.6471
G01 X7.9853 Y16.6493
G01 X8.0000 Y16.6500
G01 X8.0147 Y16.6493
G01 X8.0293 Y16.6471
G01 X8.0435 Y16.6435
G01 X8.0574 Y16.6386
G01 X8.0707 Y16.6323
G01 X8.0833 Y16.6247
G01 X8.0952 Y16.6160
G01 X8.1061 Y16.6061
G01 X8.1160 Y16.5952
G01 X8.1247 Y16.5833
G01 X8.1323 Y16.5707
G01 X8.1386 Y16.5574
G01 X8.1435 Y16.5435
G01 X8.1471 Y16.5293
G01 X8.1493 Y16.5147
G01 X8.1500 Y16.5000
G00 X8.1500 Y16.5000
G01 F100.00
G01 Z-1.2000
G01 F100.00
G01 X8.1493 Y16.4853
G01 X8.1471 Y16.4707
G01 X8.1435 Y16.4565
G01 X8.1386 Y16.4426
G01 X8.1323 Y16.4293
G01 X8.1247 Y16.4167
G01 X8.1160 Y16.4048
G01 X8.1061 Y16.3939
G01 X8.0952 Y16.3840
G01 X8.0833 Y16.3753
G01 X8.0707 Y16.3677
G01 X8.0574 Y16.3614
G01 X8.0435 Y16.3565
G01 X8.0293 Y16.3529
G01 X8.0147 Y16.3507
G01 X8.0000 Y16.3500
G01 X7.9853 Y16.3507
G01 X7.9707 Y16.3529
G01 X7.9565 Y16.3565
G01 X7.9426 Y16.3614
G01 X7.9293 Y16.3677
G01 X7.9167 Y16.3753
G01 X7.9048 Y16.3840
G01 X7.8939 Y16.3939
G01 X7.8840 Y16.4048
G01 X7.8753 Y16.4167
G01 X7.8677 Y16.4293
G01 X7.8614 Y16.4426
G01 X7.8565 Y16.4565
G01 X7.8529 Y16.4707
G01 X7.8507 Y16.4853
G01 X7.8500 Y16.5000
G01 X7.8507 Y16.5147
G01 X7.8529 Y16.5293
G01 X7.8565 Y16.5435
G01 X7.8614 Y16.5574
G01 X7.8677 Y16.5707
G01 X7.8753 Y16.5833
G01 X7.8840 Y16.5952
G01 X7.8939 Y16.6061
G01 X7.9048 Y16.6160
G01 X7.9167 Y16.6247
G01 X7.9293 Y16.6323
G01 X7.9426 Y16.6386
G01 X7.9565 Y16.6435
G01 X7.9707 Y16.6471
G01 X7.9853 Y16.6493
G01 X8.0000 Y16.6500
G01 X8.0147 Y16.6493
G01 X8.0293 Y16.6471
G01 X8.0435 Y16.6435
G01 X8.0574 Y16.6386
G01 X8.0707 Y16.6323
G01 X8.0833 Y16.6247
G01 X8.0952 Y16.6160
G01 X8.1061 Y16.6061
G01 X8.1160 Y16.5952
G01 X8.1247 Y16.5833
G01 X8.1323 Y16.5707
G01 X8.1386 Y16.5574
G01 X8.1435 Y16.5435
G01 X8.1471 Y16.5293
G01 X8.1493 Y16.5147
G01 X8.1500 Y16.5000
G00 X8.1500 Y16.5000
G01 F100.00
G01 Z-1.4000
G01 F100.00
G01 X8.1493 Y16.4853
G01 X8.1471 Y16.4707
G01 X8.1435 Y16.4565
G01 X8.1386 Y16.4426
G01 X8.1323 Y16.4293
G01 X8.1247 Y16.4167
G01 X8.1160 Y16.4048
G01 X8.1061 Y16.3939
G01 X8.0952 Y16.3840
G01 X8.0833 Y16.3753
G01 X8.0707 Y16.3677
G01 X8.0574 Y16.3614
G01 X8.0435 Y16.3565
G01 X8.0293 Y16.3529
G01 X8.0147 Y16.3507
G01 X8.0000 Y16.3500
G01 X7.9853 Y16.3507
G01 X7.9707 Y16.3529
G01 X7.9565 Y16.3565
G01 X7.9426 Y16.3614
G01 X7.9293 Y16.3677
G01 X7.9167 Y16.3753
G01 X7.9048 Y16.3840
G01 X7.8939 Y16.3939
G01 X7.8840 Y16.4048
G01 X7.8753 Y16.4167
G01 X7.8677 Y16.4293
G01 X7.8614 Y16.4426
G01 X7.8565 Y16.4565
G01 X7.8529 Y16.4707
G01 X7.8507 Y16.4853
G01 X7.8500 Y16.5000
G01 X7.8507 Y16.5147
G01 X7.8529 Y16.5293
G01 X7.8565 Y16.5435
G01 X7.8614 Y16.5574
G01 X7.8677 Y16.5707
G01 X7.8753 Y16.5833
G01 X7.8840 Y16.5952
G01 X7.8939 Y16.6061
G01 X7.9048 Y16.6160
G01 X7.9167 Y16.6247
G01 X7.9293 Y16.6323
G01 X7.9426 Y16.6386
G01 X7.9565 Y16.6435
G01 X7.9707 Y16.6471
G01 X7.9853 Y16.6493
G01 X8.0000 Y16.6500
G01 X8.0147 Y16.6493
G01 X8.0293 Y16.6471
G01 X8.0435 Y16.6435
G01 X8.0574 Y16.6386
G01 X8.0707 Y16.6323
G01 X8.0833 Y16.6247
G01 X8.0952 Y16.6160
G01 X8.1061 Y16.6061
G01 X8.1160 Y16.5952
G01 X8.1247 Y16.5833
G01 X8.1323 Y16.5707
G01 X8.1386 Y16.5574
G01 X8.1435 Y16.5435
G01 X8.1471 Y16.5293
G01 X8.1493 Y16.5147
G01 X8.1500 Y16.5000
G00 X8.1500 Y16.5000
G01 F100.00
G01 Z-1.6000
G01 F100.00
G01 X8.1493 Y16.4853
G01 X8.1471 Y16.4707
G01 X8.1435 Y16.4565
G01 X8.1386 Y16.4426
G01 X8.1323 Y16.4293
G01 X8.1247 Y16.4167
G01 X8.1160 Y16.4048
G01 X8.1061 Y16.3939
G01 X8.0952 Y16.3840
G01 X8.0833 Y16.3753
G01 X8.0707 Y16.3677
G01 X8.0574 Y16.3614
G01 X8.0435 Y16.3565
G01 X8.0293 Y16.3529
G01 X8.0147 Y16.3507
G01 X8.0000 Y16.3500
G01 X7.9853 Y16.3507
G01 X7.9707 Y16.3529
G01 X7.9565 Y16.3565
G01 X7.9426 Y16.3614
G01 X7.9293 Y16.3677
G01 X7.9167 Y16.3753
G01 X7.9048 Y16.3840
G01 X7.8939 Y16.3939
G01 X7.8840 Y16.4048
G01 X7.8753 Y16.4167
G01 X7.8677 Y16.4293
G01 X7.8614 Y16.4426
G01 X7.8565 Y16.4565
G01 X7.8529 Y16.4707
G01 X7.8507 Y16.4853
G01 X7.8500 Y16.5000
G01 X7.8507 Y16.5147
G01 X7.8529 Y16.5293
G01 X7.8565 Y16.5435
G01 X7.8614 Y16.5574
G01 X7.8677 Y16.5707
G01 X7.8753 Y16.5833
G01 X7.8840 Y16.5952
G01 X7.8939 Y16.6061
G01 X7.9048 Y16.6160
G01 X7.9167 Y16.6247
G01 X7.9293 Y16.6323
G01 X7.9426 Y16.6386
G01 X7.9565 Y16.6435
G01 X7.9707 Y16.6471
G01 X7.9853 Y16.6493
G01 X8.0000 Y16.6500
G01 X8.0147 Y16.6493
G01 X8.0293 Y16.6471
G01 X8.0435 Y16.6435
G01 X8.0574 Y16.6386
G01 X8.0707 Y16.6323
G01 X8.0833 Y16.6247
G01 X8.0952 Y16.6160
G01 X8.1061 Y16.6061
G01 X8.1160 Y16.5952
G01 X8.1247 Y16.5833
G01 X8.1323 Y16.5707
G01 X8.1386 Y16.5574
G01 X8.1435 Y16.5435
G01 X8.1471 Y16.5293
G01 X8.1493 Y16.5147
G01 X8.1500 Y16.5000
G00 X8.1500 Y16.5000
G01 F100.00
G01 Z-1.8000
G01 F100.00
G01 X8.1493 Y16.4853
G01 X8.1471 Y16.4707
G01 X8.1435 Y16.4565
G01 X8.1386 Y16.4426
G01 X8.1323 Y16.4293
G01 X8.1247 Y16.4167
G01 X8.1160 Y16.4048
G01 X8.1061 Y16.3939
G01 X8.0952 Y16.3840
G01 X8.0833 Y16.3753
G01 X8.0707 Y16.3677
G01 X8.0574 Y16.3614
G01 X8.0435 Y16.3565
G01 X8.0293 Y16.3529
G01 X8.0147 Y16.3507
G01 X8.0000 Y16.3500
G01 X7.9853 Y16.3507
G01 X7.9707 Y16.3529
G01 X7.9565 Y16.3565
G01 X7.9426 Y16.3614
G01 X7.9293 Y16.3677
G01 X7.9167 Y16.3753
G01 X7.9048 Y16.3840
G01 X7.8939 Y16.3939
G01 X7.8840 Y16.4048
G01 X7.8753 Y16.4167
G01 X7.8677 Y16.4293
G01 X7.8614 Y16.4426
G01 X7.8565 Y16.4565
G01 X7.8529 Y16.4707
G01 X7.8507 Y16.4853
G01 X7.8500 Y16.5000
G01 X7.8507 Y16.5147
G01 X7.8529 Y16.5293
G01 X7.8565 Y16.5435
G01 X7.8614 Y16.5574
G01 X7.8677 Y16.5707
G01 X7.8753 Y16.5833
G01 X7.8840 Y16.5952
G01 X7.8939 Y16.6061
G01 X7.9048 Y16.6160
G01 X7.9167 Y16.6247
G01 X7.9293 Y16.6323
G01 X7.9426 Y16.6386
G01 X7.9565 Y16.6435
G01 X7.9707 Y16.6471
G01 X7.9853 Y16.6493
G01 X8.0000 Y16.6500
G01 X8.0147 Y16.6493
G01 X8.0293 Y16.6471
G01 X8.0435 Y16.6435
G01 X8.0574 Y16.6386
G01 X8.0707 Y16.6323
G01 X8.0833 Y16.6247
G01 X8.0952 Y16.6160
G01 X8.1061 Y16.6061
G01 X8.1160 Y16.5952
G01 X8.1247 Y16.5833
G01 X8.1323 Y16.5707
G01 X8.1386 Y16.5574
G01 X8.1435 Y16.5435
G01 X8.1471 Y16.5293
G01 X8.1493 Y16.5147
G01 X8.1500 Y16.5000
G00 X8.1500 Y16.5000
G01 F100.00
G01 Z-2.0000
G01 F100.00
G01 X8.1493 Y16.4853
G01 X8.1471 Y16.4707
G01 X8.1435 Y16.4565
G01 X8.1386 Y16.4426
G01 X8.1323 Y16.4293
G01 X8.1247 Y16.4167
G01 X8.1160 Y16.4048
G01 X8.1061 Y16.3939
G01 X8.0952 Y16.3840
G01 X8.0833 Y16.3753
G01 X8.0707 Y16.3677
G01 X8.0574 Y16.3614
G01 X8.0435 Y16.3565
G01 X8.0293 Y16.3529
G01 X8.0147 Y16.3507
G01 X8.0000 Y16.3500
G01 X7.9853 Y16.3507
G01 X7.9707 Y16.3529
G01 X7.9565 Y16.3565
G01 X7.9426 Y16.3614
G01 X7.9293 Y16.3677
G01 X7.9167 Y16.3753
G01 X7.9048 Y16.3840
G01 X7.8939 Y16.3939
G01 X7.8840 Y16.4048
G01 X7.8753 Y16.4167
G01 X7.8677 Y16.4293
G01 X7.8614 Y16.4426
G01 X7.8565 Y16.4565
G01 X7.8529 Y16.4707
G01 X7.8507 Y16.4853
G01 X7.8500 Y16.5000
G01 X7.8507 Y16.5147
G01 X7.8529 Y16.5293
G01 X7.8565 Y16.5435
G01 X7.8614 Y16.5574
G01 X7.8677 Y16.5707
G01 X7.8753 Y16.5833
G01 X7.8840 Y16.5952
G01 X7.8939 Y16.6061
G01 X7.9048 Y16.6160
G01 X7.9167 Y16.6247
G01 X7.9293 Y16.6323
G01 X7.9426 Y16.6386
G01 X7.9565 Y16.6435
G01 X7.9707 Y16.6471
G01 X7.9853 Y16.6493
G01 X8.0000 Y16.6500
G01 X8.0147 Y16.6493
G01 X8.0293 Y16.6471
G01 X8.0435 Y16.6435
G01 X8.0574 Y16.6386
G01 X8.0707 Y16.6323
G01 X8.0833 Y16.6247
G01 X8.0952 Y16.6160
G01 X8.1061 Y16.6061
G01 X8.1160 Y16.5952
G01 X8.1247 Y16.5833
G01 X8.1323 Y16.5707
G01 X8.1386 Y16.5574
G01 X8.1435 Y16.5435
G01 X8.1471 Y16.5293
G01 X8.1493 Y16.5147
G01 X8.1500 Y16.5000
G00 Z2.0000


G00 X13.5750 Y3.9500
G01 F100.00
G01 Z-0.2000
G01 F100.00
G01 X13.5736 Y3.9354
G01 X13.5693 Y3.9213
G01 X13.5624 Y3.9083
G01 X13.5530 Y3.8970
G01 X13.5417 Y3.8876
G01 X13.5287 Y3.8807
G01 X13.5146 Y3.8764
G01 X13.5000 Y3.8750
G01 X13.4854 Y3.8764
G01 X13.4713 Y3.8807
G01 X13.4583 Y3.8876
G01 X13.4470 Y3.8970
G01 X13.4376 Y3.9083
G01 X13.4307 Y3.9213
G01 X13.4264 Y3.9354
G01 X13.4250 Y3.9500
G01 X13.4264 Y3.9646
G01 X13.4307 Y3.9787
G01 X13.4376 Y3.9917
G01 X13.4470 Y4.0030
G01 X13.4583 Y4.0124
G01 X13.4713 Y4.0193
G01 X13.4854 Y4.0236
G01 X13.5000 Y4.0250
G01 X13.5146 Y4.0236
G01 X13.5287 Y4.0193
G01 X13.5417 Y4.0124
G01 X13.5530 Y4.0030
G01 X13.5624 Y3.9917
G01 X13.5693 Y3.9787
G01 X13.5736 Y3.9646
G01 X13.5750 Y3.9500
G00 X13.5750 Y3.9500
G01 F100.00
G01 Z-0.4000
G01 F100.00
G01 X13.5736 Y3.9354
G01 X13.5693 Y3.9213
G01 X13.5624 Y3.9083
G01 X13.5530 Y3.8970
G01 X13.5417 Y3.8876
G01 X13.5287 Y3.8807
G01 X13.5146 Y3.8764
G01 X13.5000 Y3.8750
G01 X13.4854 Y3.8764
G01 X13.4713 Y3.8807
G01 X13.4583 Y3.8876
G01 X13.4470 Y3.8970
G01 X13.4376 Y3.9083
G01 X13.4307 Y3.9213
G01 X13.4264 Y3.9354
G01 X13.4250 Y3.9500
G01 X13.4264 Y3.9646
G01 X13.4307 Y3.9787
G01 X13.4376 Y3.9917
G01 X13.4470 Y4.0030
G01 X13.4583 Y4.0124
G01 X13.4713 Y4.0193
G01 X13.4854 Y4.0236
G01 X13.5000 Y4.0250
G01 X13.5146 Y4.0236
G01 X13.5287 Y4.0193
G01 X13.5417 Y4.0124
G01 X13.5530 Y4.0030
G01 X13.5624 Y3.9917
G01 X13.5693 Y3.9787
G01 X13.5736 Y3.9646
G01 X13.5750 Y3.9500
G00 X13.5750 Y3.9500
G01 F100.00
G01 Z-0.6000
G01 F100.00
G01 X13.5736 Y3.9354
G01 X13.5693 Y3.9213
G01 X13.5624 Y3.9083
G01 X13.5530 Y3.8970
G01 X13.5417 Y3.8876
G01 X13.5287 Y3.8807
G01 X13.5146 Y3.8764
G01 X13.5000 Y3.8750
G01 X13.4854 Y3.8764
G01 X13.4713 Y3.8807
G01 X13.4583 Y3.8876
G01 X13.4470 Y3.8970
G01 X13.4376 Y3.9083
G01 X13.4307 Y3.9213
G01 X13.4264 Y3.9354
G01 X13.4250 Y3.9500
G01 X13.4264 Y3.9646
G01 X13.4307 Y3.9787
G01 X13.4376 Y3.9917
G01 X13.4470 Y4.0030
G01 X13.4583 Y4.0124
G01 X13.4713 Y4.0193
G01 X13.4854 Y4.0236
G01 X13.5000 Y4.0250
G01 X13.5146 Y4.0236
G01 X13.5287 Y4.0193
G01 X13.5417 Y4.0124
G01 X13.5530 Y4.0030
G01 X13.5624 Y3.9917
G01 X13.5693 Y3.9787
G01 X13.5736 Y3.9646
G01 X13.5750 Y3.9500
G00 X13.5750 Y3.9500
G01 F100.00
G01 Z-0.8000
G01 F100.00
G01 X13.5736 Y3.9354
G01 X13.5693 Y3.9213
G01 X13.5624 Y3.9083
G01 X13.5530 Y3.8970
G01 X13.5417 Y3.8876
G01 X13.5287 Y3.8807
G01 X13.5146 Y3.8764
G01 X13.5000 Y3.8750
G01 X13.4854 Y3.8764
G01 X13.4713 Y3.8807
G01 X13.4583 Y3.8876
G01 X13.4470 Y3.8970
G01 X13.4376 Y3.9083
G01 X13.4307 Y3.9213
G01 X13.4264 Y3.9354
G01 X13.4250 Y3.9500
G01 X13.4264 Y3.9646
G01 X13.4307 Y3.9787
G01 X13.4376 Y3.9917
G01 X13.4470 Y4.0030
G01 X13.4583 Y4.0124
G01 X13.4713 Y4.0193
G01 X13.4854 Y4.0236
G01 X13.5000 Y4.0250
G01 X13.5146 Y4.0236
G01 X13.5287 Y4.0193
G01 X13.5417 Y4.0124
G01 X13.5530 Y4.0030
G01 X13.5624 Y3.9917
G01 X13.5693 Y3.9787
G01 X13.5736 Y3.9646
G01 X13.5750 Y3.9500
G00 X13.5750 Y3.9500
G01 F100.00
G01 Z-1.0000
G01 F100.00
G01 X13.5736 Y3.9354
G01 X13.5693 Y3.9213
G01 X13.5624 Y3.9083
G01 X13.5530 Y3.8970
G01 X13.5417 Y3.8876
G01 X13.5287 Y3.8807
G01 X13.5146 Y3.8764
G01 X13.5000 Y3.8750
G01 X13.4854 Y3.8764
G01 X13.4713 Y3.8807
G01 X13.4583 Y3.8876
G01 X13.4470 Y3.8970
G01 X13.4376 Y3.9083
G01 X13.4307 Y3.9213
G01 X13.4264 Y3.9354
G01 X13.4250 Y3.9500
G01 X13.4264 Y3.9646
G01 X13.4307 Y3.9787
G01 X13.4376 Y3.9917
G01 X13.4470 Y4.0030
G01 X13.4583 Y4.0124
G01 X13.4713 Y4.0193
G01 X13.4854 Y4.0236
G01 X13.5000 Y4.0250
G01 X13.5146 Y4.0236
G01 X13.5287 Y4.0193
G01 X13.5417 Y4.0124
G01 X13.5530 Y4.0030
G01 X13.5624 Y3.9917
G01 X13.5693 Y3.9787
G01 X13.5736 Y3.9646
G01 X13.5750 Y3.9500
G00 X13.5750 Y3.9500
G01 F100.00
G01 Z-1.2000
G01 F100.00
G01 X13.5736 Y3.9354
G01 X13.5693 Y3.9213
G01 X13.5624 Y3.9083
G01 X13.5530 Y3.8970
G01 X13.5417 Y3.8876
G01 X13.5287 Y3.8807
G01 X13.5146 Y3.8764
G01 X13.5000 Y3.8750
G01 X13.4854 Y3.8764
G01 X13.4713 Y3.8807
G01 X13.4583 Y3.8876
G01 X13.4470 Y3.8970
G01 X13.4376 Y3.9083
G01 X13.4307 Y3.9213
G01 X13.4264 Y3.9354
G01 X13.4250 Y3.9500
G01 X13.4264 Y3.9646
G01 X13.4307 Y3.9787
G01 X13.4376 Y3.9917
G01 X13.4470 Y4.0030
G01 X13.4583 Y4.0124
G01 X13.4713 Y4.0193
G01 X13.4854 Y4.0236
G01 X13.5000 Y4.0250
G01 X13.5146 Y4.0236
G01 X13.5287 Y4.0193
G01 X13.5417 Y4.0124
G01 X13.5530 Y4.0030
G01 X13.5624 Y3.9917
G01 X13.5693 Y3.9787
G01 X13.5736 Y3.9646
G01 X13.5750 Y3.9500
G00 X13.5750 Y3.9500
G01 F100.00
G01 Z-1.4000
G01 F100.00
G01 X13.5736 Y3.9354
G01 X13.5693 Y3.9213
G01 X13.5624 Y3.9083
G01 X13.5530 Y3.8970
G01 X13.5417 Y3.8876
G01 X13.5287 Y3.8807
G01 X13.5146 Y3.8764
G01 X13.5000 Y3.8750
G01 X13.4854 Y3.8764
G01 X13.4713 Y3.8807
G01 X13.4583 Y3.8876
G01 X13.4470 Y3.8970
G01 X13.4376 Y3.9083
G01 X13.4307 Y3.9213
G01 X13.4264 Y3.9354
G01 X13.4250 Y3.9500
G01 X13.4264 Y3.9646
G01 X13.4307 Y3.9787
G01 X13.4376 Y3.9917
G01 X13.4470 Y4.0030
G01 X13.4583 Y4.0124
G01 X13.4713 Y4.0193
G01 X13.4854 Y4.0236
G01 X13.5000 Y4.0250
G01 X13.5146 Y4.0236
G01 X13.5287 Y4.0193
G01 X13.5417 Y4.0124
G01 X13.5530 Y4.0030
G01 X13.5624 Y3.9917
G01 X13.5693 Y3.9787
G01 X13.5736 Y3.9646
G01 X13.5750 Y3.9500
G00 X13.5750 Y3.9500
G01 F100.00
G01 Z-1.6000
G01 F100.00
G01 X13.5736 Y3.9354
G01 X13.5693 Y3.9213
G01 X13.5624 Y3.9083
G01 X13.5530 Y3.8970
G01 X13.5417 Y3.8876
G01 X13.5287 Y3.8807
G01 X13.5146 Y3.8764
G01 X13.5000 Y3.8750
G01 X13.4854 Y3.8764
G01 X13.4713 Y3.8807
G01 X13.4583 Y3.8876
G01 X13.4470 Y3.8970
G01 X13.4376 Y3.9083
G01 X13.4307 Y3.9213
G01 X13.4264 Y3.9354
G01 X13.4250 Y3.9500
G01 X13.4264 Y3.9646
G01 X13.4307 Y3.9787
G01 X13.4376 Y3.9917
G01 X13.4470 Y4.0030
G01 X13.4583 Y4.0124
G01 X13.4713 Y4.0193
G01 X13.4854 Y4.0236
G01 X13.5000 Y4.0250
G01 X13.5146 Y4.0236
G01 X13.5287 Y4.0193
G01 X13.5417 Y4.0124
G01 X13.5530 Y4.0030
G01 X13.5624 Y3.9917
G01 X13.5693 Y3.9787
G01 X13.5736 Y3.9646
G01 X13.5750 Y3.9500
G00 X13.5750 Y3.9500
G01 F100.00
G01 Z-1.8000
G01 F100.00
G01 X13.5736 Y3.9354
G01 X13.5693 Y3.9213
G01 X13.5624 Y3.9083
G01 X13.5530 Y3.8970
G01 X13.5417 Y3.8876
G01 X13.5287 Y3.8807
G01 X13.5146 Y3.8764
G01 X13.5000 Y3.8750
G01 X13.4854 Y3.8764
G01 X13.4713 Y3.8807
G01 X13.4583 Y3.8876
G01 X13.4470 Y3.8970
G01 X13.4376 Y3.9083
G01 X13.4307 Y3.9213
G01 X13.4264 Y3.9354
G01 X13.4250 Y3.9500
G01 X13.4264 Y3.9646
G01 X13.4307 Y3.9787
G01 X13.4376 Y3.9917
G01 X13.4470 Y4.0030
G01 X13.4583 Y4.0124
G01 X13.4713 Y4.0193
G01 X13.4854 Y4.0236
G01 X13.5000 Y4.0250
G01 X13.5146 Y4.0236
G01 X13.5287 Y4.0193
G01 X13.5417 Y4.0124
G01 X13.5530 Y4.0030
G01 X13.5624 Y3.9917
G01 X13.5693 Y3.9787
G01 X13.5736 Y3.9646
G01 X13.5750 Y3.9500
G00 X13.5750 Y3.9500
G01 F100.00
G01 Z-2.0000
G01 F100.00
G01 X13.5736 Y3.9354
G01 X13.5693 Y3.9213
G01 X13.5624 Y3.9083
G01 X13.5530 Y3.8970
G01 X13.5417 Y3.8876
G01 X13.5287 Y3.8807
G01 X13.5146 Y3.8764
G01 X13.5000 Y3.8750
G01 X13.4854 Y3.8764
G01 X13.4713 Y3.8807
G01 X13.4583 Y3.8876
G01 X13.4470 Y3.8970
G01 X13.4376 Y3.9083
G01 X13.4307 Y3.9213
G01 X13.4264 Y3.9354
G01 X13.4250 Y3.9500
G01 X13.4264 Y3.9646
G01 X13.4307 Y3.9787
G01 X13.4376 Y3.9917
G01 X13.4470 Y4.0030
G01 X13.4583 Y4.0124
G01 X13.4713 Y4.0193
G01 X13.4854 Y4.0236
G01 X13.5000 Y4.0250
G01 X13.5146 Y4.0236
G01 X13.5287 Y4.0193
G01 X13.5417 Y4.0124
G01 X13.5530 Y4.0030
G01 X13.5624 Y3.9917
G01 X13.5693 Y3.9787
G01 X13.5736 Y3.9646
G01 X13.5750 Y3.9500
G00 Z2.0000

M05
G00 Z2.0000
G00 Z20.00
G00 X0.0 Y0.0

M02