(G-CODE GENERATED BY FLATCAM v8.914 - www.flatcam.org - Version Date: 2019/04/23)

(Name: 5pin-Edge.Cuts.gm1_cutout_cnc)
(Type: G-code from Geometry)
(Units: MM)

(Created on Thursday, 02 May 2019 at 17:21)

(TOOL DIAMETER: 0.1 mm)
(Feedrate: 100.0 mm/min)
(Feedrate_Z: 100.0 mm/min)
(Feedrate rapids 200.0 mm/min)

(Z_Cut: -2.0 mm)
(DepthPerCut: 0.2 mm <=>10 passes)
(Z_Move: 2.0 mm)
(Z Toolchange: 25.0 mm)
(X,Y Toolchange: 0.0000, 0.0000 mm)
(Z Start: None mm)
(Z End: 20.0 mm)
(Steps per circle: 64)
(Postprocessor Geometry: default)

(X range:   -0.0750 ...   16.0750  mm)
(Y range:   -0.3250 ...   19.0750  mm)

(Spindle Speed: 5000 RPM)

G21
G90
G94

G01 F100.00
G00 Z2.0000

M03 S5000
G00 X6.7500 Y-0.3250
G01 F100.00
G01 Z-0.2000
G01 F100.00
G01 X1.5000 Y-0.3250
G01 X1.4397 Y-0.3233
G01 X1.3558 Y-0.3182
G01 X1.2917 Y-0.3110
G01 X1.1811 Y-0.2922
G01 X1.1182 Y-0.2779
G01 X1.0373 Y-0.2550
G01 X0.9759 Y-0.2352
G01 X0.9235 Y-0.2151
G01 X0.8459 Y-0.1826
G01 X0.8129 Y-0.1671
G01 X0.7630 Y-0.1414
G01 X0.6896 Y-0.1003
G01 X0.6350 Y-0.0660
G01 X0.5436 Y-0.0012
G01 X0.4931 Y0.0391
G01 X0.4301 Y0.0949
G01 X0.3834 Y0.1393
G01 X0.3449 Y0.1801
G01 X0.3075 Y0.2219
G01 X0.2713 Y0.2648
G01 X0.2323 Y0.3162
G01 X0.1840 Y0.3849
G01 X0.1642 Y0.4157
G01 X0.1357 Y0.4640
G01 X0.0954 Y0.5378
G01 X0.0792 Y0.5705
G01 X0.0563 Y0.6217
G01 X0.0245 Y0.6996
G01 X0.0032 Y0.7604
G01 X-0.0205 Y0.8411
G01 X-0.0345 Y0.8954
G01 X-0.0422 Y0.9310
G01 X-0.0567 Y1.0139
G01 X-0.0645 Y1.0695
G01 X-0.0682 Y1.1058
G01 X-0.0733 Y1.1897
G01 X-0.0750 Y1.2500
G01 X-0.0750 Y8.1250
G00 X-0.0750 Y8.1250
G01 F100.00
G01 Z-0.4000
G01 F100.00
G01 X-0.0750 Y1.2500
G01 X-0.0733 Y1.1897
G01 X-0.0682 Y1.1058
G01 X-0.0645 Y1.0695
G01 X-0.0567 Y1.0139
G01 X-0.0422 Y0.9310
G01 X-0.0345 Y0.8954
G01 X-0.0205 Y0.8411
G01 X0.0032 Y0.7604
G01 X0.0245 Y0.6996
G01 X0.0563 Y0.6217
G01 X0.0792 Y0.5705
G01 X0.0954 Y0.5378
G01 X0.1357 Y0.4640
G01 X0.1642 Y0.4157
G01 X0.1840 Y0.3849
G01 X0.2323 Y0.3162
G01 X0.2713 Y0.2648
G01 X0.3075 Y0.2219
G01 X0.3449 Y0.1801
G01 X0.3834 Y0.1393
G01 X0.4301 Y0.0949
G01 X0.4931 Y0.0391
G01 X0.5436 Y-0.0012
G01 X0.6350 Y-0.0660
G01 X0.6896 Y-0.1003
G01 X0.7630 Y-0.1414
G01 X0.8129 Y-0.1671
G01 X0.8459 Y-0.1826
G01 X0.9235 Y-0.2151
G01 X0.9759 Y-0.2352
G01 X1.0373 Y-0.2550
G01 X1.1182 Y-0.2779
G01 X1.1811 Y-0.2922
G01 X1.2917 Y-0.3110
G01 X1.3558 Y-0.3182
G01 X1.4397 Y-0.3233
G01 X1.5000 Y-0.3250
G01 X6.7500 Y-0.3250
G00 X6.7500 Y-0.3250
G01 F100.00
G01 Z-0.6000
G01 F100.00
G01 X1.5000 Y-0.3250
G01 X1.4397 Y-0.3233
G01 X1.3558 Y-0.3182
G01 X1.2917 Y-0.3110
G01 X1.1811 Y-0.2922
G01 X1.1182 Y-0.2779
G01 X1.0373 Y-0.2550
G01 X0.9759 Y-0.2352
G01 X0.9235 Y-0.2151
G01 X0.8459 Y-0.1826
G01 X0.8129 Y-0.1671
G01 X0.7630 Y-0.1414
G01 X0.6896 Y-0.1003
G01 X0.6350 Y-0.0660
G01 X0.5436 Y-0.0012
G01 X0.4931 Y0.0391
G01 X0.4301 Y0.0949
G01 X0.3834 Y0.1393
G01 X0.3449 Y0.1801
G01 X0.3075 Y0.2219
G01 X0.2713 Y0.2648
G01 X0.2323 Y0.3162
G01 X0.1840 Y0.3849
G01 X0.1642 Y0.4157
G01 X0.1357 Y0.4640
G01 X0.0954 Y0.5378
G01 X0.0792 Y0.5705
G01 X0.0563 Y0.6217
G01 X0.0245 Y0.6996
G01 X0.0032 Y0.7604
G01 X-0.0205 Y0.8411
G01 X-0.0345 Y0.8954
G01 X-0.0422 Y0.9310
G01 X-0.0567 Y1.0139
G01 X-0.0645 Y1.0695
G01 X-0.0682 Y1.1058
G01 X-0.0733 Y1.1897
G01 X-0.0750 Y1.2500
G01 X-0.0750 Y8.1250
G00 X-0.0750 Y8.1250
G01 F100.00
G01 Z-0.8000
G01 F100.00
G01 X-0.0750 Y1.2500
G01 X-0.0733 Y1.1897
G01 X-0.0682 Y1.1058
G01 X-0.0645 Y1.0695
G01 X-0.0567 Y1.0139
G01 X-0.0422 Y0.9310
G01 X-0.0345 Y0.8954
G01 X-0.0205 Y0.8411
G01 X0.0032 Y0.7604
G01 X0.0245 Y0.6996
G01 X0.0563 Y0.6217
G01 X0.0792 Y0.5705
G01 X0.0954 Y0.5378
G01 X0.1357 Y0.4640
G01 X0.1642 Y0.4157
G01 X0.1840 Y0.3849
G01 X0.2323 Y0.3162
G01 X0.2713 Y0.2648
G01 X0.3075 Y0.2219
G01 X0.3449 Y0.1801
G01 X0.3834 Y0.1393
G01 X0.4301 Y0.0949
G01 X0.4931 Y0.0391
G01 X0.5436 Y-0.0012
G01 X0.6350 Y-0.0660
G01 X0.6896 Y-0.1003
G01 X0.7630 Y-0.1414
G01 X0.8129 Y-0.1671
G01 X0.8459 Y-0.1826
G01 X0.9235 Y-0.2151
G01 X0.9759 Y-0.2352
G01 X1.0373 Y-0.2550
G01 X1.1182 Y-0.2779
G01 X1.1811 Y-0.2922
G01 X1.2917 Y-0.3110
G01 X1.3558 Y-0.3182
G01 X1.4397 Y-0.3233
G01 X1.5000 Y-0.3250
G01 X6.7500 Y-0.3250
G00 X6.7500 Y-0.3250
G01 F100.00
G01 Z-1.0000
G01 F100.00
G01 X1.5000 Y-0.3250
G01 X1.4397 Y-0.3233
G01 X1.3558 Y-0.3182
G01 X1.2917 Y-0.3110
G01 X1.1811 Y-0.2922
G01 X1.1182 Y-0.2779
G01 X1.0373 Y-0.2550
G01 X0.9759 Y-0.2352
G01 X0.9235 Y-0.2151
G01 X0.8459 Y-0.1826
G01 X0.8129 Y-0.1671
G01 X0.7630 Y-0.1414
G01 X0.6896 Y-0.1003
G01 X0.6350 Y-0.0660
G01 X0.5436 Y-0.0012
G01 X0.4931 Y0.0391
G01 X0.4301 Y0.0949
G01 X0.3834 Y0.1393
G01 X0.3449 Y0.1801
G01 X0.3075 Y0.2219
G01 X0.2713 Y0.2648
G01 X0.2323 Y0.3162
G01 X0.1840 Y0.3849
G01 X0.1642 Y0.4157
G01 X0.1357 Y0.4640
G01 X0.0954 Y0.5378
G01 X0.0792 Y0.5705
G01 X0.0563 Y0.6217
G01 X0.0245 Y0.6996
G01 X0.0032 Y0.7604
G01 X-0.0205 Y0.8411
G01 X-0.0345 Y0.8954
G01 X-0.0422 Y0.9310
G01 X-0.0567 Y1.0139
G01 X-0.0645 Y1.0695
G01 X-0.0682 Y1.1058
G01 X-0.0733 Y1.1897
G01 X-0.0750 Y1.2500
G01 X-0.0750 Y8.1250
G00 X-0.0750 Y8.1250
G01 F100.00
G01 Z-1.2000
G01 F100.00
G01 X-0.0750 Y1.2500
G01 X-0.0733 Y1.1897
G01 X-0.0682 Y1.1058
G01 X-0.0645 Y1.0695
G01 X-0.0567 Y1.0139
G01 X-0.0422 Y0.9310
G01 X-0.0345 Y0.8954
G01 X-0.0205 Y0.8411
G01 X0.0032 Y0.7604
G01 X0.0245 Y0.6996
G01 X0.0563 Y0.6217
G01 X0.0792 Y0.5705
G01 X0.0954 Y0.5378
G01 X0.1357 Y0.4640
G01 X0.1642 Y0.4157
G01 X0.1840 Y0.3849
G01 X0.2323 Y0.3162
G01 X0.2713 Y0.2648
G01 X0.3075 Y0.2219
G01 X0.3449 Y0.1801
G01 X0.3834 Y0.1393
G01 X0.4301 Y0.0949
G01 X0.4931 Y0.0391
G01 X0.5436 Y-0.0012
G01 X0.6350 Y-0.0660
G01 X0.6896 Y-0.1003
G01 X0.7630 Y-0.1414
G01 X0.8129 Y-0.1671
G01 X0.8459 Y-0.1826
G01 X0.9235 Y-0.2151
G01 X0.9759 Y-0.2352
G01 X1.0373 Y-0.2550
G01 X1.1182 Y-0.2779
G01 X1.1811 Y-0.2922
G01 X1.2917 Y-0.3110
G01 X1.3558 Y-0.3182
G01 X1.4397 Y-0.3233
G01 X1.5000 Y-0.3250
G01 X6.7500 Y-0.3250
G00 X6.7500 Y-0.3250
G01 F100.00
G01 Z-1.4000
G01 F100.00
G01 X1.5000 Y-0.3250
G01 X1.4397 Y-0.3233
G01 X1.3558 Y-0.3182
G01 X1.2917 Y-0.3110
G01 X1.1811 Y-0.2922
G01 X1.1182 Y-0.2779
G01 X1.0373 Y-0.2550
G01 X0.9759 Y-0.2352
G01 X0.9235 Y-0.2151
G01 X0.8459 Y-0.1826
G01 X0.8129 Y-0.1671
G01 X0.7630 Y-0.1414
G01 X0.6896 Y-0.1003
G01 X0.6350 Y-0.0660
G01 X0.5436 Y-0.0012
G01 X0.4931 Y0.0391
G01 X0.4301 Y0.0949
G01 X0.3834 Y0.1393
G01 X0.3449 Y0.1801
G01 X0.3075 Y0.2219
G01 X0.2713 Y0.2648
G01 X0.2323 Y0.3162
G01 X0.1840 Y0.3849
G01 X0.1642 Y0.4157
G01 X0.1357 Y0.4640
G01 X0.0954 Y0.5378
G01 X0.0792 Y0.5705
G01 X0.0563 Y0.6217
G01 X0.0245 Y0.6996
G01 X0.0032 Y0.7604
G01 X-0.0205 Y0.8411
G01 X-0.0345 Y0.8954
G01 X-0.0422 Y0.9310
G01 X-0.0567 Y1.0139
G01 X-0.0645 Y1.0695
G01 X-0.0682 Y1.1058
G01 X-0.0733 Y1.1897
G01 X-0.0750 Y1.2500
G01 X-0.0750 Y8.1250
G00 X-0.0750 Y8.1250
G01 F100.00
G01 Z-1.6000
G01 F100.00
G01 X-0.0750 Y1.2500
G01 X-0.0733 Y1.1897
G01 X-0.0682 Y1.1058
G01 X-0.0645 Y1.0695
G01 X-0.0567 Y1.0139
G01 X-0.0422 Y0.9310
G01 X-0.0345 Y0.8954
G01 X-0.0205 Y0.8411
G01 X0.0032 Y0.7604
G01 X0.0245 Y0.6996
G01 X0.0563 Y0.6217
G01 X0.0792 Y0.5705
G01 X0.0954 Y0.5378
G01 X0.1357 Y0.4640
G01 X0.1642 Y0.4157
G01 X0.1840 Y0.3849
G01 X0.2323 Y0.3162
G01 X0.2713 Y0.2648
G01 X0.3075 Y0.2219
G01 X0.3449 Y0.1801
G01 X0.3834 Y0.1393
G01 X0.4301 Y0.0949
G01 X0.4931 Y0.0391
G01 X0.5436 Y-0.0012
G01 X0.6350 Y-0.0660
G01 X0.6896 Y-0.1003
G01 X0.7630 Y-0.1414
G01 X0.8129 Y-0.1671
G01 X0.8459 Y-0.1826
G01 X0.9235 Y-0.2151
G01 X0.9759 Y-0.2352
G01 X1.0373 Y-0.2550
G01 X1.1182 Y-0.2779
G01 X1.1811 Y-0.2922
G01 X1.2917 Y-0.3110
G01 X1.3558 Y-0.3182
G01 X1.4397 Y-0.3233
G01 X1.5000 Y-0.3250
G01 X6.7500 Y-0.3250
G00 X6.7500 Y-0.3250
G01 F100.00
G01 Z-1.8000
G01 F100.00
G01 X1.5000 Y-0.3250
G01 X1.4397 Y-0.3233
G01 X1.3558 Y-0.3182
G01 X1.2917 Y-0.3110
G01 X1.1811 Y-0.2922
G01 X1.1182 Y-0.2779
G01 X1.0373 Y-0.2550
G01 X0.9759 Y-0.2352
G01 X0.9235 Y-0.2151
G01 X0.8459 Y-0.1826
G01 X0.8129 Y-0.1671
G01 X0.7630 Y-0.1414
G01 X0.6896 Y-0.1003
G01 X0.6350 Y-0.0660
G01 X0.5436 Y-0.0012
G01 X0.4931 Y0.0391
G01 X0.4301 Y0.0949
G01 X0.3834 Y0.1393
G01 X0.3449 Y0.1801
G01 X0.3075 Y0.2219
G01 X0.2713 Y0.2648
G01 X0.2323 Y0.3162
G01 X0.1840 Y0.3849
G01 X0.1642 Y0.4157
G01 X0.1357 Y0.4640
G01 X0.0954 Y0.5378
G01 X0.0792 Y0.5705
G01 X0.0563 Y0.6217
G01 X0.0245 Y0.6996
G01 X0.0032 Y0.7604
G01 X-0.0205 Y0.8411
G01 X-0.0345 Y0.8954
G01 X-0.0422 Y0.9310
G01 X-0.0567 Y1.0139
G01 X-0.0645 Y1.0695
G01 X-0.0682 Y1.1058
G01 X-0.0733 Y1.1897
G01 X-0.0750 Y1.2500
G01 X-0.0750 Y8.1250
G00 X-0.0750 Y8.1250
G01 F100.00
G01 Z-2.0000
G01 F100.00
G01 X-0.0750 Y1.2500
G01 X-0.0733 Y1.1897
G01 X-0.0682 Y1.1058
G01 X-0.0645 Y1.0695
G01 X-0.0567 Y1.0139
G01 X-0.0422 Y0.9310
G01 X-0.0345 Y0.8954
G01 X-0.0205 Y0.8411
G01 X0.0032 Y0.7604
G01 X0.0245 Y0.6996
G01 X0.0563 Y0.6217
G01 X0.0792 Y0.5705
G01 X0.0954 Y0.5378
G01 X0.1357 Y0.4640
G01 X0.1642 Y0.4157
G01 X0.1840 Y0.3849
G01 X0.2323 Y0.3162
G01 X0.2713 Y0.2648
G01 X0.3075 Y0.2219
G01 X0.3449 Y0.1801
G01 X0.3834 Y0.1393
G01 X0.4301 Y0.0949
G01 X0.4931 Y0.0391
G01 X0.5436 Y-0.0012
G01 X0.6350 Y-0.0660
G01 X0.6896 Y-0.1003
G01 X0.7630 Y-0.1414
G01 X0.8129 Y-0.1671
G01 X0.8459 Y-0.1826
G01 X0.9235 Y-0.2151
G01 X0.9759 Y-0.2352
G01 X1.0373 Y-0.2550
G01 X1.1182 Y-0.2779
G01 X1.1811 Y-0.2922
G01 X1.2917 Y-0.3110
G01 X1.3558 Y-0.3182
G01 X1.4397 Y-0.3233
G01 X1.5000 Y-0.3250
G01 X6.7500 Y-0.3250
G00 Z2.0000
G00 X9.2500 Y-0.3250
G01 F100.00
G01 Z-0.2000
G01 F100.00
G01 X14.5000 Y-0.3250
G01 X14.5603 Y-0.3233
G01 X14.6442 Y-0.3182
G01 X14.7083 Y-0.3110
G01 X14.8189 Y-0.2922
G01 X14.8819 Y-0.2779
G01 X14.9627 Y-0.2550
G01 X15.0241 Y-0.2352
G01 X15.0765 Y-0.2151
G01 X15.1541 Y-0.1826
G01 X15.1871 Y-0.1671
G01 X15.2370 Y-0.1414
G01 X15.3104 Y-0.1003
G01 X15.3650 Y-0.0660
G01 X15.4564 Y-0.0012
G01 X15.5069 Y0.0391
G01 X15.5699 Y0.0949
G01 X15.6166 Y0.1393
G01 X15.6362 Y0.1594
G01 X15.6925 Y0.2219
G01 X15.7287 Y0.2648
G01 X15.7677 Y0.3162
G01 X15.8160 Y0.3849
G01 X15.8358 Y0.4157
G01 X15.8643 Y0.4640
G01 X15.9046 Y0.5378
G01 X15.9208 Y0.5705
G01 X15.9437 Y0.6217
G01 X15.9755 Y0.6996
G01 X15.9968 Y0.7604
G01 X16.0205 Y0.8411
G01 X16.0345 Y0.8954
G01 X16.0422 Y0.9310
G01 X16.0567 Y1.0139
G01 X16.0645 Y1.0695
G01 X16.0682 Y1.1058
G01 X16.0733 Y1.1897
G01 X16.0750 Y1.2500
G01 X16.0750 Y8.1250
G00 X16.0750 Y8.1250
G01 F100.00
G01 Z-0.4000
G01 F100.00
G01 X16.0750 Y1.2500
G01 X16.0733 Y1.1897
G01 X16.0682 Y1.1058
G01 X16.0645 Y1.0695
G01 X16.0567 Y1.0139
G01 X16.0422 Y0.9310
G01 X16.0345 Y0.8954
G01 X16.0205 Y0.8411
G01 X15.9968 Y0.7604
G01 X15.9755 Y0.6996
G01 X15.9437 Y0.6217
G01 X15.9208 Y0.5705
G01 X15.9046 Y0.5378
G01 X15.8643 Y0.4640
G01 X15.8358 Y0.4157
G01 X15.8160 Y0.3849
G01 X15.7677 Y0.3162
G01 X15.7287 Y0.2648
G01 X15.6925 Y0.2219
G01 X15.6362 Y0.1594
G01 X15.6166 Y0.1393
G01 X15.5699 Y0.0949
G01 X15.5069 Y0.0391
G01 X15.4564 Y-0.0012
G01 X15.3650 Y-0.0660
G01 X15.3104 Y-0.1003
G01 X15.2370 Y-0.1414
G01 X15.1871 Y-0.1671
G01 X15.1541 Y-0.1826
G01 X15.0765 Y-0.2151
G01 X15.0241 Y-0.2352
G01 X14.9627 Y-0.2550
G01 X14.8819 Y-0.2779
G01 X14.8189 Y-0.2922
G01 X14.7083 Y-0.3110
G01 X14.6442 Y-0.3182
G01 X14.5603 Y-0.3233
G01 X14.5000 Y-0.3250
G01 X9.2500 Y-0.3250
G00 X9.2500 Y-0.3250
G01 F100.00
G01 Z-0.6000
G01 F100.00
G01 X14.5000 Y-0.3250
G01 X14.5603 Y-0.3233
G01 X14.6442 Y-0.3182
G01 X14.7083 Y-0.3110
G01 X14.8189 Y-0.2922
G01 X14.8819 Y-0.2779
G01 X14.9627 Y-0.2550
G01 X15.0241 Y-0.2352
G01 X15.0765 Y-0.2151
G01 X15.1541 Y-0.1826
G01 X15.1871 Y-0.1671
G01 X15.2370 Y-0.1414
G01 X15.3104 Y-0.1003
G01 X15.3650 Y-0.0660
G01 X15.4564 Y-0.0012
G01 X15.5069 Y0.0391
G01 X15.5699 Y0.0949
G01 X15.6166 Y0.1393
G01 X15.6362 Y0.1594
G01 X15.6925 Y0.2219
G01 X15.7287 Y0.2648
G01 X15.7677 Y0.3162
G01 X15.8160 Y0.3849
G01 X15.8358 Y0.4157
G01 X15.8643 Y0.4640
G01 X15.9046 Y0.5378
G01 X15.9208 Y0.5705
G01 X15.9437 Y0.6217
G01 X15.9755 Y0.6996
G01 X15.9968 Y0.7604
G01 X16.0205 Y0.8411
G01 X16.0345 Y0.8954
G01 X16.0422 Y0.9310
G01 X16.0567 Y1.0139
G01 X16.0645 Y1.0695
G01 X16.0682 Y1.1058
G01 X16.0733 Y1.1897
G01 X16.0750 Y1.2500
G01 X16.0750 Y8.1250
G00 X16.0750 Y8.1250
G01 F100.00
G01 Z-0.8000
G01 F100.00
G01 X16.0750 Y1.2500
G01 X16.0733 Y1.1897
G01 X16.0682 Y1.1058
G01 X16.0645 Y1.0695
G01 X16.0567 Y1.0139
G01 X16.0422 Y0.9310
G01 X16.0345 Y0.8954
G01 X16.0205 Y0.8411
G01 X15.9968 Y0.7604
G01 X15.9755 Y0.6996
G01 X15.9437 Y0.6217
G01 X15.9208 Y0.5705
G01 X15.9046 Y0.5378
G01 X15.8643 Y0.4640
G01 X15.8358 Y0.4157
G01 X15.8160 Y0.3849
G01 X15.7677 Y0.3162
G01 X15.7287 Y0.2648
G01 X15.6925 Y0.2219
G01 X15.6362 Y0.1594
G01 X15.6166 Y0.1393
G01 X15.5699 Y0.0949
G01 X15.5069 Y0.0391
G01 X15.4564 Y-0.0012
G01 X15.3650 Y-0.0660
G01 X15.3104 Y-0.1003
G01 X15.2370 Y-0.1414
G01 X15.1871 Y-0.1671
G01 X15.1541 Y-0.1826
G01 X15.0765 Y-0.2151
G01 X15.0241 Y-0.2352
G01 X14.9627 Y-0.2550
G01 X14.8819 Y-0.2779
G01 X14.8189 Y-0.2922
G01 X14.7083 Y-0.3110
G01 X14.6442 Y-0.3182
G01 X14.5603 Y-0.3233
G01 X14.5000 Y-0.3250
G01 X9.2500 Y-0.3250
G00 X9.2500 Y-0.3250
G01 F100.00
G01 Z-1.0000
G01 F100.00
G01 X14.5000 Y-0.3250
G01 X14.5603 Y-0.3233
G01 X14.6442 Y-0.3182
G01 X14.7083 Y-0.3110
G01 X14.8189 Y-0.2922
G01 X14.8819 Y-0.2779
G01 X14.9627 Y-0.2550
G01 X15.0241 Y-0.2352
G01 X15.0765 Y-0.2151
G01 X15.1541 Y-0.1826
G01 X15.1871 Y-0.1671
G01 X15.2370 Y-0.1414
G01 X15.3104 Y-0.1003
G01 X15.3650 Y-0.0660
G01 X15.4564 Y-0.0012
G01 X15.5069 Y0.0391
G01 X15.5699 Y0.0949
G01 X15.6166 Y0.1393
G01 X15.6362 Y0.1594
G01 X15.6925 Y0.2219
G01 X15.7287 Y0.2648
G01 X15.7677 Y0.3162
G01 X15.8160 Y0.3849
G01 X15.8358 Y0.4157
G01 X15.8643 Y0.4640
G01 X15.9046 Y0.5378
G01 X15.9208 Y0.5705
G01 X15.9437 Y0.6217
G01 X15.9755 Y0.6996
G01 X15.9968 Y0.7604
G01 X16.0205 Y0.8411
G01 X16.0345 Y0.8954
G01 X16.0422 Y0.9310
G01 X16.0567 Y1.0139
G01 X16.0645 Y1.0695
G01 X16.0682 Y1.1058
G01 X16.0733 Y1.1897
G01 X16.0750 Y1.2500
G01 X16.0750 Y8.1250
G00 X16.0750 Y8.1250
G01 F100.00
G01 Z-1.2000
G01 F100.00
G01 X16.0750 Y1.2500
G01 X16.0733 Y1.1897
G01 X16.0682 Y1.1058
G01 X16.0645 Y1.0695
G01 X16.0567 Y1.0139
G01 X16.0422 Y0.9310
G01 X16.0345 Y0.8954
G01 X16.0205 Y0.8411
G01 X15.9968 Y0.7604
G01 X15.9755 Y0.6996
G01 X15.9437 Y0.6217
G01 X15.9208 Y0.5705
G01 X15.9046 Y0.5378
G01 X15.8643 Y0.4640
G01 X15.8358 Y0.4157
G01 X15.8160 Y0.3849
G01 X15.7677 Y0.3162
G01 X15.7287 Y0.2648
G01 X15.6925 Y0.2219
G01 X15.6362 Y0.1594
G01 X15.6166 Y0.1393
G01 X15.5699 Y0.0949
G01 X15.5069 Y0.0391
G01 X15.4564 Y-0.0012
G01 X15.3650 Y-0.0660
G01 X15.3104 Y-0.1003
G01 X15.2370 Y-0.1414
G01 X15.1871 Y-0.1671
G01 X15.1541 Y-0.1826
G01 X15.0765 Y-0.2151
G01 X15.0241 Y-0.2352
G01 X14.9627 Y-0.2550
G01 X14.8819 Y-0.2779
G01 X14.8189 Y-0.2922
G01 X14.7083 Y-0.3110
G01 X14.6442 Y-0.3182
G01 X14.5603 Y-0.3233
G01 X14.5000 Y-0.3250
G01 X9.2500 Y-0.3250
G00 X9.2500 Y-0.3250
G01 F100.00
G01 Z-1.4000
G01 F100.00
G01 X14.5000 Y-0.3250
G01 X14.5603 Y-0.3233
G01 X14.6442 Y-0.3182
G01 X14.7083 Y-0.3110
G01 X14.8189 Y-0.2922
G01 X14.8819 Y-0.2779
G01 X14.9627 Y-0.2550
G01 X15.0241 Y-0.2352
G01 X15.0765 Y-0.2151
G01 X15.1541 Y-0.1826
G01 X15.1871 Y-0.1671
G01 X15.2370 Y-0.1414
G01 X15.3104 Y-0.1003
G01 X15.3650 Y-0.0660
G01 X15.4564 Y-0.0012
G01 X15.5069 Y0.0391
G01 X15.5699 Y0.0949
G01 X15.6166 Y0.1393
G01 X15.6362 Y0.1594
G01 X15.6925 Y0.2219
G01 X15.7287 Y0.2648
G01 X15.7677 Y0.3162
G01 X15.8160 Y0.3849
G01 X15.8358 Y0.4157
G01 X15.8643 Y0.4640
G01 X15.9046 Y0.5378
G01 X15.9208 Y0.5705
G01 X15.9437 Y0.6217
G01 X15.9755 Y0.6996
G01 X15.9968 Y0.7604
G01 X16.0205 Y0.8411
G01 X16.0345 Y0.8954
G01 X16.0422 Y0.9310
G01 X16.0567 Y1.0139
G01 X16.0645 Y1.0695
G01 X16.0682 Y1.1058
G01 X16.0733 Y1.1897
G01 X16.0750 Y1.2500
G01 X16.0750 Y8.1250
G00 X16.0750 Y8.1250
G01 F100.00
G01 Z-1.6000
G01 F100.00
G01 X16.0750 Y1.2500
G01 X16.0733 Y1.1897
G01 X16.0682 Y1.1058
G01 X16.0645 Y1.0695
G01 X16.0567 Y1.0139
G01 X16.0422 Y0.9310
G01 X16.0345 Y0.8954
G01 X16.0205 Y0.8411
G01 X15.9968 Y0.7604
G01 X15.9755 Y0.6996
G01 X15.9437 Y0.6217
G01 X15.9208 Y0.5705
G01 X15.9046 Y0.5378
G01 X15.8643 Y0.4640
G01 X15.8358 Y0.4157
G01 X15.8160 Y0.3849
G01 X15.7677 Y0.3162
G01 X15.7287 Y0.2648
G01 X15.6925 Y0.2219
G01 X15.6362 Y0.1594
G01 X15.6166 Y0.1393
G01 X15.5699 Y0.0949
G01 X15.5069 Y0.0391
G01 X15.4564 Y-0.0012
G01 X15.3650 Y-0.0660
G01 X15.3104 Y-0.1003
G01 X15.2370 Y-0.1414
G01 X15.1871 Y-0.1671
G01 X15.1541 Y-0.1826
G01 X15.0765 Y-0.2151
G01 X15.0241 Y-0.2352
G01 X14.9627 Y-0.2550
G01 X14.8819 Y-0.2779
G01 X14.8189 Y-0.2922
G01 X14.7083 Y-0.3110
G01 X14.6442 Y-0.3182
G01 X14.5603 Y-0.3233
G01 X14.5000 Y-0.3250
G01 X9.2500 Y-0.3250
G00 X9.2500 Y-0.3250
G01 F100.00
G01 Z-1.8000
G01 F100.00
G01 X14.5000 Y-0.3250
G01 X14.5603 Y-0.3233
G01 X14.6442 Y-0.3182
G01 X14.7083 Y-0.3110
G01 X14.8189 Y-0.2922
G01 X14.8819 Y-0.2779
G01 X14.9627 Y-0.2550
G01 X15.0241 Y-0.2352
G01 X15.0765 Y-0.2151
G01 X15.1541 Y-0.1826
G01 X15.1871 Y-0.1671
G01 X15.2370 Y-0.1414
G01 X15.3104 Y-0.1003
G01 X15.3650 Y-0.0660
G01 X15.4564 Y-0.0012
G01 X15.5069 Y0.0391
G01 X15.5699 Y0.0949
G01 X15.6166 Y0.1393
G01 X15.6362 Y0.1594
G01 X15.6925 Y0.2219
G01 X15.7287 Y0.2648
G01 X15.7677 Y0.3162
G01 X15.8160 Y0.3849
G01 X15.8358 Y0.4157
G01 X15.8643 Y0.4640
G01 X15.9046 Y0.5378
G01 X15.9208 Y0.5705
G01 X15.9437 Y0.6217
G01 X15.9755 Y0.6996
G01 X15.9968 Y0.7604
G01 X16.0205 Y0.8411
G01 X16.0345 Y0.8954
G01 X16.0422 Y0.9310
G01 X16.0567 Y1.0139
G01 X16.0645 Y1.0695
G01 X16.0682 Y1.1058
G01 X16.0733 Y1.1897
G01 X16.0750 Y1.2500
G01 X16.0750 Y8.1250
G00 X16.0750 Y8.1250
G01 F100.00
G01 Z-2.0000
G01 F100.00
G01 X16.0750 Y1.2500
G01 X16.0733 Y1.1897
G01 X16.0682 Y1.1058
G01 X16.0645 Y1.0695
G01 X16.0567 Y1.0139
G01 X16.0422 Y0.9310
G01 X16.0345 Y0.8954
G01 X16.0205 Y0.8411
G01 X15.9968 Y0.7604
G01 X15.9755 Y0.6996
G01 X15.9437 Y0.6217
G01 X15.9208 Y0.5705
G01 X15.9046 Y0.5378
G01 X15.8643 Y0.4640
G01 X15.8358 Y0.4157
G01 X15.8160 Y0.3849
G01 X15.7677 Y0.3162
G01 X15.7287 Y0.2648
G01 X15.6925 Y0.2219
G01 X15.6362 Y0.1594
G01 X15.6166 Y0.1393
G01 X15.5699 Y0.0949
G01 X15.5069 Y0.0391
G01 X15.4564 Y-0.0012
G01 X15.3650 Y-0.0660
G01 X15.3104 Y-0.1003
G01 X15.2370 Y-0.1414
G01 X15.1871 Y-0.1671
G01 X15.1541 Y-0.1826
G01 X15.0765 Y-0.2151
G01 X15.0241 Y-0.2352
G01 X14.9627 Y-0.2550
G01 X14.8819 Y-0.2779
G01 X14.8189 Y-0.2922
G01 X14.7083 Y-0.3110
G01 X14.6442 Y-0.3182
G01 X14.5603 Y-0.3233
G01 X14.5000 Y-0.3250
G01 X9.2500 Y-0.3250
G00 Z2.0000
G00 X16.0750 Y10.6250
G01 F100.00
G01 Z-0.2000
G01 F100.00
G01 X16.0746 Y12.0280
G01 X16.0356 Y12.7321
G01 X16.0300 Y12.7963
G01 X16.0221 Y12.8519
G01 X15.9094 Y13.5152
G01 X15.8985 Y13.5702
G01 X15.8900 Y13.6057
G01 X15.6963 Y14.2793
G01 X15.6765 Y14.3407
G01 X15.6565 Y14.3931
G01 X15.3990 Y15.0147
G01 X15.3725 Y15.0735
G01 X15.3467 Y15.1233
G01 X15.0212 Y15.7122
G01 X14.9883 Y15.7676
G01 X14.9571 Y15.8143
G01 X14.5677 Y16.3630
G01 X14.5288 Y16.4144
G01 X14.4926 Y16.4573
G01 X14.0442 Y16.9590
G01 X14.0057 Y16.9997
G01 X13.9590 Y17.0442
G01 X13.4573 Y17.4926
G01 X13.4144 Y17.5288
G01 X13.3630 Y17.5677
G01 X12.8143 Y17.9571
G01 X12.7676 Y17.9883
G01 X12.7122 Y18.0212
G01 X12.0986 Y18.3599
G01 X12.0659 Y18.3761
G01 X12.0147 Y18.3990
G01 X11.3931 Y18.6565
G01 X11.3407 Y18.6765
G01 X11.2793 Y18.6963
G01 X10.6057 Y18.8900
G01 X10.5702 Y18.8985
G01 X10.5152 Y18.9094
G01 X9.8242 Y19.0264
G01 X9.7880 Y19.0309
G01 X9.7321 Y19.0356
G01 X9.2500 Y19.0627
G00 X9.2500 Y19.0627
G01 F100.00
G01 Z-0.4000
G01 F100.00
G01 X9.7321 Y19.0356
G01 X9.7880 Y19.0309
G01 X9.8242 Y19.0264
G01 X10.5152 Y18.9094
G01 X10.5702 Y18.8985
G01 X10.6057 Y18.8900
G01 X11.2793 Y18.6963
G01 X11.3407 Y18.6765
G01 X11.3931 Y18.6565
G01 X12.0147 Y18.3990
G01 X12.0659 Y18.3761
G01 X12.0986 Y18.3599
G01 X12.7122 Y18.0212
G01 X12.7676 Y17.9883
G01 X12.8143 Y17.9571
G01 X13.3630 Y17.5677
G01 X13.4144 Y17.5288
G01 X13.4573 Y17.4926
G01 X13.9590 Y17.0442
G01 X14.0057 Y16.9997
G01 X14.0442 Y16.9590
G01 X14.4926 Y16.4573
G01 X14.5288 Y16.4144
G01 X14.5677 Y16.3630
G01 X14.9571 Y15.8143
G01 X14.9883 Y15.7676
G01 X15.0212 Y15.7122
G01 X15.3467 Y15.1233
G01 X15.3725 Y15.0735
G01 X15.3990 Y15.0147
G01 X15.6565 Y14.3931
G01 X15.6765 Y14.3407
G01 X15.6963 Y14.2793
G01 X15.8900 Y13.6057
G01 X15.8985 Y13.5702
G01 X15.9094 Y13.5152
G01 X16.0221 Y12.8519
G01 X16.0300 Y12.7963
G01 X16.0356 Y12.7321
G01 X16.0746 Y12.0280
G01 X16.0750 Y10.6250
G00 X16.0750 Y10.6250
G01 F100.00
G01 Z-0.6000
G01 F100.00
G01 X16.0746 Y12.0280
G01 X16.0356 Y12.7321
G01 X16.0300 Y12.7963
G01 X16.0221 Y12.8519
G01 X15.9094 Y13.5152
G01 X15.8985 Y13.5702
G01 X15.8900 Y13.6057
G01 X15.6963 Y14.2793
G01 X15.6765 Y14.3407
G01 X15.6565 Y14.3931
G01 X15.3990 Y15.0147
G01 X15.3725 Y15.0735
G01 X15.3467 Y15.1233
G01 X15.0212 Y15.7122
G01 X14.9883 Y15.7676
G01 X14.9571 Y15.8143
G01 X14.5677 Y16.3630
G01 X14.5288 Y16.4144
G01 X14.4926 Y16.4573
G01 X14.0442 Y16.9590
G01 X14.0057 Y16.9997
G01 X13.9590 Y17.0442
G01 X13.4573 Y17.4926
G01 X13.4144 Y17.5288
G01 X13.3630 Y17.5677
G01 X12.8143 Y17.9571
G01 X12.7676 Y17.9883
G01 X12.7122 Y18.0212
G01 X12.0986 Y18.3599
G01 X12.0659 Y18.3761
G01 X12.0147 Y18.3990
G01 X11.3931 Y18.6565
G01 X11.3407 Y18.6765
G01 X11.2793 Y18.6963
G01 X10.6057 Y18.8900
G01 X10.5702 Y18.8985
G01 X10.5152 Y18.9094
G01 X9.8242 Y19.0264
G01 X9.7880 Y19.0309
G01 X9.7321 Y19.0356
G01 X9.2500 Y19.0627
G00 X9.2500 Y19.0627
G01 F100.00
G01 Z-0.8000
G01 F100.00
G01 X9.7321 Y19.0356
G01 X9.7880 Y19.0309
G01 X9.8242 Y19.0264
G01 X10.5152 Y18.9094
G01 X10.5702 Y18.8985
G01 X10.6057 Y18.8900
G01 X11.2793 Y18.6963
G01 X11.3407 Y18.6765
G01 X11.3931 Y18.6565
G01 X12.0147 Y18.3990
G01 X12.0659 Y18.3761
G01 X12.0986 Y18.3599
G01 X12.7122 Y18.0212
G01 X12.7676 Y17.9883
G01 X12.8143 Y17.9571
G01 X13.3630 Y17.5677
G01 X13.4144 Y17.5288
G01 X13.4573 Y17.4926
G01 X13.9590 Y17.0442
G01 X14.0057 Y16.9997
G01 X14.0442 Y16.9590
G01 X14.4926 Y16.4573
G01 X14.5288 Y16.4144
G01 X14.5677 Y16.3630
G01 X14.9571 Y15.8143
G01 X14.9883 Y15.7676
G01 X15.0212 Y15.7122
G01 X15.3467 Y15.1233
G01 X15.3725 Y15.0735
G01 X15.3990 Y15.0147
G01 X15.6565 Y14.3931
G01 X15.6765 Y14.3407
G01 X15.6963 Y14.2793
G01 X15.8900 Y13.6057
G01 X15.8985 Y13.5702
G01 X15.9094 Y13.5152
G01 X16.0221 Y12.8519
G01 X16.0300 Y12.7963
G01 X16.0356 Y12.7321
G01 X16.0746 Y12.0280
G01 X16.0750 Y10.6250
G00 X16.0750 Y10.6250
G01 F100.00
G01 Z-1.0000
G01 F100.00
G01 X16.0746 Y12.0280
G01 X16.0356 Y12.7321
G01 X16.0300 Y12.7963
G01 X16.0221 Y12.8519
G01 X15.9094 Y13.5152
G01 X15.8985 Y13.5702
G01 X15.8900 Y13.6057
G01 X15.6963 Y14.2793
G01 X15.6765 Y14.3407
G01 X15.6565 Y14.3931
G01 X15.3990 Y15.0147
G01 X15.3725 Y15.0735
G01 X15.3467 Y15.1233
G01 X15.0212 Y15.7122
G01 X14.9883 Y15.7676
G01 X14.9571 Y15.8143
G01 X14.5677 Y16.3630
G01 X14.5288 Y16.4144
G01 X14.4926 Y16.4573
G01 X14.0442 Y16.9590
G01 X14.0057 Y16.9997
G01 X13.9590 Y17.0442
G01 X13.4573 Y17.4926
G01 X13.4144 Y17.5288
G01 X13.3630 Y17.5677
G01 X12.8143 Y17.9571
G01 X12.7676 Y17.9883
G01 X12.7122 Y18.0212
G01 X12.0986 Y18.3599
G01 X12.0659 Y18.3761
G01 X12.0147 Y18.3990
G01 X11.3931 Y18.6565
G01 X11.3407 Y18.6765
G01 X11.2793 Y18.6963
G01 X10.6057 Y18.8900
G01 X10.5702 Y18.8985
G01 X10.5152 Y18.9094
G01 X9.8242 Y19.0264
G01 X9.7880 Y19.0309
G01 X9.7321 Y19.0356
G01 X9.2500 Y19.0627
G00 X9.2500 Y19.0627
G01 F100.00
G01 Z-1.2000
G01 F100.00
G01 X9.7321 Y19.0356
G01 X9.7880 Y19.0309
G01 X9.8242 Y19.0264
G01 X10.5152 Y18.9094
G01 X10.5702 Y18.8985
G01 X10.6057 Y18.8900
G01 X11.2793 Y18.6963
G01 X11.3407 Y18.6765
G01 X11.3931 Y18.6565
G01 X12.0147 Y18.3990
G01 X12.0659 Y18.3761
G01 X12.0986 Y18.3599
G01 X12.7122 Y18.0212
G01 X12.7676 Y17.9883
G01 X12.8143 Y17.9571
G01 X13.3630 Y17.5677
G01 X13.4144 Y17.5288
G01 X13.4573 Y17.4926
G01 X13.9590 Y17.0442
G01 X14.0057 Y16.9997
G01 X14.0442 Y16.9590
G01 X14.4926 Y16.4573
G01 X14.5288 Y16.4144
G01 X14.5677 Y16.3630
G01 X14.9571 Y15.8143
G01 X14.9883 Y15.7676
G01 X15.0212 Y15.7122
G01 X15.3467 Y15.1233
G01 X15.3725 Y15.0735
G01 X15.3990 Y15.0147
G01 X15.6565 Y14.3931
G01 X15.6765 Y14.3407
G01 X15.6963 Y14.2793
G01 X15.8900 Y13.6057
G01 X15.8985 Y13.5702
G01 X15.9094 Y13.5152
G01 X16.0221 Y12.8519
G01 X16.0300 Y12.7963
G01 X16.0356 Y12.7321
G01 X16.0746 Y12.0280
G01 X16.0750 Y10.6250
G00 X16.0750 Y10.6250
G01 F100.00
G01 Z-1.4000
G01 F100.00
G01 X16.0746 Y12.0280
G01 X16.0356 Y12.7321
G01 X16.0300 Y12.7963
G01 X16.0221 Y12.8519
G01 X15.9094 Y13.5152
G01 X15.8985 Y13.5702
G01 X15.8900 Y13.6057
G01 X15.6963 Y14.2793
G01 X15.6765 Y14.3407
G01 X15.6565 Y14.3931
G01 X15.3990 Y15.0147
G01 X15.3725 Y15.0735
G01 X15.3467 Y15.1233
G01 X15.0212 Y15.7122
G01 X14.9883 Y15.7676
G01 X14.9571 Y15.8143
G01 X14.5677 Y16.3630
G01 X14.5288 Y16.4144
G01 X14.4926 Y16.4573
G01 X14.0442 Y16.9590
G01 X14.0057 Y16.9997
G01 X13.9590 Y17.0442
G01 X13.4573 Y17.4926
G01 X13.4144 Y17.5288
G01 X13.3630 Y17.5677
G01 X12.8143 Y17.9571
G01 X12.7676 Y17.9883
G01 X12.7122 Y18.0212
G01 X12.0986 Y18.3599
G01 X12.0659 Y18.3761
G01 X12.0147 Y18.3990
G01 X11.3931 Y18.6565
G01 X11.3407 Y18.6765
G01 X11.2793 Y18.6963
G01 X10.6057 Y18.8900
G01 X10.5702 Y18.8985
G01 X10.5152 Y18.9094
G01 X9.8242 Y19.0264
G01 X9.7880 Y19.0309
G01 X9.7321 Y19.0356
G01 X9.2500 Y19.0627
G00 X9.2500 Y19.0627
G01 F100.00
G01 Z-1.6000
G01 F100.00
G01 X9.7321 Y19.0356
G01 X9.7880 Y19.0309
G01 X9.8242 Y19.0264
G01 X10.5152 Y18.9094
G01 X10.5702 Y18.8985
G01 X10.6057 Y18.8900
G01 X11.2793 Y18.6963
G01 X11.3407 Y18.6765
G01 X11.3931 Y18.6565
G01 X12.0147 Y18.3990
G01 X12.0659 Y18.3761
G01 X12.0986 Y18.3599
G01 X12.7122 Y18.0212
G01 X12.7676 Y17.9883
G01 X12.8143 Y17.9571
G01 X13.3630 Y17.5677
G01 X13.4144 Y17.5288
G01 X13.4573 Y17.4926
G01 X13.9590 Y17.0442
G01 X14.0057 Y16.9997
G01 X14.0442 Y16.9590
G01 X14.4926 Y16.4573
G01 X14.5288 Y16.4144
G01 X14.5677 Y16.3630
G01 X14.9571 Y15.8143
G01 X14.9883 Y15.7676
G01 X15.0212 Y15.7122
G01 X15.3467 Y15.1233
G01 X15.3725 Y15.0735
G01 X15.3990 Y15.0147
G01 X15.6565 Y14.3931
G01 X15.6765 Y14.3407
G01 X15.6963 Y14.2793
G01 X15.8900 Y13.6057
G01 X15.8985 Y13.5702
G01 X15.9094 Y13.5152
G01 X16.0221 Y12.8519
G01 X16.0300 Y12.7963
G01 X16.0356 Y12.7321
G01 X16.0746 Y12.0280
G01 X16.0750 Y10.6250
G00 X16.0750 Y10.6250
G01 F100.00
G01 Z-1.8000
G01 F100.00
G01 X16.0746 Y12.0280
G01 X16.0356 Y12.7321
G01 X16.0300 Y12.7963
G01 X16.0221 Y12.8519
G01 X15.9094 Y13.5152
G01 X15.8985 Y13.5702
G01 X15.8900 Y13.6057
G01 X15.6963 Y14.2793
G01 X15.6765 Y14.3407
G01 X15.6565 Y14.3931
G01 X15.3990 Y15.0147
G01 X15.3725 Y15.0735
G01 X15.3467 Y15.1233
G01 X15.0212 Y15.7122
G01 X14.9883 Y15.7676
G01 X14.9571 Y15.8143
G01 X14.5677 Y16.3630
G01 X14.5288 Y16.4144
G01 X14.4926 Y16.4573
G01 X14.0442 Y16.9590
G01 X14.0057 Y16.9997
G01 X13.9590 Y17.0442
G01 X13.4573 Y17.4926
G01 X13.4144 Y17.5288
G01 X13.3630 Y17.5677
G01 X12.8143 Y17.9571
G01 X12.7676 Y17.9883
G01 X12.7122 Y18.0212
G01 X12.0986 Y18.3599
G01 X12.0659 Y18.3761
G01 X12.0147 Y18.3990
G01 X11.3931 Y18.6565
G01 X11.3407 Y18.6765
G01 X11.2793 Y18.6963
G01 X10.6057 Y18.8900
G01 X10.5702 Y18.8985
G01 X10.5152 Y18.9094
G01 X9.8242 Y19.0264
G01 X9.7880 Y19.0309
G01 X9.7321 Y19.0356
G01 X9.2500 Y19.0627
G00 X9.2500 Y19.0627
G01 F100.00
G01 Z-2.0000
G01 F100.00
G01 X9.7321 Y19.0356
G01 X9.7880 Y19.0309
G01 X9.8242 Y19.0264
G01 X10.5152 Y18.9094
G01 X10.5702 Y18.8985
G01 X10.6057 Y18.8900
G01 X11.2793 Y18.6963
G01 X11.3407 Y18.6765
G01 X11.3931 Y18.6565
G01 X12.0147 Y18.3990
G01 X12.0659 Y18.3761
G01 X12.0986 Y18.3599
G01 X12.7122 Y18.0212
G01 X12.7676 Y17.9883
G01 X12.8143 Y17.9571
G01 X13.3630 Y17.5677
G01 X13.4144 Y17.5288
G01 X13.4573 Y17.4926
G01 X13.9590 Y17.0442
G01 X14.0057 Y16.9997
G01 X14.0442 Y16.9590
G01 X14.4926 Y16.4573
G01 X14.5288 Y16.4144
G01 X14.5677 Y16.3630
G01 X14.9571 Y15.8143
G01 X14.9883 Y15.7676
G01 X15.0212 Y15.7122
G01 X15.3467 Y15.1233
G01 X15.3725 Y15.0735
G01 X15.3990 Y15.0147
G01 X15.6565 Y14.3931
G01 X15.6765 Y14.3407
G01 X15.6963 Y14.2793
G01 X15.8900 Y13.6057
G01 X15.8985 Y13.5702
G01 X15.9094 Y13.5152
G01 X16.0221 Y12.8519
G01 X16.0300 Y12.7963
G01 X16.0356 Y12.7321
G01 X16.0746 Y12.0280
G01 X16.0750 Y10.6250
G00 Z2.0000
G00 X6.7500 Y19.0627
G01 F100.00
G01 Z-0.2000
G01 F100.00
G01 X6.2679 Y19.0356
G01 X6.2037 Y19.0300
G01 X6.1481 Y19.0221
G01 X5.4848 Y18.9094
G01 X5.4216 Y18.8966
G01 X5.3673 Y18.8826
G01 X4.7207 Y18.6963
G01 X4.6673 Y18.6793
G01 X4.6069 Y18.6565
G01 X3.9595 Y18.3879
G01 X3.9265 Y18.3725
G01 X3.8767 Y18.3467
G01 X3.2878 Y18.0212
G01 X3.2395 Y17.9927
G01 X3.1857 Y17.9571
G01 X2.6370 Y17.5677
G01 X2.5856 Y17.5288
G01 X2.5427 Y17.4926
G01 X2.0410 Y17.0442
G01 X2.0003 Y17.0057
G01 X1.9747 Y16.9796
G01 X1.5074 Y16.4573
G01 X1.4660 Y16.4079
G01 X1.4323 Y16.3630
G01 X1.0429 Y15.8143
G01 X1.0117 Y15.7676
G01 X0.9788 Y15.7122
G01 X0.6533 Y15.1233
G01 X0.6275 Y15.0735
G01 X0.6010 Y15.0147
G01 X0.3435 Y14.3931
G01 X0.3207 Y14.3327
G01 X0.3037 Y14.2793
G01 X0.1174 Y13.6327
G01 X0.1034 Y13.5784
G01 X0.0906 Y13.5152
G01 X-0.0221 Y12.8519
G01 X-0.0309 Y12.7880
G01 X-0.0356 Y12.7321
G01 X-0.0733 Y12.0603
G01 X-0.0750 Y12.0000
G00 X-0.0750 Y12.0000
G01 F100.00
G01 Z-0.4000
G01 F100.00
G01 X-0.0733 Y12.0603
G01 X-0.0356 Y12.7321
G01 X-0.0309 Y12.7880
G01 X-0.0221 Y12.8519
G01 X0.0906 Y13.5152
G01 X0.1034 Y13.5784
G01 X0.1174 Y13.6327
G01 X0.3037 Y14.2793
G01 X0.3207 Y14.3327
G01 X0.3435 Y14.3931
G01 X0.6010 Y15.0147
G01 X0.6275 Y15.0735
G01 X0.6533 Y15.1233
G01 X0.9788 Y15.7122
G01 X1.0117 Y15.7676
G01 X1.0429 Y15.8143
G01 X1.4323 Y16.3630
G01 X1.4660 Y16.4079
G01 X1.5074 Y16.4573
G01 X1.9747 Y16.9796
G01 X2.0003 Y17.0057
G01 X2.0410 Y17.0442
G01 X2.5427 Y17.4926
G01 X2.5856 Y17.5288
G01 X2.6370 Y17.5677
G01 X3.1857 Y17.9571
G01 X3.2395 Y17.9927
G01 X3.2878 Y18.0212
G01 X3.8767 Y18.3467
G01 X3.9265 Y18.3725
G01 X3.9595 Y18.3879
G01 X4.6069 Y18.6565
G01 X4.6673 Y18.6793
G01 X4.7207 Y18.6963
G01 X5.3673 Y18.8826
G01 X5.4216 Y18.8966
G01 X5.4848 Y18.9094
G01 X6.1481 Y19.0221
G01 X6.2037 Y19.0300
G01 X6.2679 Y19.0356
G01 X6.7500 Y19.0627
G00 X6.7500 Y19.0627
G01 F100.00
G01 Z-0.6000
G01 F100.00
G01 X6.2679 Y19.0356
G01 X6.2037 Y19.0300
G01 X6.1481 Y19.0221
G01 X5.4848 Y18.9094
G01 X5.4216 Y18.8966
G01 X5.3673 Y18.8826
G01 X4.7207 Y18.6963
G01 X4.6673 Y18.6793
G01 X4.6069 Y18.6565
G01 X3.9595 Y18.3879
G01 X3.9265 Y18.3725
G01 X3.8767 Y18.3467
G01 X3.2878 Y18.0212
G01 X3.2395 Y17.9927
G01 X3.1857 Y17.9571
G01 X2.6370 Y17.5677
G01 X2.5856 Y17.5288
G01 X2.5427 Y17.4926
G01 X2.0410 Y17.0442
G01 X2.0003 Y17.0057
G01 X1.9747 Y16.9796
G01 X1.5074 Y16.4573
G01 X1.4660 Y16.4079
G01 X1.4323 Y16.3630
G01 X1.0429 Y15.8143
G01 X1.0117 Y15.7676
G01 X0.9788 Y15.7122
G01 X0.6533 Y15.1233
G01 X0.6275 Y15.0735
G01 X0.6010 Y15.0147
G01 X0.3435 Y14.3931
G01 X0.3207 Y14.3327
G01 X0.3037 Y14.2793
G01 X0.1174 Y13.6327
G01 X0.1034 Y13.5784
G01 X0.0906 Y13.5152
G01 X-0.0221 Y12.8519
G01 X-0.0309 Y12.7880
G01 X-0.0356 Y12.7321
G01 X-0.0733 Y12.0603
G01 X-0.0750 Y12.0000
G00 X-0.0750 Y12.0000
G01 F100.00
G01 Z-0.8000
G01 F100.00
G01 X-0.0733 Y12.0603
G01 X-0.0356 Y12.7321
G01 X-0.0309 Y12.7880
G01 X-0.0221 Y12.8519
G01 X0.0906 Y13.5152
G01 X0.1034 Y13.5784
G01 X0.1174 Y13.6327
G01 X0.3037 Y14.2793
G01 X0.3207 Y14.3327
G01 X0.3435 Y14.3931
G01 X0.6010 Y15.0147
G01 X0.6275 Y15.0735
G01 X0.6533 Y15.1233
G01 X0.9788 Y15.7122
G01 X1.0117 Y15.7676
G01 X1.0429 Y15.8143
G01 X1.4323 Y16.3630
G01 X1.4660 Y16.4079
G01 X1.5074 Y16.4573
G01 X1.9747 Y16.9796
G01 X2.0003 Y17.0057
G01 X2.0410 Y17.0442
G01 X2.5427 Y17.4926
G01 X2.5856 Y17.5288
G01 X2.6370 Y17.5677
G01 X3.1857 Y17.9571
G01 X3.2395 Y17.9927
G01 X3.2878 Y18.0212
G01 X3.8767 Y18.3467
G01 X3.9265 Y18.3725
G01 X3.9595 Y18.3879
G01 X4.6069 Y18.6565
G01 X4.6673 Y18.6793
G01 X4.7207 Y18.6963
G01 X5.3673 Y18.8826
G01 X5.4216 Y18.8966
G01 X5.4848 Y18.9094
G01 X6.1481 Y19.0221
G01 X6.2037 Y19.0300
G01 X6.2679 Y19.0356
G01 X6.7500 Y19.0627
G00 X6.7500 Y19.0627
G01 F100.00
G01 Z-1.0000
G01 F100.00
G01 X6.2679 Y19.0356
G01 X6.2037 Y19.0300
G01 X6.1481 Y19.0221
G01 X5.4848 Y18.9094
G01 X5.4216 Y18.8966
G01 X5.3673 Y18.8826
G01 X4.7207 Y18.6963
G01 X4.6673 Y18.6793
G01 X4.6069 Y18.6565
G01 X3.9595 Y18.3879
G01 X3.9265 Y18.3725
G01 X3.8767 Y18.3467
G01 X3.2878 Y18.0212
G01 X3.2395 Y17.9927
G01 X3.1857 Y17.9571
G01 X2.6370 Y17.5677
G01 X2.5856 Y17.5288
G01 X2.5427 Y17.4926
G01 X2.0410 Y17.0442
G01 X2.0003 Y17.0057
G01 X1.9747 Y16.9796
G01 X1.5074 Y16.4573
G01 X1.4660 Y16.4079
G01 X1.4323 Y16.3630
G01 X1.0429 Y15.8143
G01 X1.0117 Y15.7676
G01 X0.9788 Y15.7122
G01 X0.6533 Y15.1233
G01 X0.6275 Y15.0735
G01 X0.6010 Y15.0147
G01 X0.3435 Y14.3931
G01 X0.3207 Y14.3327
G01 X0.3037 Y14.2793
G01 X0.1174 Y13.6327
G01 X0.1034 Y13.5784
G01 X0.0906 Y13.5152
G01 X-0.0221 Y12.8519
G01 X-0.0309 Y12.7880
G01 X-0.0356 Y12.7321
G01 X-0.0733 Y12.0603
G01 X-0.0750 Y12.0000
G00 X-0.0750 Y12.0000
G01 F100.00
G01 Z-1.2000
G01 F100.00
G01 X-0.0733 Y12.0603
G01 X-0.0356 Y12.7321
G01 X-0.0309 Y12.7880
G01 X-0.0221 Y12.8519
G01 X0.0906 Y13.5152
G01 X0.1034 Y13.5784
G01 X0.1174 Y13.6327
G01 X0.3037 Y14.2793
G01 X0.3207 Y14.3327
G01 X0.3435 Y14.3931
G01 X0.6010 Y15.0147
G01 X0.6275 Y15.0735
G01 X0.6533 Y15.1233
G01 X0.9788 Y15.7122
G01 X1.0117 Y15.7676
G01 X1.0429 Y15.8143
G01 X1.4323 Y16.3630
G01 X1.4660 Y16.4079
G01 X1.5074 Y16.4573
G01 X1.9747 Y16.9796
G01 X2.0003 Y17.0057
G01 X2.0410 Y17.0442
G01 X2.5427 Y17.4926
G01 X2.5856 Y17.5288
G01 X2.6370 Y17.5677
G01 X3.1857 Y17.9571
G01 X3.2395 Y17.9927
G01 X3.2878 Y18.0212
G01 X3.8767 Y18.3467
G01 X3.9265 Y18.3725
G01 X3.9595 Y18.3879
G01 X4.6069 Y18.6565
G01 X4.6673 Y18.6793
G01 X4.7207 Y18.6963
G01 X5.3673 Y18.8826
G01 X5.4216 Y18.8966
G01 X5.4848 Y18.9094
G01 X6.1481 Y19.0221
G01 X6.2037 Y19.0300
G01 X6.2679 Y19.0356
G01 X6.7500 Y19.0627
G00 X6.7500 Y19.0627
G01 F100.00
G01 Z-1.4000
G01 F100.00
G01 X6.2679 Y19.0356
G01 X6.2037 Y19.0300
G01 X6.1481 Y19.0221
G01 X5.4848 Y18.9094
G01 X5.4216 Y18.8966
G01 X5.3673 Y18.8826
G01 X4.7207 Y18.6963
G01 X4.6673 Y18.6793
G01 X4.6069 Y18.6565
G01 X3.9595 Y18.3879
G01 X3.9265 Y18.3725
G01 X3.8767 Y18.3467
G01 X3.2878 Y18.0212
G01 X3.2395 Y17.9927
G01 X3.1857 Y17.9571
G01 X2.6370 Y17.5677
G01 X2.5856 Y17.5288
G01 X2.5427 Y17.4926
G01 X2.0410 Y17.0442
G01 X2.0003 Y17.0057
G01 X1.9747 Y16.9796
G01 X1.5074 Y16.4573
G01 X1.4660 Y16.4079
G01 X1.4323 Y16.3630
G01 X1.0429 Y15.8143
G01 X1.0117 Y15.7676
G01 X0.9788 Y15.7122
G01 X0.6533 Y15.1233
G01 X0.6275 Y15.0735
G01 X0.6010 Y15.0147
G01 X0.3435 Y14.3931
G01 X0.3207 Y14.3327
G01 X0.3037 Y14.2793
G01 X0.1174 Y13.6327
G01 X0.1034 Y13.5784
G01 X0.0906 Y13.5152
G01 X-0.0221 Y12.8519
G01 X-0.0309 Y12.7880
G01 X-0.0356 Y12.7321
G01 X-0.0733 Y12.0603
G01 X-0.0750 Y12.0000
G00 X-0.0750 Y12.0000
G01 F100.00
G01 Z-1.6000
G01 F100.00
G01 X-0.0733 Y12.0603
G01 X-0.0356 Y12.7321
G01 X-0.0309 Y12.7880
G01 X-0.0221 Y12.8519
G01 X0.0906 Y13.5152
G01 X0.1034 Y13.5784
G01 X0.1174 Y13.6327
G01 X0.3037 Y14.2793
G01 X0.3207 Y14.3327
G01 X0.3435 Y14.3931
G01 X0.6010 Y15.0147
G01 X0.6275 Y15.0735
G01 X0.6533 Y15.1233
G01 X0.9788 Y15.7122
G01 X1.0117 Y15.7676
G01 X1.0429 Y15.8143
G01 X1.4323 Y16.3630
G01 X1.4660 Y16.4079
G01 X1.5074 Y16.4573
G01 X1.9747 Y16.9796
G01 X2.0003 Y17.0057
G01 X2.0410 Y17.0442
G01 X2.5427 Y17.4926
G01 X2.5856 Y17.5288
G01 X2.6370 Y17.5677
G01 X3.1857 Y17.9571
G01 X3.2395 Y17.9927
G01 X3.2878 Y18.0212
G01 X3.8767 Y18.3467
G01 X3.9265 Y18.3725
G01 X3.9595 Y18.3879
G01 X4.6069 Y18.6565
G01 X4.6673 Y18.6793
G01 X4.7207 Y18.6963
G01 X5.3673 Y18.8826
G01 X5.4216 Y18.8966
G01 X5.4848 Y18.9094
G01 X6.1481 Y19.0221
G01 X6.2037 Y19.0300
G01 X6.2679 Y19.0356
G01 X6.7500 Y19.0627
G00 X6.7500 Y19.0627
G01 F100.00
G01 Z-1.8000
G01 F100.00
G01 X6.2679 Y19.0356
G01 X6.2037 Y19.0300
G01 X6.1481 Y19.0221
G01 X5.4848 Y18.9094
G01 X5.4216 Y18.8966
G01 X5.3673 Y18.8826
G01 X4.7207 Y18.6963
G01 X4.6673 Y18.6793
G01 X4.6069 Y18.6565
G01 X3.9595 Y18.3879
G01 X3.9265 Y18.3725
G01 X3.8767 Y18.3467
G01 X3.2878 Y18.0212
G01 X3.2395 Y17.9927
G01 X3.1857 Y17.9571
G01 X2.6370 Y17.5677
G01 X2.5856 Y17.5288
G01 X2.5427 Y17.4926
G01 X2.0410 Y17.0442
G01 X2.0003 Y17.0057
G01 X1.9747 Y16.9796
G01 X1.5074 Y16.4573
G01 X1.4660 Y16.4079
G01 X1.4323 Y16.3630
G01 X1.0429 Y15.8143
G01 X1.0117 Y15.7676
G01 X0.9788 Y15.7122
G01 X0.6533 Y15.1233
G01 X0.6275 Y15.0735
G01 X0.6010 Y15.0147
G01 X0.3435 Y14.3931
G01 X0.3207 Y14.3327
G01 X0.3037 Y14.2793
G01 X0.1174 Y13.6327
G01 X0.1034 Y13.5784
G01 X0.0906 Y13.5152
G01 X-0.0221 Y12.8519
G01 X-0.0309 Y12.7880
G01 X-0.0356 Y12.7321
G01 X-0.0733 Y12.0603
G01 X-0.0750 Y12.0000
G00 X-0.0750 Y12.0000
G01 F100.00
G01 Z-2.0000
G01 F100.00
G01 X-0.0733 Y12.0603
G01 X-0.0356 Y12.7321
G01 X-0.0309 Y12.7880
G01 X-0.0221 Y12.8519
G01 X0.0906 Y13.5152
G01 X0.1034 Y13.5784
G01 X0.1174 Y13.6327
G01 X0.3037 Y14.2793
G01 X0.3207 Y14.3327
G01 X0.3435 Y14.3931
G01 X0.6010 Y15.0147
G01 X0.6275 Y15.0735
G01 X0.6533 Y15.1233
G01 X0.9788 Y15.7122
G01 X1.0117 Y15.7676
G01 X1.0429 Y15.8143
G01 X1.4323 Y16.3630
G01 X1.4660 Y16.4079
G01 X1.5074 Y16.4573
G01 X1.9747 Y16.9796
G01 X2.0003 Y17.0057
G01 X2.0410 Y17.0442
G01 X2.5427 Y17.4926
G01 X2.5856 Y17.5288
G01 X2.6370 Y17.5677
G01 X3.1857 Y17.9571
G01 X3.2395 Y17.9927
G01 X3.2878 Y18.0212
G01 X3.8767 Y18.3467
G01 X3.9265 Y18.3725
G01 X3.9595 Y18.3879
G01 X4.6069 Y18.6565
G01 X4.6673 Y18.6793
G01 X4.7207 Y18.6963
G01 X5.3673 Y18.8826
G01 X5.4216 Y18.8966
G01 X5.4848 Y18.9094
G01 X6.1481 Y19.0221
G01 X6.2037 Y19.0300
G01 X6.2679 Y19.0356
G01 X6.7500 Y19.0627
G00 Z2.0000
G00 X-0.0750 Y12.0000
G01 F100.00
G01 Z-0.2000
G01 F100.00
G01 X-0.0750 Y10.6250
G00 X-0.0750 Y10.6250
G01 F100.00
G01 Z-0.4000
G01 F100.00
G01 X-0.0750 Y12.0000
G00 X-0.0750 Y12.0000
G01 F100.00
G01 Z-0.6000
G01 F100.00
G01 X-0.0750 Y10.6250
G00 X-0.0750 Y10.6250
G01 F100.00
G01 Z-0.8000
G01 F100.00
G01 X-0.0750 Y12.0000
G00 X-0.0750 Y12.0000
G01 F100.00
G01 Z-1.0000
G01 F100.00
G01 X-0.0750 Y10.6250
G00 X-0.0750 Y10.6250
G01 F100.00
G01 Z-1.2000
G01 F100.00
G01 X-0.0750 Y12.0000
G00 X-0.0750 Y12.0000
G01 F100.00
G01 Z-1.4000
G01 F100.00
G01 X-0.0750 Y10.6250
G00 X-0.0750 Y10.6250
G01 F100.00
G01 Z-1.6000
G01 F100.00
G01 X-0.0750 Y12.0000
G00 X-0.0750 Y12.0000
G01 F100.00
G01 Z-1.8000
G01 F100.00
G01 X-0.0750 Y10.6250
G00 X-0.0750 Y10.6250
G01 F100.00
G01 Z-2.0000
G01 F100.00
G01 X-0.0750 Y12.0000
G00 Z2.0000
M05
G00 Z2.0000
G00 Z20.00
G00 X0.0 Y0.0

M02