(G-CODE GENERATED BY FLATCAM v8.912 - www.flatcam.org - Version Date: 2019/03/17)

(Name: 5pin-NPTH.drl_mill_cnc)
(Type: G-code from Geometry)
(Units: MM)

(Created on Thursday, 02 May 2019 at 20:27)

(TOOL DIAMETER: 0.1 mm)
(Feedrate: 100.0 mm/min)
(Feedrate_Z: 100.0 mm/min)
(Feedrate rapids 200.0 mm/min)

(Z_Cut: -2.0 mm)
(DepthPerCut: 0.2 mm <=>10 passes)
(Z_Move: 2.0 mm)
(Z Toolchange: 25.0 mm)
(X,Y Toolchange: 0.0000, 0.0000 mm)
(Z Start: None mm)
(Z End: 20.0 mm)
(Steps per circle: 64)
(Postprocessor Geometry: default)

(X range:   13.4250 ...   13.5750  mm)
(Y range:    3.8750 ...    4.0250  mm)

(Spindle Speed: 5000 RPM)

G21
G90
G94

G01 F100.00
G00 Z2.0000

M03 S5000
G00 X13.5750 Y3.9500
G01 F100.00
G01 Z-0.2000
G01 F100.00
G01 X13.5736 Y3.9354
G01 X13.5693 Y3.9213
G01 X13.5624 Y3.9083
G01 X13.5530 Y3.8970
G01 X13.5417 Y3.8876
G01 X13.5287 Y3.8807
G01 X13.5146 Y3.8764
G01 X13.5000 Y3.8750
G01 X13.4854 Y3.8764
G01 X13.4713 Y3.8807
G01 X13.4583 Y3.8876
G01 X13.4470 Y3.8970
G01 X13.4376 Y3.9083
G01 X13.4307 Y3.9213
G01 X13.4264 Y3.9354
G01 X13.4250 Y3.9500
G01 X13.4264 Y3.9646
G01 X13.4307 Y3.9787
G01 X13.4376 Y3.9917
G01 X13.4470 Y4.0030
G01 X13.4583 Y4.0124
G01 X13.4713 Y4.0193
G01 X13.4854 Y4.0236
G01 X13.5000 Y4.0250
G01 X13.5146 Y4.0236
G01 X13.5287 Y4.0193
G01 X13.5417 Y4.0124
G01 X13.5530 Y4.0030
G01 X13.5624 Y3.9917
G01 X13.5693 Y3.9787
G01 X13.5736 Y3.9646
G01 X13.5750 Y3.9500
G00 X13.5750 Y3.9500
G01 F100.00
G01 Z-0.4000
G01 F100.00
G01 X13.5736 Y3.9354
G01 X13.5693 Y3.9213
G01 X13.5624 Y3.9083
G01 X13.5530 Y3.8970
G01 X13.5417 Y3.8876
G01 X13.5287 Y3.8807
G01 X13.5146 Y3.8764
G01 X13.5000 Y3.8750
G01 X13.4854 Y3.8764
G01 X13.4713 Y3.8807
G01 X13.4583 Y3.8876
G01 X13.4470 Y3.8970
G01 X13.4376 Y3.9083
G01 X13.4307 Y3.9213
G01 X13.4264 Y3.9354
G01 X13.4250 Y3.9500
G01 X13.4264 Y3.9646
G01 X13.4307 Y3.9787
G01 X13.4376 Y3.9917
G01 X13.4470 Y4.0030
G01 X13.4583 Y4.0124
G01 X13.4713 Y4.0193
G01 X13.4854 Y4.0236
G01 X13.5000 Y4.0250
G01 X13.5146 Y4.0236
G01 X13.5287 Y4.0193
G01 X13.5417 Y4.0124
G01 X13.5530 Y4.0030
G01 X13.5624 Y3.9917
G01 X13.5693 Y3.9787
G01 X13.5736 Y3.9646
G01 X13.5750 Y3.9500
G00 X13.5750 Y3.9500
G01 F100.00
G01 Z-0.6000
G01 F100.00
G01 X13.5736 Y3.9354
G01 X13.5693 Y3.9213
G01 X13.5624 Y3.9083
G01 X13.5530 Y3.8970
G01 X13.5417 Y3.8876
G01 X13.5287 Y3.8807
G01 X13.5146 Y3.8764
G01 X13.5000 Y3.8750
G01 X13.4854 Y3.8764
G01 X13.4713 Y3.8807
G01 X13.4583 Y3.8876
G01 X13.4470 Y3.8970
G01 X13.4376 Y3.9083
G01 X13.4307 Y3.9213
G01 X13.4264 Y3.9354
G01 X13.4250 Y3.9500
G01 X13.4264 Y3.9646
G01 X13.4307 Y3.9787
G01 X13.4376 Y3.9917
G01 X13.4470 Y4.0030
G01 X13.4583 Y4.0124
G01 X13.4713 Y4.0193
G01 X13.4854 Y4.0236
G01 X13.5000 Y4.0250
G01 X13.5146 Y4.0236
G01 X13.5287 Y4.0193
G01 X13.5417 Y4.0124
G01 X13.5530 Y4.0030
G01 X13.5624 Y3.9917
G01 X13.5693 Y3.9787
G01 X13.5736 Y3.9646
G01 X13.5750 Y3.9500
G00 X13.5750 Y3.9500
G01 F100.00
G01 Z-0.8000
G01 F100.00
G01 X13.5736 Y3.9354
G01 X13.5693 Y3.9213
G01 X13.5624 Y3.9083
G01 X13.5530 Y3.8970
G01 X13.5417 Y3.8876
G01 X13.5287 Y3.8807
G01 X13.5146 Y3.8764
G01 X13.5000 Y3.8750
G01 X13.4854 Y3.8764
G01 X13.4713 Y3.8807
G01 X13.4583 Y3.8876
G01 X13.4470 Y3.8970
G01 X13.4376 Y3.9083
G01 X13.4307 Y3.9213
G01 X13.4264 Y3.9354
G01 X13.4250 Y3.9500
G01 X13.4264 Y3.9646
G01 X13.4307 Y3.9787
G01 X13.4376 Y3.9917
G01 X13.4470 Y4.0030
G01 X13.4583 Y4.0124
G01 X13.4713 Y4.0193
G01 X13.4854 Y4.0236
G01 X13.5000 Y4.0250
G01 X13.5146 Y4.0236
G01 X13.5287 Y4.0193
G01 X13.5417 Y4.0124
G01 X13.5530 Y4.0030
G01 X13.5624 Y3.9917
G01 X13.5693 Y3.9787
G01 X13.5736 Y3.9646
G01 X13.5750 Y3.9500
G00 X13.5750 Y3.9500
G01 F100.00
G01 Z-1.0000
G01 F100.00
G01 X13.5736 Y3.9354
G01 X13.5693 Y3.9213
G01 X13.5624 Y3.9083
G01 X13.5530 Y3.8970
G01 X13.5417 Y3.8876
G01 X13.5287 Y3.8807
G01 X13.5146 Y3.8764
G01 X13.5000 Y3.8750
G01 X13.4854 Y3.8764
G01 X13.4713 Y3.8807
G01 X13.4583 Y3.8876
G01 X13.4470 Y3.8970
G01 X13.4376 Y3.9083
G01 X13.4307 Y3.9213
G01 X13.4264 Y3.9354
G01 X13.4250 Y3.9500
G01 X13.4264 Y3.9646
G01 X13.4307 Y3.9787
G01 X13.4376 Y3.9917
G01 X13.4470 Y4.0030
G01 X13.4583 Y4.0124
G01 X13.4713 Y4.0193
G01 X13.4854 Y4.0236
G01 X13.5000 Y4.0250
G01 X13.5146 Y4.0236
G01 X13.5287 Y4.0193
G01 X13.5417 Y4.0124
G01 X13.5530 Y4.0030
G01 X13.5624 Y3.9917
G01 X13.5693 Y3.9787
G01 X13.5736 Y3.9646
G01 X13.5750 Y3.9500
G00 X13.5750 Y3.9500
G01 F100.00
G01 Z-1.2000
G01 F100.00
G01 X13.5736 Y3.9354
G01 X13.5693 Y3.9213
G01 X13.5624 Y3.9083
G01 X13.5530 Y3.8970
G01 X13.5417 Y3.8876
G01 X13.5287 Y3.8807
G01 X13.5146 Y3.8764
G01 X13.5000 Y3.8750
G01 X13.4854 Y3.8764
G01 X13.4713 Y3.8807
G01 X13.4583 Y3.8876
G01 X13.4470 Y3.8970
G01 X13.4376 Y3.9083
G01 X13.4307 Y3.9213
G01 X13.4264 Y3.9354
G01 X13.4250 Y3.9500
G01 X13.4264 Y3.9646
G01 X13.4307 Y3.9787
G01 X13.4376 Y3.9917
G01 X13.4470 Y4.0030
G01 X13.4583 Y4.0124
G01 X13.4713 Y4.0193
G01 X13.4854 Y4.0236
G01 X13.5000 Y4.0250
G01 X13.5146 Y4.0236
G01 X13.5287 Y4.0193
G01 X13.5417 Y4.0124
G01 X13.5530 Y4.0030
G01 X13.5624 Y3.9917
G01 X13.5693 Y3.9787
G01 X13.5736 Y3.9646
G01 X13.5750 Y3.9500
G00 X13.5750 Y3.9500
G01 F100.00
G01 Z-1.4000
G01 F100.00
G01 X13.5736 Y3.9354
G01 X13.5693 Y3.9213
G01 X13.5624 Y3.9083
G01 X13.5530 Y3.8970
G01 X13.5417 Y3.8876
G01 X13.5287 Y3.8807
G01 X13.5146 Y3.8764
G01 X13.5000 Y3.8750
G01 X13.4854 Y3.8764
G01 X13.4713 Y3.8807
G01 X13.4583 Y3.8876
G01 X13.4470 Y3.8970
G01 X13.4376 Y3.9083
G01 X13.4307 Y3.9213
G01 X13.4264 Y3.9354
G01 X13.4250 Y3.9500
G01 X13.4264 Y3.9646
G01 X13.4307 Y3.9787
G01 X13.4376 Y3.9917
G01 X13.4470 Y4.0030
G01 X13.4583 Y4.0124
G01 X13.4713 Y4.0193
G01 X13.4854 Y4.0236
G01 X13.5000 Y4.0250
G01 X13.5146 Y4.0236
G01 X13.5287 Y4.0193
G01 X13.5417 Y4.0124
G01 X13.5530 Y4.0030
G01 X13.5624 Y3.9917
G01 X13.5693 Y3.9787
G01 X13.5736 Y3.9646
G01 X13.5750 Y3.9500
G00 X13.5750 Y3.9500
G01 F100.00
G01 Z-1.6000
G01 F100.00
G01 X13.5736 Y3.9354
G01 X13.5693 Y3.9213
G01 X13.5624 Y3.9083
G01 X13.5530 Y3.8970
G01 X13.5417 Y3.8876
G01 X13.5287 Y3.8807
G01 X13.5146 Y3.8764
G01 X13.5000 Y3.8750
G01 X13.4854 Y3.8764
G01 X13.4713 Y3.8807
G01 X13.4583 Y3.8876
G01 X13.4470 Y3.8970
G01 X13.4376 Y3.9083
G01 X13.4307 Y3.9213
G01 X13.4264 Y3.9354
G01 X13.4250 Y3.9500
G01 X13.4264 Y3.9646
G01 X13.4307 Y3.9787
G01 X13.4376 Y3.9917
G01 X13.4470 Y4.0030
G01 X13.4583 Y4.0124
G01 X13.4713 Y4.0193
G01 X13.4854 Y4.0236
G01 X13.5000 Y4.0250
G01 X13.5146 Y4.0236
G01 X13.5287 Y4.0193
G01 X13.5417 Y4.0124
G01 X13.5530 Y4.0030
G01 X13.5624 Y3.9917
G01 X13.5693 Y3.9787
G01 X13.5736 Y3.9646
G01 X13.5750 Y3.9500
G00 X13.5750 Y3.9500
G01 F100.00
G01 Z-1.8000
G01 F100.00
G01 X13.5736 Y3.9354
G01 X13.5693 Y3.9213
G01 X13.5624 Y3.9083
G01 X13.5530 Y3.8970
G01 X13.5417 Y3.8876
G01 X13.5287 Y3.8807
G01 X13.5146 Y3.8764
G01 X13.5000 Y3.8750
G01 X13.4854 Y3.8764
G01 X13.4713 Y3.8807
G01 X13.4583 Y3.8876
G01 X13.4470 Y3.8970
G01 X13.4376 Y3.9083
G01 X13.4307 Y3.9213
G01 X13.4264 Y3.9354
G01 X13.4250 Y3.9500
G01 X13.4264 Y3.9646
G01 X13.4307 Y3.9787
G01 X13.4376 Y3.9917
G01 X13.4470 Y4.0030
G01 X13.4583 Y4.0124
G01 X13.4713 Y4.0193
G01 X13.4854 Y4.0236
G01 X13.5000 Y4.0250
G01 X13.5146 Y4.0236
G01 X13.5287 Y4.0193
G01 X13.5417 Y4.0124
G01 X13.5530 Y4.0030
G01 X13.5624 Y3.9917
G01 X13.5693 Y3.9787
G01 X13.5736 Y3.9646
G01 X13.5750 Y3.9500
G00 X13.5750 Y3.9500
G01 F100.00
G01 Z-2.0000
G01 F100.00
G01 X13.5736 Y3.9354
G01 X13.5693 Y3.9213
G01 X13.5624 Y3.9083
G01 X13.5530 Y3.8970
G01 X13.5417 Y3.8876
G01 X13.5287 Y3.8807
G01 X13.5146 Y3.8764
G01 X13.5000 Y3.8750
G01 X13.4854 Y3.8764
G01 X13.4713 Y3.8807
G01 X13.4583 Y3.8876
G01 X13.4470 Y3.8970
G01 X13.4376 Y3.9083
G01 X13.4307 Y3.9213
G01 X13.4264 Y3.9354
G01 X13.4250 Y3.9500
G01 X13.4264 Y3.9646
G01 X13.4307 Y3.9787
G01 X13.4376 Y3.9917
G01 X13.4470 Y4.0030
G01 X13.4583 Y4.0124
G01 X13.4713 Y4.0193
G01 X13.4854 Y4.0236
G01 X13.5000 Y4.0250
G01 X13.5146 Y4.0236
G01 X13.5287 Y4.0193
G01 X13.5417 Y4.0124
G01 X13.5530 Y4.0030
G01 X13.5624 Y3.9917
G01 X13.5693 Y3.9787
G01 X13.5736 Y3.9646
G01 X13.5750 Y3.9500
G00 Z2.0000
M05
G00 Z2.0000
G00 Z20.00
G00 X0.0 Y0.0

