(G-CODE GENERATED BY FLATCAM v8.914 - www.flatcam.org - Version Date: 2019/04/23)

(Name: 5pin-PTH.drl_mill_cnc)
(Type: G-code from Geometry)
(Units: MM)

(Created on Thursday, 02 May 2019 at 17:22)

(TOOL DIAMETER: 0.1 mm)
(Feedrate: 100.0 mm/min)
(Feedrate_Z: 100.0 mm/min)
(Feedrate rapids 200.0 mm/min)

(Z_Cut: -2.0 mm)
(DepthPerCut: 0.2 mm <=>10 passes)
(Z_Move: 2.0 mm)
(Z Toolchange: 25.0 mm)
(X,Y Toolchange: 0.0000, 0.0000 mm)
(Z Start: None mm)
(Z End: 20.0 mm)
(Steps per circle: 64)
(Postprocessor Geometry: default)

(X range:    6.5000 ...    9.2230  mm)
(Y range:    9.5710 ...   16.6500  mm)

(Spindle Speed: 5000 RPM)

G21
G90
G94

G01 F100.00
G00 Z2.0000

M03 S5000
G00 X7.6020 Y9.6210
G01 F100.00
G01 Z-0.2000
G01 F100.00
G01 X7.6010 Y9.6112
G01 X7.5982 Y9.6019
G01 X7.5936 Y9.5932
G01 X7.5874 Y9.5856
G01 X7.5798 Y9.5794
G01 X7.5711 Y9.5748
G01 X7.5618 Y9.5720
G01 X7.5520 Y9.5710
G01 X7.5422 Y9.5720
G01 X7.5329 Y9.5748
G01 X7.5242 Y9.5794
G01 X7.5166 Y9.5856
G01 X7.5104 Y9.5932
G01 X7.5058 Y9.6019
G01 X7.5030 Y9.6112
G01 X7.5020 Y9.6210
G01 X7.5030 Y9.6308
G01 X7.5058 Y9.6401
G01 X7.5104 Y9.6488
G01 X7.5166 Y9.6564
G01 X7.5242 Y9.6626
G01 X7.5329 Y9.6672
G01 X7.5422 Y9.6700
G01 X7.5520 Y9.6710
G01 X7.5618 Y9.6700
G01 X7.5711 Y9.6672
G01 X7.5798 Y9.6626
G01 X7.5874 Y9.6564
G01 X7.5936 Y9.6488
G01 X7.5982 Y9.6401
G01 X7.6010 Y9.6308
G01 X7.6020 Y9.6210
G00 X7.6020 Y9.6210
G01 F100.00
G01 Z-0.4000
G01 F100.00
G01 X7.6010 Y9.6112
G01 X7.5982 Y9.6019
G01 X7.5936 Y9.5932
G01 X7.5874 Y9.5856
G01 X7.5798 Y9.5794
G01 X7.5711 Y9.5748
G01 X7.5618 Y9.5720
G01 X7.5520 Y9.5710
G01 X7.5422 Y9.5720
G01 X7.5329 Y9.5748
G01 X7.5242 Y9.5794
G01 X7.5166 Y9.5856
G01 X7.5104 Y9.5932
G01 X7.5058 Y9.6019
G01 X7.5030 Y9.6112
G01 X7.5020 Y9.6210
G01 X7.5030 Y9.6308
G01 X7.5058 Y9.6401
G01 X7.5104 Y9.6488
G01 X7.5166 Y9.6564
G01 X7.5242 Y9.6626
G01 X7.5329 Y9.6672
G01 X7.5422 Y9.6700
G01 X7.5520 Y9.6710
G01 X7.5618 Y9.6700
G01 X7.5711 Y9.6672
G01 X7.5798 Y9.6626
G01 X7.5874 Y9.6564
G01 X7.5936 Y9.6488
G01 X7.5982 Y9.6401
G01 X7.6010 Y9.6308
G01 X7.6020 Y9.6210
G00 X7.6020 Y9.6210
G01 F100.00
G01 Z-0.6000
G01 F100.00
G01 X7.6010 Y9.6112
G01 X7.5982 Y9.6019
G01 X7.5936 Y9.5932
G01 X7.5874 Y9.5856
G01 X7.5798 Y9.5794
G01 X7.5711 Y9.5748
G01 X7.5618 Y9.5720
G01 X7.5520 Y9.5710
G01 X7.5422 Y9.5720
G01 X7.5329 Y9.5748
G01 X7.5242 Y9.5794
G01 X7.5166 Y9.5856
G01 X7.5104 Y9.5932
G01 X7.5058 Y9.6019
G01 X7.5030 Y9.6112
G01 X7.5020 Y9.6210
G01 X7.5030 Y9.6308
G01 X7.5058 Y9.6401
G01 X7.5104 Y9.6488
G01 X7.5166 Y9.6564
G01 X7.5242 Y9.6626
G01 X7.5329 Y9.6672
G01 X7.5422 Y9.6700
G01 X7.5520 Y9.6710
G01 X7.5618 Y9.6700
G01 X7.5711 Y9.6672
G01 X7.5798 Y9.6626
G01 X7.5874 Y9.6564
G01 X7.5936 Y9.6488
G01 X7.5982 Y9.6401
G01 X7.6010 Y9.6308
G01 X7.6020 Y9.6210
G00 X7.6020 Y9.6210
G01 F100.00
G01 Z-0.8000
G01 F100.00
G01 X7.6010 Y9.6112
G01 X7.5982 Y9.6019
G01 X7.5936 Y9.5932
G01 X7.5874 Y9.5856
G01 X7.5798 Y9.5794
G01 X7.5711 Y9.5748
G01 X7.5618 Y9.5720
G01 X7.5520 Y9.5710
G01 X7.5422 Y9.5720
G01 X7.5329 Y9.5748
G01 X7.5242 Y9.5794
G01 X7.5166 Y9.5856
G01 X7.5104 Y9.5932
G01 X7.5058 Y9.6019
G01 X7.5030 Y9.6112
G01 X7.5020 Y9.6210
G01 X7.5030 Y9.6308
G01 X7.5058 Y9.6401
G01 X7.5104 Y9.6488
G01 X7.5166 Y9.6564
G01 X7.5242 Y9.6626
G01 X7.5329 Y9.6672
G01 X7.5422 Y9.6700
G01 X7.5520 Y9.6710
G01 X7.5618 Y9.6700
G01 X7.5711 Y9.6672
G01 X7.5798 Y9.6626
G01 X7.5874 Y9.6564
G01 X7.5936 Y9.6488
G01 X7.5982 Y9.6401
G01 X7.6010 Y9.6308
G01 X7.6020 Y9.6210
G00 X7.6020 Y9.6210
G01 F100.00
G01 Z-1.0000
G01 F100.00
G01 X7.6010 Y9.6112
G01 X7.5982 Y9.6019
G01 X7.5936 Y9.5932
G01 X7.5874 Y9.5856
G01 X7.5798 Y9.5794
G01 X7.5711 Y9.5748
G01 X7.5618 Y9.5720
G01 X7.5520 Y9.5710
G01 X7.5422 Y9.5720
G01 X7.5329 Y9.5748
G01 X7.5242 Y9.5794
G01 X7.5166 Y9.5856
G01 X7.5104 Y9.5932
G01 X7.5058 Y9.6019
G01 X7.5030 Y9.6112
G01 X7.5020 Y9.6210
G01 X7.5030 Y9.6308
G01 X7.5058 Y9.6401
G01 X7.5104 Y9.6488
G01 X7.5166 Y9.6564
G01 X7.5242 Y9.6626
G01 X7.5329 Y9.6672
G01 X7.5422 Y9.6700
G01 X7.5520 Y9.6710
G01 X7.5618 Y9.6700
G01 X7.5711 Y9.6672
G01 X7.5798 Y9.6626
G01 X7.5874 Y9.6564
G01 X7.5936 Y9.6488
G01 X7.5982 Y9.6401
G01 X7.6010 Y9.6308
G01 X7.6020 Y9.6210
G00 X7.6020 Y9.6210
G01 F100.00
G01 Z-1.2000
G01 F100.00
G01 X7.6010 Y9.6112
G01 X7.5982 Y9.6019
G01 X7.5936 Y9.5932
G01 X7.5874 Y9.5856
G01 X7.5798 Y9.5794
G01 X7.5711 Y9.5748
G01 X7.5618 Y9.5720
G01 X7.5520 Y9.5710
G01 X7.5422 Y9.5720
G01 X7.5329 Y9.5748
G01 X7.5242 Y9.5794
G01 X7.5166 Y9.5856
G01 X7.5104 Y9.5932
G01 X7.5058 Y9.6019
G01 X7.5030 Y9.6112
G01 X7.5020 Y9.6210
G01 X7.5030 Y9.6308
G01 X7.5058 Y9.6401
G01 X7.5104 Y9.6488
G01 X7.5166 Y9.6564
G01 X7.5242 Y9.6626
G01 X7.5329 Y9.6672
G01 X7.5422 Y9.6700
G01 X7.5520 Y9.6710
G01 X7.5618 Y9.6700
G01 X7.5711 Y9.6672
G01 X7.5798 Y9.6626
G01 X7.5874 Y9.6564
G01 X7.5936 Y9.6488
G01 X7.5982 Y9.6401
G01 X7.6010 Y9.6308
G01 X7.6020 Y9.6210
G00 X7.6020 Y9.6210
G01 F100.00
G01 Z-1.4000
G01 F100.00
G01 X7.6010 Y9.6112
G01 X7.5982 Y9.6019
G01 X7.5936 Y9.5932
G01 X7.5874 Y9.5856
G01 X7.5798 Y9.5794
G01 X7.5711 Y9.5748
G01 X7.5618 Y9.5720
G01 X7.5520 Y9.5710
G01 X7.5422 Y9.5720
G01 X7.5329 Y9.5748
G01 X7.5242 Y9.5794
G01 X7.5166 Y9.5856
G01 X7.5104 Y9.5932
G01 X7.5058 Y9.6019
G01 X7.5030 Y9.6112
G01 X7.5020 Y9.6210
G01 X7.5030 Y9.6308
G01 X7.5058 Y9.6401
G01 X7.5104 Y9.6488
G01 X7.5166 Y9.6564
G01 X7.5242 Y9.6626
G01 X7.5329 Y9.6672
G01 X7.5422 Y9.6700
G01 X7.5520 Y9.6710
G01 X7.5618 Y9.6700
G01 X7.5711 Y9.6672
G01 X7.5798 Y9.6626
G01 X7.5874 Y9.6564
G01 X7.5936 Y9.6488
G01 X7.5982 Y9.6401
G01 X7.6010 Y9.6308
G01 X7.6020 Y9.6210
G00 X7.6020 Y9.6210
G01 F100.00
G01 Z-1.6000
G01 F100.00
G01 X7.6010 Y9.6112
G01 X7.5982 Y9.6019
G01 X7.5936 Y9.5932
G01 X7.5874 Y9.5856
G01 X7.5798 Y9.5794
G01 X7.5711 Y9.5748
G01 X7.5618 Y9.5720
G01 X7.5520 Y9.5710
G01 X7.5422 Y9.5720
G01 X7.5329 Y9.5748
G01 X7.5242 Y9.5794
G01 X7.5166 Y9.5856
G01 X7.5104 Y9.5932
G01 X7.5058 Y9.6019
G01 X7.5030 Y9.6112
G01 X7.5020 Y9.6210
G01 X7.5030 Y9.6308
G01 X7.5058 Y9.6401
G01 X7.5104 Y9.6488
G01 X7.5166 Y9.6564
G01 X7.5242 Y9.6626
G01 X7.5329 Y9.6672
G01 X7.5422 Y9.6700
G01 X7.5520 Y9.6710
G01 X7.5618 Y9.6700
G01 X7.5711 Y9.6672
G01 X7.5798 Y9.6626
G01 X7.5874 Y9.6564
G01 X7.5936 Y9.6488
G01 X7.5982 Y9.6401
G01 X7.6010 Y9.6308
G01 X7.6020 Y9.6210
G00 X7.6020 Y9.6210
G01 F100.00
G01 Z-1.8000
G01 F100.00
G01 X7.6010 Y9.6112
G01 X7.5982 Y9.6019
G01 X7.5936 Y9.5932
G01 X7.5874 Y9.5856
G01 X7.5798 Y9.5794
G01 X7.5711 Y9.5748
G01 X7.5618 Y9.5720
G01 X7.5520 Y9.5710
G01 X7.5422 Y9.5720
G01 X7.5329 Y9.5748
G01 X7.5242 Y9.5794
G01 X7.5166 Y9.5856
G01 X7.5104 Y9.5932
G01 X7.5058 Y9.6019
G01 X7.5030 Y9.6112
G01 X7.5020 Y9.6210
G01 X7.5030 Y9.6308
G01 X7.5058 Y9.6401
G01 X7.5104 Y9.6488
G01 X7.5166 Y9.6564
G01 X7.5242 Y9.6626
G01 X7.5329 Y9.6672
G01 X7.5422 Y9.6700
G01 X7.5520 Y9.6710
G01 X7.5618 Y9.6700
G01 X7.5711 Y9.6672
G01 X7.5798 Y9.6626
G01 X7.5874 Y9.6564
G01 X7.5936 Y9.6488
G01 X7.5982 Y9.6401
G01 X7.6010 Y9.6308
G01 X7.6020 Y9.6210
G00 X7.6020 Y9.6210
G01 F100.00
G01 Z-2.0000
G01 F100.00
G01 X7.6010 Y9.6112
G01 X7.5982 Y9.6019
G01 X7.5936 Y9.5932
G01 X7.5874 Y9.5856
G01 X7.5798 Y9.5794
G01 X7.5711 Y9.5748
G01 X7.5618 Y9.5720
G01 X7.5520 Y9.5710
G01 X7.5422 Y9.5720
G01 X7.5329 Y9.5748
G01 X7.5242 Y9.5794
G01 X7.5166 Y9.5856
G01 X7.5104 Y9.5932
G01 X7.5058 Y9.6019
G01 X7.5030 Y9.6112
G01 X7.5020 Y9.6210
G01 X7.5030 Y9.6308
G01 X7.5058 Y9.6401
G01 X7.5104 Y9.6488
G01 X7.5166 Y9.6564
G01 X7.5242 Y9.6626
G01 X7.5329 Y9.6672
G01 X7.5422 Y9.6700
G01 X7.5520 Y9.6710
G01 X7.5618 Y9.6700
G01 X7.5711 Y9.6672
G01 X7.5798 Y9.6626
G01 X7.5874 Y9.6564
G01 X7.5936 Y9.6488
G01 X7.5982 Y9.6401
G01 X7.6010 Y9.6308
G01 X7.6020 Y9.6210
G00 Z2.0000
G00 X9.2230 Y10.1480
G01 F100.00
G01 Z-0.2000
G01 F100.00
G01 X9.2220 Y10.1382
G01 X9.2192 Y10.1289
G01 X9.2146 Y10.1202
G01 X9.2084 Y10.1126
G01 X9.2008 Y10.1064
G01 X9.1921 Y10.1018
G01 X9.1828 Y10.0990
G01 X9.1730 Y10.0980
G01 X9.1632 Y10.0990
G01 X9.1539 Y10.1018
G01 X9.1452 Y10.1064
G01 X9.1376 Y10.1126
G01 X9.1314 Y10.1202
G01 X9.1268 Y10.1289
G01 X9.1240 Y10.1382
G01 X9.1230 Y10.1480
G01 X9.1240 Y10.1578
G01 X9.1268 Y10.1671
G01 X9.1314 Y10.1758
G01 X9.1376 Y10.1834
G01 X9.1452 Y10.1896
G01 X9.1539 Y10.1942
G01 X9.1632 Y10.1970
G01 X9.1730 Y10.1980
G01 X9.1828 Y10.1970
G01 X9.1921 Y10.1942
G01 X9.2008 Y10.1896
G01 X9.2084 Y10.1834
G01 X9.2146 Y10.1758
G01 X9.2192 Y10.1671
G01 X9.2220 Y10.1578
G01 X9.2230 Y10.1480
G00 X9.2230 Y10.1480
G01 F100.00
G01 Z-0.4000
G01 F100.00
G01 X9.2220 Y10.1382
G01 X9.2192 Y10.1289
G01 X9.2146 Y10.1202
G01 X9.2084 Y10.1126
G01 X9.2008 Y10.1064
G01 X9.1921 Y10.1018
G01 X9.1828 Y10.0990
G01 X9.1730 Y10.0980
G01 X9.1632 Y10.0990
G01 X9.1539 Y10.1018
G01 X9.1452 Y10.1064
G01 X9.1376 Y10.1126
G01 X9.1314 Y10.1202
G01 X9.1268 Y10.1289
G01 X9.1240 Y10.1382
G01 X9.1230 Y10.1480
G01 X9.1240 Y10.1578
G01 X9.1268 Y10.1671
G01 X9.1314 Y10.1758
G01 X9.1376 Y10.1834
G01 X9.1452 Y10.1896
G01 X9.1539 Y10.1942
G01 X9.1632 Y10.1970
G01 X9.1730 Y10.1980
G01 X9.1828 Y10.1970
G01 X9.1921 Y10.1942
G01 X9.2008 Y10.1896
G01 X9.2084 Y10.1834
G01 X9.2146 Y10.1758
G01 X9.2192 Y10.1671
G01 X9.2220 Y10.1578
G01 X9.2230 Y10.1480
G00 X9.2230 Y10.1480
G01 F100.00
G01 Z-0.6000
G01 F100.00
G01 X9.2220 Y10.1382
G01 X9.2192 Y10.1289
G01 X9.2146 Y10.1202
G01 X9.2084 Y10.1126
G01 X9.2008 Y10.1064
G01 X9.1921 Y10.1018
G01 X9.1828 Y10.0990
G01 X9.1730 Y10.0980
G01 X9.1632 Y10.0990
G01 X9.1539 Y10.1018
G01 X9.1452 Y10.1064
G01 X9.1376 Y10.1126
G01 X9.1314 Y10.1202
G01 X9.1268 Y10.1289
G01 X9.1240 Y10.1382
G01 X9.1230 Y10.1480
G01 X9.1240 Y10.1578
G01 X9.1268 Y10.1671
G01 X9.1314 Y10.1758
G01 X9.1376 Y10.1834
G01 X9.1452 Y10.1896
G01 X9.1539 Y10.1942
G01 X9.1632 Y10.1970
G01 X9.1730 Y10.1980
G01 X9.1828 Y10.1970
G01 X9.1921 Y10.1942
G01 X9.2008 Y10.1896
G01 X9.2084 Y10.1834
G01 X9.2146 Y10.1758
G01 X9.2192 Y10.1671
G01 X9.2220 Y10.1578
G01 X9.2230 Y10.1480
G00 X9.2230 Y10.1480
G01 F100.00
G01 Z-0.8000
G01 F100.00
G01 X9.2220 Y10.1382
G01 X9.2192 Y10.1289
G01 X9.2146 Y10.1202
G01 X9.2084 Y10.1126
G01 X9.2008 Y10.1064
G01 X9.1921 Y10.1018
G01 X9.1828 Y10.0990
G01 X9.1730 Y10.0980
G01 X9.1632 Y10.0990
G01 X9.1539 Y10.1018
G01 X9.1452 Y10.1064
G01 X9.1376 Y10.1126
G01 X9.1314 Y10.1202
G01 X9.1268 Y10.1289
G01 X9.1240 Y10.1382
G01 X9.1230 Y10.1480
G01 X9.1240 Y10.1578
G01 X9.1268 Y10.1671
G01 X9.1314 Y10.1758
G01 X9.1376 Y10.1834
G01 X9.1452 Y10.1896
G01 X9.1539 Y10.1942
G01 X9.1632 Y10.1970
G01 X9.1730 Y10.1980
G01 X9.1828 Y10.1970
G01 X9.1921 Y10.1942
G01 X9.2008 Y10.1896
G01 X9.2084 Y10.1834
G01 X9.2146 Y10.1758
G01 X9.2192 Y10.1671
G01 X9.2220 Y10.1578
G01 X9.2230 Y10.1480
G00 X9.2230 Y10.1480
G01 F100.00
G01 Z-1.0000
G01 F100.00
G01 X9.2220 Y10.1382
G01 X9.2192 Y10.1289
G01 X9.2146 Y10.1202
G01 X9.2084 Y10.1126
G01 X9.2008 Y10.1064
G01 X9.1921 Y10.1018
G01 X9.1828 Y10.0990
G01 X9.1730 Y10.0980
G01 X9.1632 Y10.0990
G01 X9.1539 Y10.1018
G01 X9.1452 Y10.1064
G01 X9.1376 Y10.1126
G01 X9.1314 Y10.1202
G01 X9.1268 Y10.1289
G01 X9.1240 Y10.1382
G01 X9.1230 Y10.1480
G01 X9.1240 Y10.1578
G01 X9.1268 Y10.1671
G01 X9.1314 Y10.1758
G01 X9.1376 Y10.1834
G01 X9.1452 Y10.1896
G01 X9.1539 Y10.1942
G01 X9.1632 Y10.1970
G01 X9.1730 Y10.1980
G01 X9.1828 Y10.1970
G01 X9.1921 Y10.1942
G01 X9.2008 Y10.1896
G01 X9.2084 Y10.1834
G01 X9.2146 Y10.1758
G01 X9.2192 Y10.1671
G01 X9.2220 Y10.1578
G01 X9.2230 Y10.1480
G00 X9.2230 Y10.1480
G01 F100.00
G01 Z-1.2000
G01 F100.00
G01 X9.2220 Y10.1382
G01 X9.2192 Y10.1289
G01 X9.2146 Y10.1202
G01 X9.2084 Y10.1126
G01 X9.2008 Y10.1064
G01 X9.1921 Y10.1018
G01 X9.1828 Y10.0990
G01 X9.1730 Y10.0980
G01 X9.1632 Y10.0990
G01 X9.1539 Y10.1018
G01 X9.1452 Y10.1064
G01 X9.1376 Y10.1126
G01 X9.1314 Y10.1202
G01 X9.1268 Y10.1289
G01 X9.1240 Y10.1382
G01 X9.1230 Y10.1480
G01 X9.1240 Y10.1578
G01 X9.1268 Y10.1671
G01 X9.1314 Y10.1758
G01 X9.1376 Y10.1834
G01 X9.1452 Y10.1896
G01 X9.1539 Y10.1942
G01 X9.1632 Y10.1970
G01 X9.1730 Y10.1980
G01 X9.1828 Y10.1970
G01 X9.1921 Y10.1942
G01 X9.2008 Y10.1896
G01 X9.2084 Y10.1834
G01 X9.2146 Y10.1758
G01 X9.2192 Y10.1671
G01 X9.2220 Y10.1578
G01 X9.2230 Y10.1480
G00 X9.2230 Y10.1480
G01 F100.00
G01 Z-1.4000
G01 F100.00
G01 X9.2220 Y10.1382
G01 X9.2192 Y10.1289
G01 X9.2146 Y10.1202
G01 X9.2084 Y10.1126
G01 X9.2008 Y10.1064
G01 X9.1921 Y10.1018
G01 X9.1828 Y10.0990
G01 X9.1730 Y10.0980
G01 X9.1632 Y10.0990
G01 X9.1539 Y10.1018
G01 X9.1452 Y10.1064
G01 X9.1376 Y10.1126
G01 X9.1314 Y10.1202
G01 X9.1268 Y10.1289
G01 X9.1240 Y10.1382
G01 X9.1230 Y10.1480
G01 X9.1240 Y10.1578
G01 X9.1268 Y10.1671
G01 X9.1314 Y10.1758
G01 X9.1376 Y10.1834
G01 X9.1452 Y10.1896
G01 X9.1539 Y10.1942
G01 X9.1632 Y10.1970
G01 X9.1730 Y10.1980
G01 X9.1828 Y10.1970
G01 X9.1921 Y10.1942
G01 X9.2008 Y10.1896
G01 X9.2084 Y10.1834
G01 X9.2146 Y10.1758
G01 X9.2192 Y10.1671
G01 X9.2220 Y10.1578
G01 X9.2230 Y10.1480
G00 X9.2230 Y10.1480
G01 F100.00
G01 Z-1.6000
G01 F100.00
G01 X9.2220 Y10.1382
G01 X9.2192 Y10.1289
G01 X9.2146 Y10.1202
G01 X9.2084 Y10.1126
G01 X9.2008 Y10.1064
G01 X9.1921 Y10.1018
G01 X9.1828 Y10.0990
G01 X9.1730 Y10.0980
G01 X9.1632 Y10.0990
G01 X9.1539 Y10.1018
G01 X9.1452 Y10.1064
G01 X9.1376 Y10.1126
G01 X9.1314 Y10.1202
G01 X9.1268 Y10.1289
G01 X9.1240 Y10.1382
G01 X9.1230 Y10.1480
G01 X9.1240 Y10.1578
G01 X9.1268 Y10.1671
G01 X9.1314 Y10.1758
G01 X9.1376 Y10.1834
G01 X9.1452 Y10.1896
G01 X9.1539 Y10.1942
G01 X9.1632 Y10.1970
G01 X9.1730 Y10.1980
G01 X9.1828 Y10.1970
G01 X9.1921 Y10.1942
G01 X9.2008 Y10.1896
G01 X9.2084 Y10.1834
G01 X9.2146 Y10.1758
G01 X9.2192 Y10.1671
G01 X9.2220 Y10.1578
G01 X9.2230 Y10.1480
G00 X9.2230 Y10.1480
G01 F100.00
G01 Z-1.8000
G01 F100.00
G01 X9.2220 Y10.1382
G01 X9.2192 Y10.1289
G01 X9.2146 Y10.1202
G01 X9.2084 Y10.1126
G01 X9.2008 Y10.1064
G01 X9.1921 Y10.1018
G01 X9.1828 Y10.0990
G01 X9.1730 Y10.0980
G01 X9.1632 Y10.0990
G01 X9.1539 Y10.1018
G01 X9.1452 Y10.1064
G01 X9.1376 Y10.1126
G01 X9.1314 Y10.1202
G01 X9.1268 Y10.1289
G01 X9.1240 Y10.1382
G01 X9.1230 Y10.1480
G01 X9.1240 Y10.1578
G01 X9.1268 Y10.1671
G01 X9.1314 Y10.1758
G01 X9.1376 Y10.1834
G01 X9.1452 Y10.1896
G01 X9.1539 Y10.1942
G01 X9.1632 Y10.1970
G01 X9.1730 Y10.1980
G01 X9.1828 Y10.1970
G01 X9.1921 Y10.1942
G01 X9.2008 Y10.1896
G01 X9.2084 Y10.1834
G01 X9.2146 Y10.1758
G01 X9.2192 Y10.1671
G01 X9.2220 Y10.1578
G01 X9.2230 Y10.1480
G00 X9.2230 Y10.1480
G01 F100.00
G01 Z-2.0000
G01 F100.00
G01 X9.2220 Y10.1382
G01 X9.2192 Y10.1289
G01 X9.2146 Y10.1202
G01 X9.2084 Y10.1126
G01 X9.2008 Y10.1064
G01 X9.1921 Y10.1018
G01 X9.1828 Y10.0990
G01 X9.1730 Y10.0980
G01 X9.1632 Y10.0990
G01 X9.1539 Y10.1018
G01 X9.1452 Y10.1064
G01 X9.1376 Y10.1126
G01 X9.1314 Y10.1202
G01 X9.1268 Y10.1289
G01 X9.1240 Y10.1382
G01 X9.1230 Y10.1480
G01 X9.1240 Y10.1578
G01 X9.1268 Y10.1671
G01 X9.1314 Y10.1758
G01 X9.1376 Y10.1834
G01 X9.1452 Y10.1896
G01 X9.1539 Y10.1942
G01 X9.1632 Y10.1970
G01 X9.1730 Y10.1980
G01 X9.1828 Y10.1970
G01 X9.1921 Y10.1942
G01 X9.2008 Y10.1896
G01 X9.2084 Y10.1834
G01 X9.2146 Y10.1758
G01 X9.2192 Y10.1671
G01 X9.2220 Y10.1578
G01 X9.2230 Y10.1480
G00 Z2.0000
G00 X9.2230 Y11.8520
G01 F100.00
G01 Z-0.2000
G01 F100.00
G01 X9.2220 Y11.8422
G01 X9.2192 Y11.8329
G01 X9.2146 Y11.8242
G01 X9.2084 Y11.8166
G01 X9.2008 Y11.8104
G01 X9.1921 Y11.8058
G01 X9.1828 Y11.8030
G01 X9.1730 Y11.8020
G01 X9.1632 Y11.8030
G01 X9.1539 Y11.8058
G01 X9.1452 Y11.8104
G01 X9.1376 Y11.8166
G01 X9.1314 Y11.8242
G01 X9.1268 Y11.8329
G01 X9.1240 Y11.8422
G01 X9.1230 Y11.8520
G01 X9.1240 Y11.8618
G01 X9.1268 Y11.8711
G01 X9.1314 Y11.8798
G01 X9.1376 Y11.8874
G01 X9.1452 Y11.8936
G01 X9.1539 Y11.8982
G01 X9.1632 Y11.9010
G01 X9.1730 Y11.9020
G01 X9.1828 Y11.9010
G01 X9.1921 Y11.8982
G01 X9.2008 Y11.8936
G01 X9.2084 Y11.8874
G01 X9.2146 Y11.8798
G01 X9.2192 Y11.8711
G01 X9.2220 Y11.8618
G01 X9.2230 Y11.8520
G00 X9.2230 Y11.8520
G01 F100.00
G01 Z-0.4000
G01 F100.00
G01 X9.2220 Y11.8422
G01 X9.2192 Y11.8329
G01 X9.2146 Y11.8242
G01 X9.2084 Y11.8166
G01 X9.2008 Y11.8104
G01 X9.1921 Y11.8058
G01 X9.1828 Y11.8030
G01 X9.1730 Y11.8020
G01 X9.1632 Y11.8030
G01 X9.1539 Y11.8058
G01 X9.1452 Y11.8104
G01 X9.1376 Y11.8166
G01 X9.1314 Y11.8242
G01 X9.1268 Y11.8329
G01 X9.1240 Y11.8422
G01 X9.1230 Y11.8520
G01 X9.1240 Y11.8618
G01 X9.1268 Y11.8711
G01 X9.1314 Y11.8798
G01 X9.1376 Y11.8874
G01 X9.1452 Y11.8936
G01 X9.1539 Y11.8982
G01 X9.1632 Y11.9010
G01 X9.1730 Y11.9020
G01 X9.1828 Y11.9010
G01 X9.1921 Y11.8982
G01 X9.2008 Y11.8936
G01 X9.2084 Y11.8874
G01 X9.2146 Y11.8798
G01 X9.2192 Y11.8711
G01 X9.2220 Y11.8618
G01 X9.2230 Y11.8520
G00 X9.2230 Y11.8520
G01 F100.00
G01 Z-0.6000
G01 F100.00
G01 X9.2220 Y11.8422
G01 X9.2192 Y11.8329
G01 X9.2146 Y11.8242
G01 X9.2084 Y11.8166
G01 X9.2008 Y11.8104
G01 X9.1921 Y11.8058
G01 X9.1828 Y11.8030
G01 X9.1730 Y11.8020
G01 X9.1632 Y11.8030
G01 X9.1539 Y11.8058
G01 X9.1452 Y11.8104
G01 X9.1376 Y11.8166
G01 X9.1314 Y11.8242
G01 X9.1268 Y11.8329
G01 X9.1240 Y11.8422
G01 X9.1230 Y11.8520
G01 X9.1240 Y11.8618
G01 X9.1268 Y11.8711
G01 X9.1314 Y11.8798
G01 X9.1376 Y11.8874
G01 X9.1452 Y11.8936
G01 X9.1539 Y11.8982
G01 X9.1632 Y11.9010
G01 X9.1730 Y11.9020
G01 X9.1828 Y11.9010
G01 X9.1921 Y11.8982
G01 X9.2008 Y11.8936
G01 X9.2084 Y11.8874
G01 X9.2146 Y11.8798
G01 X9.2192 Y11.8711
G01 X9.2220 Y11.8618
G01 X9.2230 Y11.8520
G00 X9.2230 Y11.8520
G01 F100.00
G01 Z-0.8000
G01 F100.00
G01 X9.2220 Y11.8422
G01 X9.2192 Y11.8329
G01 X9.2146 Y11.8242
G01 X9.2084 Y11.8166
G01 X9.2008 Y11.8104
G01 X9.1921 Y11.8058
G01 X9.1828 Y11.8030
G01 X9.1730 Y11.8020
G01 X9.1632 Y11.8030
G01 X9.1539 Y11.8058
G01 X9.1452 Y11.8104
G01 X9.1376 Y11.8166
G01 X9.1314 Y11.8242
G01 X9.1268 Y11.8329
G01 X9.1240 Y11.8422
G01 X9.1230 Y11.8520
G01 X9.1240 Y11.8618
G01 X9.1268 Y11.8711
G01 X9.1314 Y11.8798
G01 X9.1376 Y11.8874
G01 X9.1452 Y11.8936
G01 X9.1539 Y11.8982
G01 X9.1632 Y11.9010
G01 X9.1730 Y11.9020
G01 X9.1828 Y11.9010
G01 X9.1921 Y11.8982
G01 X9.2008 Y11.8936
G01 X9.2084 Y11.8874
G01 X9.2146 Y11.8798
G01 X9.2192 Y11.8711
G01 X9.2220 Y11.8618
G01 X9.2230 Y11.8520
G00 X9.2230 Y11.8520
G01 F100.00
G01 Z-1.0000
G01 F100.00
G01 X9.2220 Y11.8422
G01 X9.2192 Y11.8329
G01 X9.2146 Y11.8242
G01 X9.2084 Y11.8166
G01 X9.2008 Y11.8104
G01 X9.1921 Y11.8058
G01 X9.1828 Y11.8030
G01 X9.1730 Y11.8020
G01 X9.1632 Y11.8030
G01 X9.1539 Y11.8058
G01 X9.1452 Y11.8104
G01 X9.1376 Y11.8166
G01 X9.1314 Y11.8242
G01 X9.1268 Y11.8329
G01 X9.1240 Y11.8422
G01 X9.1230 Y11.8520
G01 X9.1240 Y11.8618
G01 X9.1268 Y11.8711
G01 X9.1314 Y11.8798
G01 X9.1376 Y11.8874
G01 X9.1452 Y11.8936
G01 X9.1539 Y11.8982
G01 X9.1632 Y11.9010
G01 X9.1730 Y11.9020
G01 X9.1828 Y11.9010
G01 X9.1921 Y11.8982
G01 X9.2008 Y11.8936
G01 X9.2084 Y11.8874
G01 X9.2146 Y11.8798
G01 X9.2192 Y11.8711
G01 X9.2220 Y11.8618
G01 X9.2230 Y11.8520
G00 X9.2230 Y11.8520
G01 F100.00
G01 Z-1.2000
G01 F100.00
G01 X9.2220 Y11.8422
G01 X9.2192 Y11.8329
G01 X9.2146 Y11.8242
G01 X9.2084 Y11.8166
G01 X9.2008 Y11.8104
G01 X9.1921 Y11.8058
G01 X9.1828 Y11.8030
G01 X9.1730 Y11.8020
G01 X9.1632 Y11.8030
G01 X9.1539 Y11.8058
G01 X9.1452 Y11.8104
G01 X9.1376 Y11.8166
G01 X9.1314 Y11.8242
G01 X9.1268 Y11.8329
G01 X9.1240 Y11.8422
G01 X9.1230 Y11.8520
G01 X9.1240 Y11.8618
G01 X9.1268 Y11.8711
G01 X9.1314 Y11.8798
G01 X9.1376 Y11.8874
G01 X9.1452 Y11.8936
G01 X9.1539 Y11.8982
G01 X9.1632 Y11.9010
G01 X9.1730 Y11.9020
G01 X9.1828 Y11.9010
G01 X9.1921 Y11.8982
G01 X9.2008 Y11.8936
G01 X9.2084 Y11.8874
G01 X9.2146 Y11.8798
G01 X9.2192 Y11.8711
G01 X9.2220 Y11.8618
G01 X9.2230 Y11.8520
G00 X9.2230 Y11.8520
G01 F100.00
G01 Z-1.4000
G01 F100.00
G01 X9.2220 Y11.8422
G01 X9.2192 Y11.8329
G01 X9.2146 Y11.8242
G01 X9.2084 Y11.8166
G01 X9.2008 Y11.8104
G01 X9.1921 Y11.8058
G01 X9.1828 Y11.8030
G01 X9.1730 Y11.8020
G01 X9.1632 Y11.8030
G01 X9.1539 Y11.8058
G01 X9.1452 Y11.8104
G01 X9.1376 Y11.8166
G01 X9.1314 Y11.8242
G01 X9.1268 Y11.8329
G01 X9.1240 Y11.8422
G01 X9.1230 Y11.8520
G01 X9.1240 Y11.8618
G01 X9.1268 Y11.8711
G01 X9.1314 Y11.8798
G01 X9.1376 Y11.8874
G01 X9.1452 Y11.8936
G01 X9.1539 Y11.8982
G01 X9.1632 Y11.9010
G01 X9.1730 Y11.9020
G01 X9.1828 Y11.9010
G01 X9.1921 Y11.8982
G01 X9.2008 Y11.8936
G01 X9.2084 Y11.8874
G01 X9.2146 Y11.8798
G01 X9.2192 Y11.8711
G01 X9.2220 Y11.8618
G01 X9.2230 Y11.8520
G00 X9.2230 Y11.8520
G01 F100.00
G01 Z-1.6000
G01 F100.00
G01 X9.2220 Y11.8422
G01 X9.2192 Y11.8329
G01 X9.2146 Y11.8242
G01 X9.2084 Y11.8166
G01 X9.2008 Y11.8104
G01 X9.1921 Y11.8058
G01 X9.1828 Y11.8030
G01 X9.1730 Y11.8020
G01 X9.1632 Y11.8030
G01 X9.1539 Y11.8058
G01 X9.1452 Y11.8104
G01 X9.1376 Y11.8166
G01 X9.1314 Y11.8242
G01 X9.1268 Y11.8329
G01 X9.1240 Y11.8422
G01 X9.1230 Y11.8520
G01 X9.1240 Y11.8618
G01 X9.1268 Y11.8711
G01 X9.1314 Y11.8798
G01 X9.1376 Y11.8874
G01 X9.1452 Y11.8936
G01 X9.1539 Y11.8982
G01 X9.1632 Y11.9010
G01 X9.1730 Y11.9020
G01 X9.1828 Y11.9010
G01 X9.1921 Y11.8982
G01 X9.2008 Y11.8936
G01 X9.2084 Y11.8874
G01 X9.2146 Y11.8798
G01 X9.2192 Y11.8711
G01 X9.2220 Y11.8618
G01 X9.2230 Y11.8520
G00 X9.2230 Y11.8520
G01 F100.00
G01 Z-1.8000
G01 F100.00
G01 X9.2220 Y11.8422
G01 X9.2192 Y11.8329
G01 X9.2146 Y11.8242
G01 X9.2084 Y11.8166
G01 X9.2008 Y11.8104
G01 X9.1921 Y11.8058
G01 X9.1828 Y11.8030
G01 X9.1730 Y11.8020
G01 X9.1632 Y11.8030
G01 X9.1539 Y11.8058
G01 X9.1452 Y11.8104
G01 X9.1376 Y11.8166
G01 X9.1314 Y11.8242
G01 X9.1268 Y11.8329
G01 X9.1240 Y11.8422
G01 X9.1230 Y11.8520
G01 X9.1240 Y11.8618
G01 X9.1268 Y11.8711
G01 X9.1314 Y11.8798
G01 X9.1376 Y11.8874
G01 X9.1452 Y11.8936
G01 X9.1539 Y11.8982
G01 X9.1632 Y11.9010
G01 X9.1730 Y11.9020
G01 X9.1828 Y11.9010
G01 X9.1921 Y11.8982
G01 X9.2008 Y11.8936
G01 X9.2084 Y11.8874
G01 X9.2146 Y11.8798
G01 X9.2192 Y11.8711
G01 X9.2220 Y11.8618
G01 X9.2230 Y11.8520
G00 X9.2230 Y11.8520
G01 F100.00
G01 Z-2.0000
G01 F100.00
G01 X9.2220 Y11.8422
G01 X9.2192 Y11.8329
G01 X9.2146 Y11.8242
G01 X9.2084 Y11.8166
G01 X9.2008 Y11.8104
G01 X9.1921 Y11.8058
G01 X9.1828 Y11.8030
G01 X9.1730 Y11.8020
G01 X9.1632 Y11.8030
G01 X9.1539 Y11.8058
G01 X9.1452 Y11.8104
G01 X9.1376 Y11.8166
G01 X9.1314 Y11.8242
G01 X9.1268 Y11.8329
G01 X9.1240 Y11.8422
G01 X9.1230 Y11.8520
G01 X9.1240 Y11.8618
G01 X9.1268 Y11.8711
G01 X9.1314 Y11.8798
G01 X9.1376 Y11.8874
G01 X9.1452 Y11.8936
G01 X9.1539 Y11.8982
G01 X9.1632 Y11.9010
G01 X9.1730 Y11.9020
G01 X9.1828 Y11.9010
G01 X9.1921 Y11.8982
G01 X9.2008 Y11.8936
G01 X9.2084 Y11.8874
G01 X9.2146 Y11.8798
G01 X9.2192 Y11.8711
G01 X9.2220 Y11.8618
G01 X9.2230 Y11.8520
G00 Z2.0000
G00 X7.6020 Y12.3790
G01 F100.00
G01 Z-0.2000
G01 F100.00
G01 X7.6010 Y12.3692
G01 X7.5982 Y12.3599
G01 X7.5936 Y12.3512
G01 X7.5874 Y12.3436
G01 X7.5798 Y12.3374
G01 X7.5711 Y12.3328
G01 X7.5618 Y12.3300
G01 X7.5520 Y12.3290
G01 X7.5422 Y12.3300
G01 X7.5329 Y12.3328
G01 X7.5242 Y12.3374
G01 X7.5166 Y12.3436
G01 X7.5104 Y12.3512
G01 X7.5058 Y12.3599
G01 X7.5030 Y12.3692
G01 X7.5020 Y12.3790
G01 X7.5030 Y12.3888
G01 X7.5058 Y12.3981
G01 X7.5104 Y12.4068
G01 X7.5166 Y12.4144
G01 X7.5242 Y12.4206
G01 X7.5329 Y12.4252
G01 X7.5422 Y12.4280
G01 X7.5520 Y12.4290
G01 X7.5618 Y12.4280
G01 X7.5711 Y12.4252
G01 X7.5798 Y12.4206
G01 X7.5874 Y12.4144
G01 X7.5936 Y12.4068
G01 X7.5982 Y12.3981
G01 X7.6010 Y12.3888
G01 X7.6020 Y12.3790
G00 X7.6020 Y12.3790
G01 F100.00
G01 Z-0.4000
G01 F100.00
G01 X7.6010 Y12.3692
G01 X7.5982 Y12.3599
G01 X7.5936 Y12.3512
G01 X7.5874 Y12.3436
G01 X7.5798 Y12.3374
G01 X7.5711 Y12.3328
G01 X7.5618 Y12.3300
G01 X7.5520 Y12.3290
G01 X7.5422 Y12.3300
G01 X7.5329 Y12.3328
G01 X7.5242 Y12.3374
G01 X7.5166 Y12.3436
G01 X7.5104 Y12.3512
G01 X7.5058 Y12.3599
G01 X7.5030 Y12.3692
G01 X7.5020 Y12.3790
G01 X7.5030 Y12.3888
G01 X7.5058 Y12.3981
G01 X7.5104 Y12.4068
G01 X7.5166 Y12.4144
G01 X7.5242 Y12.4206
G01 X7.5329 Y12.4252
G01 X7.5422 Y12.4280
G01 X7.5520 Y12.4290
G01 X7.5618 Y12.4280
G01 X7.5711 Y12.4252
G01 X7.5798 Y12.4206
G01 X7.5874 Y12.4144
G01 X7.5936 Y12.4068
G01 X7.5982 Y12.3981
G01 X7.6010 Y12.3888
G01 X7.6020 Y12.3790
G00 X7.6020 Y12.3790
G01 F100.00
G01 Z-0.6000
G01 F100.00
G01 X7.6010 Y12.3692
G01 X7.5982 Y12.3599
G01 X7.5936 Y12.3512
G01 X7.5874 Y12.3436
G01 X7.5798 Y12.3374
G01 X7.5711 Y12.3328
G01 X7.5618 Y12.3300
G01 X7.5520 Y12.3290
G01 X7.5422 Y12.3300
G01 X7.5329 Y12.3328
G01 X7.5242 Y12.3374
G01 X7.5166 Y12.3436
G01 X7.5104 Y12.3512
G01 X7.5058 Y12.3599
G01 X7.5030 Y12.3692
G01 X7.5020 Y12.3790
G01 X7.5030 Y12.3888
G01 X7.5058 Y12.3981
G01 X7.5104 Y12.4068
G01 X7.5166 Y12.4144
G01 X7.5242 Y12.4206
G01 X7.5329 Y12.4252
G01 X7.5422 Y12.4280
G01 X7.5520 Y12.4290
G01 X7.5618 Y12.4280
G01 X7.5711 Y12.4252
G01 X7.5798 Y12.4206
G01 X7.5874 Y12.4144
G01 X7.5936 Y12.4068
G01 X7.5982 Y12.3981
G01 X7.6010 Y12.3888
G01 X7.6020 Y12.3790
G00 X7.6020 Y12.3790
G01 F100.00
G01 Z-0.8000
G01 F100.00
G01 X7.6010 Y12.3692
G01 X7.5982 Y12.3599
G01 X7.5936 Y12.3512
G01 X7.5874 Y12.3436
G01 X7.5798 Y12.3374
G01 X7.5711 Y12.3328
G01 X7.5618 Y12.3300
G01 X7.5520 Y12.3290
G01 X7.5422 Y12.3300
G01 X7.5329 Y12.3328
G01 X7.5242 Y12.3374
G01 X7.5166 Y12.3436
G01 X7.5104 Y12.3512
G01 X7.5058 Y12.3599
G01 X7.5030 Y12.3692
G01 X7.5020 Y12.3790
G01 X7.5030 Y12.3888
G01 X7.5058 Y12.3981
G01 X7.5104 Y12.4068
G01 X7.5166 Y12.4144
G01 X7.5242 Y12.4206
G01 X7.5329 Y12.4252
G01 X7.5422 Y12.4280
G01 X7.5520 Y12.4290
G01 X7.5618 Y12.4280
G01 X7.5711 Y12.4252
G01 X7.5798 Y12.4206
G01 X7.5874 Y12.4144
G01 X7.5936 Y12.4068
G01 X7.5982 Y12.3981
G01 X7.6010 Y12.3888
G01 X7.6020 Y12.3790
G00 X7.6020 Y12.3790
G01 F100.00
G01 Z-1.0000
G01 F100.00
G01 X7.6010 Y12.3692
G01 X7.5982 Y12.3599
G01 X7.5936 Y12.3512
G01 X7.5874 Y12.3436
G01 X7.5798 Y12.3374
G01 X7.5711 Y12.3328
G01 X7.5618 Y12.3300
G01 X7.5520 Y12.3290
G01 X7.5422 Y12.3300
G01 X7.5329 Y12.3328
G01 X7.5242 Y12.3374
G01 X7.5166 Y12.3436
G01 X7.5104 Y12.3512
G01 X7.5058 Y12.3599
G01 X7.5030 Y12.3692
G01 X7.5020 Y12.3790
G01 X7.5030 Y12.3888
G01 X7.5058 Y12.3981
G01 X7.5104 Y12.4068
G01 X7.5166 Y12.4144
G01 X7.5242 Y12.4206
G01 X7.5329 Y12.4252
G01 X7.5422 Y12.4280
G01 X7.5520 Y12.4290
G01 X7.5618 Y12.4280
G01 X7.5711 Y12.4252
G01 X7.5798 Y12.4206
G01 X7.5874 Y12.4144
G01 X7.5936 Y12.4068
G01 X7.5982 Y12.3981
G01 X7.6010 Y12.3888
G01 X7.6020 Y12.3790
G00 X7.6020 Y12.3790
G01 F100.00
G01 Z-1.2000
G01 F100.00
G01 X7.6010 Y12.3692
G01 X7.5982 Y12.3599
G01 X7.5936 Y12.3512
G01 X7.5874 Y12.3436
G01 X7.5798 Y12.3374
G01 X7.5711 Y12.3328
G01 X7.5618 Y12.3300
G01 X7.5520 Y12.3290
G01 X7.5422 Y12.3300
G01 X7.5329 Y12.3328
G01 X7.5242 Y12.3374
G01 X7.5166 Y12.3436
G01 X7.5104 Y12.3512
G01 X7.5058 Y12.3599
G01 X7.5030 Y12.3692
G01 X7.5020 Y12.3790
G01 X7.5030 Y12.3888
G01 X7.5058 Y12.3981
G01 X7.5104 Y12.4068
G01 X7.5166 Y12.4144
G01 X7.5242 Y12.4206
G01 X7.5329 Y12.4252
G01 X7.5422 Y12.4280
G01 X7.5520 Y12.4290
G01 X7.5618 Y12.4280
G01 X7.5711 Y12.4252
G01 X7.5798 Y12.4206
G01 X7.5874 Y12.4144
G01 X7.5936 Y12.4068
G01 X7.5982 Y12.3981
G01 X7.6010 Y12.3888
G01 X7.6020 Y12.3790
G00 X7.6020 Y12.3790
G01 F100.00
G01 Z-1.4000
G01 F100.00
G01 X7.6010 Y12.3692
G01 X7.5982 Y12.3599
G01 X7.5936 Y12.3512
G01 X7.5874 Y12.3436
G01 X7.5798 Y12.3374
G01 X7.5711 Y12.3328
G01 X7.5618 Y12.3300
G01 X7.5520 Y12.3290
G01 X7.5422 Y12.3300
G01 X7.5329 Y12.3328
G01 X7.5242 Y12.3374
G01 X7.5166 Y12.3436
G01 X7.5104 Y12.3512
G01 X7.5058 Y12.3599
G01 X7.5030 Y12.3692
G01 X7.5020 Y12.3790
G01 X7.5030 Y12.3888
G01 X7.5058 Y12.3981
G01 X7.5104 Y12.4068
G01 X7.5166 Y12.4144
G01 X7.5242 Y12.4206
G01 X7.5329 Y12.4252
G01 X7.5422 Y12.4280
G01 X7.5520 Y12.4290
G01 X7.5618 Y12.4280
G01 X7.5711 Y12.4252
G01 X7.5798 Y12.4206
G01 X7.5874 Y12.4144
G01 X7.5936 Y12.4068
G01 X7.5982 Y12.3981
G01 X7.6010 Y12.3888
G01 X7.6020 Y12.3790
G00 X7.6020 Y12.3790
G01 F100.00
G01 Z-1.6000
G01 F100.00
G01 X7.6010 Y12.3692
G01 X7.5982 Y12.3599
G01 X7.5936 Y12.3512
G01 X7.5874 Y12.3436
G01 X7.5798 Y12.3374
G01 X7.5711 Y12.3328
G01 X7.5618 Y12.3300
G01 X7.5520 Y12.3290
G01 X7.5422 Y12.3300
G01 X7.5329 Y12.3328
G01 X7.5242 Y12.3374
G01 X7.5166 Y12.3436
G01 X7.5104 Y12.3512
G01 X7.5058 Y12.3599
G01 X7.5030 Y12.3692
G01 X7.5020 Y12.3790
G01 X7.5030 Y12.3888
G01 X7.5058 Y12.3981
G01 X7.5104 Y12.4068
G01 X7.5166 Y12.4144
G01 X7.5242 Y12.4206
G01 X7.5329 Y12.4252
G01 X7.5422 Y12.4280
G01 X7.5520 Y12.4290
G01 X7.5618 Y12.4280
G01 X7.5711 Y12.4252
G01 X7.5798 Y12.4206
G01 X7.5874 Y12.4144
G01 X7.5936 Y12.4068
G01 X7.5982 Y12.3981
G01 X7.6010 Y12.3888
G01 X7.6020 Y12.3790
G00 X7.6020 Y12.3790
G01 F100.00
G01 Z-1.8000
G01 F100.00
G01 X7.6010 Y12.3692
G01 X7.5982 Y12.3599
G01 X7.5936 Y12.3512
G01 X7.5874 Y12.3436
G01 X7.5798 Y12.3374
G01 X7.5711 Y12.3328
G01 X7.5618 Y12.3300
G01 X7.5520 Y12.3290
G01 X7.5422 Y12.3300
G01 X7.5329 Y12.3328
G01 X7.5242 Y12.3374
G01 X7.5166 Y12.3436
G01 X7.5104 Y12.3512
G01 X7.5058 Y12.3599
G01 X7.5030 Y12.3692
G01 X7.5020 Y12.3790
G01 X7.5030 Y12.3888
G01 X7.5058 Y12.3981
G01 X7.5104 Y12.4068
G01 X7.5166 Y12.4144
G01 X7.5242 Y12.4206
G01 X7.5329 Y12.4252
G01 X7.5422 Y12.4280
G01 X7.5520 Y12.4290
G01 X7.5618 Y12.4280
G01 X7.5711 Y12.4252
G01 X7.5798 Y12.4206
G01 X7.5874 Y12.4144
G01 X7.5936 Y12.4068
G01 X7.5982 Y12.3981
G01 X7.6010 Y12.3888
G01 X7.6020 Y12.3790
G00 X7.6020 Y12.3790
G01 F100.00
G01 Z-2.0000
G01 F100.00
G01 X7.6010 Y12.3692
G01 X7.5982 Y12.3599
G01 X7.5936 Y12.3512
G01 X7.5874 Y12.3436
G01 X7.5798 Y12.3374
G01 X7.5711 Y12.3328
G01 X7.5618 Y12.3300
G01 X7.5520 Y12.3290
G01 X7.5422 Y12.3300
G01 X7.5329 Y12.3328
G01 X7.5242 Y12.3374
G01 X7.5166 Y12.3436
G01 X7.5104 Y12.3512
G01 X7.5058 Y12.3599
G01 X7.5030 Y12.3692
G01 X7.5020 Y12.3790
G01 X7.5030 Y12.3888
G01 X7.5058 Y12.3981
G01 X7.5104 Y12.4068
G01 X7.5166 Y12.4144
G01 X7.5242 Y12.4206
G01 X7.5329 Y12.4252
G01 X7.5422 Y12.4280
G01 X7.5520 Y12.4290
G01 X7.5618 Y12.4280
G01 X7.5711 Y12.4252
G01 X7.5798 Y12.4206
G01 X7.5874 Y12.4144
G01 X7.5936 Y12.4068
G01 X7.5982 Y12.3981
G01 X7.6010 Y12.3888
G01 X7.6020 Y12.3790
G00 Z2.0000
G00 X6.6000 Y11.0000
G01 F100.00
G01 Z-0.2000
G01 F100.00
G01 X6.5990 Y10.9902
G01 X6.5962 Y10.9809
G01 X6.5916 Y10.9722
G01 X6.5854 Y10.9646
G01 X6.5778 Y10.9584
G01 X6.5691 Y10.9538
G01 X6.5598 Y10.9510
G01 X6.5500 Y10.9500
G01 X6.5402 Y10.9510
G01 X6.5309 Y10.9538
G01 X6.5222 Y10.9584
G01 X6.5146 Y10.9646
G01 X6.5084 Y10.9722
G01 X6.5038 Y10.9809
G01 X6.5010 Y10.9902
G01 X6.5000 Y11.0000
G01 X6.5010 Y11.0098
G01 X6.5038 Y11.0191
G01 X6.5084 Y11.0278
G01 X6.5146 Y11.0354
G01 X6.5222 Y11.0416
G01 X6.5309 Y11.0462
G01 X6.5402 Y11.0490
G01 X6.5500 Y11.0500
G01 X6.5598 Y11.0490
G01 X6.5691 Y11.0462
G01 X6.5778 Y11.0416
G01 X6.5854 Y11.0354
G01 X6.5916 Y11.0278
G01 X6.5962 Y11.0191
G01 X6.5990 Y11.0098
G01 X6.6000 Y11.0000
G00 X6.6000 Y11.0000
G01 F100.00
G01 Z-0.4000
G01 F100.00
G01 X6.5990 Y10.9902
G01 X6.5962 Y10.9809
G01 X6.5916 Y10.9722
G01 X6.5854 Y10.9646
G01 X6.5778 Y10.9584
G01 X6.5691 Y10.9538
G01 X6.5598 Y10.9510
G01 X6.5500 Y10.9500
G01 X6.5402 Y10.9510
G01 X6.5309 Y10.9538
G01 X6.5222 Y10.9584
G01 X6.5146 Y10.9646
G01 X6.5084 Y10.9722
G01 X6.5038 Y10.9809
G01 X6.5010 Y10.9902
G01 X6.5000 Y11.0000
G01 X6.5010 Y11.0098
G01 X6.5038 Y11.0191
G01 X6.5084 Y11.0278
G01 X6.5146 Y11.0354
G01 X6.5222 Y11.0416
G01 X6.5309 Y11.0462
G01 X6.5402 Y11.0490
G01 X6.5500 Y11.0500
G01 X6.5598 Y11.0490
G01 X6.5691 Y11.0462
G01 X6.5778 Y11.0416
G01 X6.5854 Y11.0354
G01 X6.5916 Y11.0278
G01 X6.5962 Y11.0191
G01 X6.5990 Y11.0098
G01 X6.6000 Y11.0000
G00 X6.6000 Y11.0000
G01 F100.00
G01 Z-0.6000
G01 F100.00
G01 X6.5990 Y10.9902
G01 X6.5962 Y10.9809
G01 X6.5916 Y10.9722
G01 X6.5854 Y10.9646
G01 X6.5778 Y10.9584
G01 X6.5691 Y10.9538
G01 X6.5598 Y10.9510
G01 X6.5500 Y10.9500
G01 X6.5402 Y10.9510
G01 X6.5309 Y10.9538
G01 X6.5222 Y10.9584
G01 X6.5146 Y10.9646
G01 X6.5084 Y10.9722
G01 X6.5038 Y10.9809
G01 X6.5010 Y10.9902
G01 X6.5000 Y11.0000
G01 X6.5010 Y11.0098
G01 X6.5038 Y11.0191
G01 X6.5084 Y11.0278
G01 X6.5146 Y11.0354
G01 X6.5222 Y11.0416
G01 X6.5309 Y11.0462
G01 X6.5402 Y11.0490
G01 X6.5500 Y11.0500
G01 X6.5598 Y11.0490
G01 X6.5691 Y11.0462
G01 X6.5778 Y11.0416
G01 X6.5854 Y11.0354
G01 X6.5916 Y11.0278
G01 X6.5962 Y11.0191
G01 X6.5990 Y11.0098
G01 X6.6000 Y11.0000
G00 X6.6000 Y11.0000
G01 F100.00
G01 Z-0.8000
G01 F100.00
G01 X6.5990 Y10.9902
G01 X6.5962 Y10.9809
G01 X6.5916 Y10.9722
G01 X6.5854 Y10.9646
G01 X6.5778 Y10.9584
G01 X6.5691 Y10.9538
G01 X6.5598 Y10.9510
G01 X6.5500 Y10.9500
G01 X6.5402 Y10.9510
G01 X6.5309 Y10.9538
G01 X6.5222 Y10.9584
G01 X6.5146 Y10.9646
G01 X6.5084 Y10.9722
G01 X6.5038 Y10.9809
G01 X6.5010 Y10.9902
G01 X6.5000 Y11.0000
G01 X6.5010 Y11.0098
G01 X6.5038 Y11.0191
G01 X6.5084 Y11.0278
G01 X6.5146 Y11.0354
G01 X6.5222 Y11.0416
G01 X6.5309 Y11.0462
G01 X6.5402 Y11.0490
G01 X6.5500 Y11.0500
G01 X6.5598 Y11.0490
G01 X6.5691 Y11.0462
G01 X6.5778 Y11.0416
G01 X6.5854 Y11.0354
G01 X6.5916 Y11.0278
G01 X6.5962 Y11.0191
G01 X6.5990 Y11.0098
G01 X6.6000 Y11.0000
G00 X6.6000 Y11.0000
G01 F100.00
G01 Z-1.0000
G01 F100.00
G01 X6.5990 Y10.9902
G01 X6.5962 Y10.9809
G01 X6.5916 Y10.9722
G01 X6.5854 Y10.9646
G01 X6.5778 Y10.9584
G01 X6.5691 Y10.9538
G01 X6.5598 Y10.9510
G01 X6.5500 Y10.9500
G01 X6.5402 Y10.9510
G01 X6.5309 Y10.9538
G01 X6.5222 Y10.9584
G01 X6.5146 Y10.9646
G01 X6.5084 Y10.9722
G01 X6.5038 Y10.9809
G01 X6.5010 Y10.9902
G01 X6.5000 Y11.0000
G01 X6.5010 Y11.0098
G01 X6.5038 Y11.0191
G01 X6.5084 Y11.0278
G01 X6.5146 Y11.0354
G01 X6.5222 Y11.0416
G01 X6.5309 Y11.0462
G01 X6.5402 Y11.0490
G01 X6.5500 Y11.0500
G01 X6.5598 Y11.0490
G01 X6.5691 Y11.0462
G01 X6.5778 Y11.0416
G01 X6.5854 Y11.0354
G01 X6.5916 Y11.0278
G01 X6.5962 Y11.0191
G01 X6.5990 Y11.0098
G01 X6.6000 Y11.0000
G00 X6.6000 Y11.0000
G01 F100.00
G01 Z-1.2000
G01 F100.00
G01 X6.5990 Y10.9902
G01 X6.5962 Y10.9809
G01 X6.5916 Y10.9722
G01 X6.5854 Y10.9646
G01 X6.5778 Y10.9584
G01 X6.5691 Y10.9538
G01 X6.5598 Y10.9510
G01 X6.5500 Y10.9500
G01 X6.5402 Y10.9510
G01 X6.5309 Y10.9538
G01 X6.5222 Y10.9584
G01 X6.5146 Y10.9646
G01 X6.5084 Y10.9722
G01 X6.5038 Y10.9809
G01 X6.5010 Y10.9902
G01 X6.5000 Y11.0000
G01 X6.5010 Y11.0098
G01 X6.5038 Y11.0191
G01 X6.5084 Y11.0278
G01 X6.5146 Y11.0354
G01 X6.5222 Y11.0416
G01 X6.5309 Y11.0462
G01 X6.5402 Y11.0490
G01 X6.5500 Y11.0500
G01 X6.5598 Y11.0490
G01 X6.5691 Y11.0462
G01 X6.5778 Y11.0416
G01 X6.5854 Y11.0354
G01 X6.5916 Y11.0278
G01 X6.5962 Y11.0191
G01 X6.5990 Y11.0098
G01 X6.6000 Y11.0000
G00 X6.6000 Y11.0000
G01 F100.00
G01 Z-1.4000
G01 F100.00
G01 X6.5990 Y10.9902
G01 X6.5962 Y10.9809
G01 X6.5916 Y10.9722
G01 X6.5854 Y10.9646
G01 X6.5778 Y10.9584
G01 X6.5691 Y10.9538
G01 X6.5598 Y10.9510
G01 X6.5500 Y10.9500
G01 X6.5402 Y10.9510
G01 X6.5309 Y10.9538
G01 X6.5222 Y10.9584
G01 X6.5146 Y10.9646
G01 X6.5084 Y10.9722
G01 X6.5038 Y10.9809
G01 X6.5010 Y10.9902
G01 X6.5000 Y11.0000
G01 X6.5010 Y11.0098
G01 X6.5038 Y11.0191
G01 X6.5084 Y11.0278
G01 X6.5146 Y11.0354
G01 X6.5222 Y11.0416
G01 X6.5309 Y11.0462
G01 X6.5402 Y11.0490
G01 X6.5500 Y11.0500
G01 X6.5598 Y11.0490
G01 X6.5691 Y11.0462
G01 X6.5778 Y11.0416
G01 X6.5854 Y11.0354
G01 X6.5916 Y11.0278
G01 X6.5962 Y11.0191
G01 X6.5990 Y11.0098
G01 X6.6000 Y11.0000
G00 X6.6000 Y11.0000
G01 F100.00
G01 Z-1.6000
G01 F100.00
G01 X6.5990 Y10.9902
G01 X6.5962 Y10.9809
G01 X6.5916 Y10.9722
G01 X6.5854 Y10.9646
G01 X6.5778 Y10.9584
G01 X6.5691 Y10.9538
G01 X6.5598 Y10.9510
G01 X6.5500 Y10.9500
G01 X6.5402 Y10.9510
G01 X6.5309 Y10.9538
G01 X6.5222 Y10.9584
G01 X6.5146 Y10.9646
G01 X6.5084 Y10.9722
G01 X6.5038 Y10.9809
G01 X6.5010 Y10.9902
G01 X6.5000 Y11.0000
G01 X6.5010 Y11.0098
G01 X6.5038 Y11.0191
G01 X6.5084 Y11.0278
G01 X6.5146 Y11.0354
G01 X6.5222 Y11.0416
G01 X6.5309 Y11.0462
G01 X6.5402 Y11.0490
G01 X6.5500 Y11.0500
G01 X6.5598 Y11.0490
G01 X6.5691 Y11.0462
G01 X6.5778 Y11.0416
G01 X6.5854 Y11.0354
G01 X6.5916 Y11.0278
G01 X6.5962 Y11.0191
G01 X6.5990 Y11.0098
G01 X6.6000 Y11.0000
G00 X6.6000 Y11.0000
G01 F100.00
G01 Z-1.8000
G01 F100.00
G01 X6.5990 Y10.9902
G01 X6.5962 Y10.9809
G01 X6.5916 Y10.9722
G01 X6.5854 Y10.9646
G01 X6.5778 Y10.9584
G01 X6.5691 Y10.9538
G01 X6.5598 Y10.9510
G01 X6.5500 Y10.9500
G01 X6.5402 Y10.9510
G01 X6.5309 Y10.9538
G01 X6.5222 Y10.9584
G01 X6.5146 Y10.9646
G01 X6.5084 Y10.9722
G01 X6.5038 Y10.9809
G01 X6.5010 Y10.9902
G01 X6.5000 Y11.0000
G01 X6.5010 Y11.0098
G01 X6.5038 Y11.0191
G01 X6.5084 Y11.0278
G01 X6.5146 Y11.0354
G01 X6.5222 Y11.0416
G01 X6.5309 Y11.0462
G01 X6.5402 Y11.0490
G01 X6.5500 Y11.0500
G01 X6.5598 Y11.0490
G01 X6.5691 Y11.0462
G01 X6.5778 Y11.0416
G01 X6.5854 Y11.0354
G01 X6.5916 Y11.0278
G01 X6.5962 Y11.0191
G01 X6.5990 Y11.0098
G01 X6.6000 Y11.0000
G00 X6.6000 Y11.0000
G01 F100.00
G01 Z-2.0000
G01 F100.00
G01 X6.5990 Y10.9902
G01 X6.5962 Y10.9809
G01 X6.5916 Y10.9722
G01 X6.5854 Y10.9646
G01 X6.5778 Y10.9584
G01 X6.5691 Y10.9538
G01 X6.5598 Y10.9510
G01 X6.5500 Y10.9500
G01 X6.5402 Y10.9510
G01 X6.5309 Y10.9538
G01 X6.5222 Y10.9584
G01 X6.5146 Y10.9646
G01 X6.5084 Y10.9722
G01 X6.5038 Y10.9809
G01 X6.5010 Y10.9902
G01 X6.5000 Y11.0000
G01 X6.5010 Y11.0098
G01 X6.5038 Y11.0191
G01 X6.5084 Y11.0278
G01 X6.5146 Y11.0354
G01 X6.5222 Y11.0416
G01 X6.5309 Y11.0462
G01 X6.5402 Y11.0490
G01 X6.5500 Y11.0500
G01 X6.5598 Y11.0490
G01 X6.5691 Y11.0462
G01 X6.5778 Y11.0416
G01 X6.5854 Y11.0354
G01 X6.5916 Y11.0278
G01 X6.5962 Y11.0191
G01 X6.5990 Y11.0098
G01 X6.6000 Y11.0000
G00 Z2.0000
G00 X8.1500 Y16.5000
G01 F100.00
G01 Z-0.2000
G01 F100.00
G01 X8.1493 Y16.4853
G01 X8.1471 Y16.4707
G01 X8.1435 Y16.4565
G01 X8.1386 Y16.4426
G01 X8.1323 Y16.4293
G01 X8.1247 Y16.4167
G01 X8.1160 Y16.4048
G01 X8.1061 Y16.3939
G01 X8.0952 Y16.3840
G01 X8.0833 Y16.3753
G01 X8.0707 Y16.3677
G01 X8.0574 Y16.3614
G01 X8.0435 Y16.3565
G01 X8.0293 Y16.3529
G01 X8.0147 Y16.3507
G01 X8.0000 Y16.3500
G01 X7.9853 Y16.3507
G01 X7.9707 Y16.3529
G01 X7.9565 Y16.3565
G01 X7.9426 Y16.3614
G01 X7.9293 Y16.3677
G01 X7.9167 Y16.3753
G01 X7.9048 Y16.3840
G01 X7.8939 Y16.3939
G01 X7.8840 Y16.4048
G01 X7.8753 Y16.4167
G01 X7.8677 Y16.4293
G01 X7.8614 Y16.4426
G01 X7.8565 Y16.4565
G01 X7.8529 Y16.4707
G01 X7.8507 Y16.4853
G01 X7.8500 Y16.5000
G01 X7.8507 Y16.5147
G01 X7.8529 Y16.5293
G01 X7.8565 Y16.5435
G01 X7.8614 Y16.5574
G01 X7.8677 Y16.5707
G01 X7.8753 Y16.5833
G01 X7.8840 Y16.5952
G01 X7.8939 Y16.6061
G01 X7.9048 Y16.6160
G01 X7.9167 Y16.6247
G01 X7.9293 Y16.6323
G01 X7.9426 Y16.6386
G01 X7.9565 Y16.6435
G01 X7.9707 Y16.6471
G01 X7.9853 Y16.6493
G01 X8.0000 Y16.6500
G01 X8.0147 Y16.6493
G01 X8.0293 Y16.6471
G01 X8.0435 Y16.6435
G01 X8.0574 Y16.6386
G01 X8.0707 Y16.6323
G01 X8.0833 Y16.6247
G01 X8.0952 Y16.6160
G01 X8.1061 Y16.6061
G01 X8.1160 Y16.5952
G01 X8.1247 Y16.5833
G01 X8.1323 Y16.5707
G01 X8.1386 Y16.5574
G01 X8.1435 Y16.5435
G01 X8.1471 Y16.5293
G01 X8.1493 Y16.5147
G01 X8.1500 Y16.5000
G00 X8.1500 Y16.5000
G01 F100.00
G01 Z-0.4000
G01 F100.00
G01 X8.1493 Y16.4853
G01 X8.1471 Y16.4707
G01 X8.1435 Y16.4565
G01 X8.1386 Y16.4426
G01 X8.1323 Y16.4293
G01 X8.1247 Y16.4167
G01 X8.1160 Y16.4048
G01 X8.1061 Y16.3939
G01 X8.0952 Y16.3840
G01 X8.0833 Y16.3753
G01 X8.0707 Y16.3677
G01 X8.0574 Y16.3614
G01 X8.0435 Y16.3565
G01 X8.0293 Y16.3529
G01 X8.0147 Y16.3507
G01 X8.0000 Y16.3500
G01 X7.9853 Y16.3507
G01 X7.9707 Y16.3529
G01 X7.9565 Y16.3565
G01 X7.9426 Y16.3614
G01 X7.9293 Y16.3677
G01 X7.9167 Y16.3753
G01 X7.9048 Y16.3840
G01 X7.8939 Y16.3939
G01 X7.8840 Y16.4048
G01 X7.8753 Y16.4167
G01 X7.8677 Y16.4293
G01 X7.8614 Y16.4426
G01 X7.8565 Y16.4565
G01 X7.8529 Y16.4707
G01 X7.8507 Y16.4853
G01 X7.8500 Y16.5000
G01 X7.8507 Y16.5147
G01 X7.8529 Y16.5293
G01 X7.8565 Y16.5435
G01 X7.8614 Y16.5574
G01 X7.8677 Y16.5707
G01 X7.8753 Y16.5833
G01 X7.8840 Y16.5952
G01 X7.8939 Y16.6061
G01 X7.9048 Y16.6160
G01 X7.9167 Y16.6247
G01 X7.9293 Y16.6323
G01 X7.9426 Y16.6386
G01 X7.9565 Y16.6435
G01 X7.9707 Y16.6471
G01 X7.9853 Y16.6493
G01 X8.0000 Y16.6500
G01 X8.0147 Y16.6493
G01 X8.0293 Y16.6471
G01 X8.0435 Y16.6435
G01 X8.0574 Y16.6386
G01 X8.0707 Y16.6323
G01 X8.0833 Y16.6247
G01 X8.0952 Y16.6160
G01 X8.1061 Y16.6061
G01 X8.1160 Y16.5952
G01 X8.1247 Y16.5833
G01 X8.1323 Y16.5707
G01 X8.1386 Y16.5574
G01 X8.1435 Y16.5435
G01 X8.1471 Y16.5293
G01 X8.1493 Y16.5147
G01 X8.1500 Y16.5000
G00 X8.1500 Y16.5000
G01 F100.00
G01 Z-0.6000
G01 F100.00
G01 X8.1493 Y16.4853
G01 X8.1471 Y16.4707
G01 X8.1435 Y16.4565
G01 X8.1386 Y16.4426
G01 X8.1323 Y16.4293
G01 X8.1247 Y16.4167
G01 X8.1160 Y16.4048
G01 X8.1061 Y16.3939
G01 X8.0952 Y16.3840
G01 X8.0833 Y16.3753
G01 X8.0707 Y16.3677
G01 X8.0574 Y16.3614
G01 X8.0435 Y16.3565
G01 X8.0293 Y16.3529
G01 X8.0147 Y16.3507
G01 X8.0000 Y16.3500
G01 X7.9853 Y16.3507
G01 X7.9707 Y16.3529
G01 X7.9565 Y16.3565
G01 X7.9426 Y16.3614
G01 X7.9293 Y16.3677
G01 X7.9167 Y16.3753
G01 X7.9048 Y16.3840
G01 X7.8939 Y16.3939
G01 X7.8840 Y16.4048
G01 X7.8753 Y16.4167
G01 X7.8677 Y16.4293
G01 X7.8614 Y16.4426
G01 X7.8565 Y16.4565
G01 X7.8529 Y16.4707
G01 X7.8507 Y16.4853
G01 X7.8500 Y16.5000
G01 X7.8507 Y16.5147
G01 X7.8529 Y16.5293
G01 X7.8565 Y16.5435
G01 X7.8614 Y16.5574
G01 X7.8677 Y16.5707
G01 X7.8753 Y16.5833
G01 X7.8840 Y16.5952
G01 X7.8939 Y16.6061
G01 X7.9048 Y16.6160
G01 X7.9167 Y16.6247
G01 X7.9293 Y16.6323
G01 X7.9426 Y16.6386
G01 X7.9565 Y16.6435
G01 X7.9707 Y16.6471
G01 X7.9853 Y16.6493
G01 X8.0000 Y16.6500
G01 X8.0147 Y16.6493
G01 X8.0293 Y16.6471
G01 X8.0435 Y16.6435
G01 X8.0574 Y16.6386
G01 X8.0707 Y16.6323
G01 X8.0833 Y16.6247
G01 X8.0952 Y16.6160
G01 X8.1061 Y16.6061
G01 X8.1160 Y16.5952
G01 X8.1247 Y16.5833
G01 X8.1323 Y16.5707
G01 X8.1386 Y16.5574
G01 X8.1435 Y16.5435
G01 X8.1471 Y16.5293
G01 X8.1493 Y16.5147
G01 X8.1500 Y16.5000
G00 X8.1500 Y16.5000
G01 F100.00
G01 Z-0.8000
G01 F100.00
G01 X8.1493 Y16.4853
G01 X8.1471 Y16.4707
G01 X8.1435 Y16.4565
G01 X8.1386 Y16.4426
G01 X8.1323 Y16.4293
G01 X8.1247 Y16.4167
G01 X8.1160 Y16.4048
G01 X8.1061 Y16.3939
G01 X8.0952 Y16.3840
G01 X8.0833 Y16.3753
G01 X8.0707 Y16.3677
G01 X8.0574 Y16.3614
G01 X8.0435 Y16.3565
G01 X8.0293 Y16.3529
G01 X8.0147 Y16.3507
G01 X8.0000 Y16.3500
G01 X7.9853 Y16.3507
G01 X7.9707 Y16.3529
G01 X7.9565 Y16.3565
G01 X7.9426 Y16.3614
G01 X7.9293 Y16.3677
G01 X7.9167 Y16.3753
G01 X7.9048 Y16.3840
G01 X7.8939 Y16.3939
G01 X7.8840 Y16.4048
G01 X7.8753 Y16.4167
G01 X7.8677 Y16.4293
G01 X7.8614 Y16.4426
G01 X7.8565 Y16.4565
G01 X7.8529 Y16.4707
G01 X7.8507 Y16.4853
G01 X7.8500 Y16.5000
G01 X7.8507 Y16.5147
G01 X7.8529 Y16.5293
G01 X7.8565 Y16.5435
G01 X7.8614 Y16.5574
G01 X7.8677 Y16.5707
G01 X7.8753 Y16.5833
G01 X7.8840 Y16.5952
G01 X7.8939 Y16.6061
G01 X7.9048 Y16.6160
G01 X7.9167 Y16.6247
G01 X7.9293 Y16.6323
G01 X7.9426 Y16.6386
G01 X7.9565 Y16.6435
G01 X7.9707 Y16.6471
G01 X7.9853 Y16.6493
G01 X8.0000 Y16.6500
G01 X8.0147 Y16.6493
G01 X8.0293 Y16.6471
G01 X8.0435 Y16.6435
G01 X8.0574 Y16.6386
G01 X8.0707 Y16.6323
G01 X8.0833 Y16.6247
G01 X8.0952 Y16.6160
G01 X8.1061 Y16.6061
G01 X8.1160 Y16.5952
G01 X8.1247 Y16.5833
G01 X8.1323 Y16.5707
G01 X8.1386 Y16.5574
G01 X8.1435 Y16.5435
G01 X8.1471 Y16.5293
G01 X8.1493 Y16.5147
G01 X8.1500 Y16.5000
G00 X8.1500 Y16.5000
G01 F100.00
G01 Z-1.0000
G01 F100.00
G01 X8.1493 Y16.4853
G01 X8.1471 Y16.4707
G01 X8.1435 Y16.4565
G01 X8.1386 Y16.4426
G01 X8.1323 Y16.4293
G01 X8.1247 Y16.4167
G01 X8.1160 Y16.4048
G01 X8.1061 Y16.3939
G01 X8.0952 Y16.3840
G01 X8.0833 Y16.3753
G01 X8.0707 Y16.3677
G01 X8.0574 Y16.3614
G01 X8.0435 Y16.3565
G01 X8.0293 Y16.3529
G01 X8.0147 Y16.3507
G01 X8.0000 Y16.3500
G01 X7.9853 Y16.3507
G01 X7.9707 Y16.3529
G01 X7.9565 Y16.3565
G01 X7.9426 Y16.3614
G01 X7.9293 Y16.3677
G01 X7.9167 Y16.3753
G01 X7.9048 Y16.3840
G01 X7.8939 Y16.3939
G01 X7.8840 Y16.4048
G01 X7.8753 Y16.4167
G01 X7.8677 Y16.4293
G01 X7.8614 Y16.4426
G01 X7.8565 Y16.4565
G01 X7.8529 Y16.4707
G01 X7.8507 Y16.4853
G01 X7.8500 Y16.5000
G01 X7.8507 Y16.5147
G01 X7.8529 Y16.5293
G01 X7.8565 Y16.5435
G01 X7.8614 Y16.5574
G01 X7.8677 Y16.5707
G01 X7.8753 Y16.5833
G01 X7.8840 Y16.5952
G01 X7.8939 Y16.6061
G01 X7.9048 Y16.6160
G01 X7.9167 Y16.6247
G01 X7.9293 Y16.6323
G01 X7.9426 Y16.6386
G01 X7.9565 Y16.6435
G01 X7.9707 Y16.6471
G01 X7.9853 Y16.6493
G01 X8.0000 Y16.6500
G01 X8.0147 Y16.6493
G01 X8.0293 Y16.6471
G01 X8.0435 Y16.6435
G01 X8.0574 Y16.6386
G01 X8.0707 Y16.6323
G01 X8.0833 Y16.6247
G01 X8.0952 Y16.6160
G01 X8.1061 Y16.6061
G01 X8.1160 Y16.5952
G01 X8.1247 Y16.5833
G01 X8.1323 Y16.5707
G01 X8.1386 Y16.5574
G01 X8.1435 Y16.5435
G01 X8.1471 Y16.5293
G01 X8.1493 Y16.5147
G01 X8.1500 Y16.5000
G00 X8.1500 Y16.5000
G01 F100.00
G01 Z-1.2000
G01 F100.00
G01 X8.1493 Y16.4853
G01 X8.1471 Y16.4707
G01 X8.1435 Y16.4565
G01 X8.1386 Y16.4426
G01 X8.1323 Y16.4293
G01 X8.1247 Y16.4167
G01 X8.1160 Y16.4048
G01 X8.1061 Y16.3939
G01 X8.0952 Y16.3840
G01 X8.0833 Y16.3753
G01 X8.0707 Y16.3677
G01 X8.0574 Y16.3614
G01 X8.0435 Y16.3565
G01 X8.0293 Y16.3529
G01 X8.0147 Y16.3507
G01 X8.0000 Y16.3500
G01 X7.9853 Y16.3507
G01 X7.9707 Y16.3529
G01 X7.9565 Y16.3565
G01 X7.9426 Y16.3614
G01 X7.9293 Y16.3677
G01 X7.9167 Y16.3753
G01 X7.9048 Y16.3840
G01 X7.8939 Y16.3939
G01 X7.8840 Y16.4048
G01 X7.8753 Y16.4167
G01 X7.8677 Y16.4293
G01 X7.8614 Y16.4426
G01 X7.8565 Y16.4565
G01 X7.8529 Y16.4707
G01 X7.8507 Y16.4853
G01 X7.8500 Y16.5000
G01 X7.8507 Y16.5147
G01 X7.8529 Y16.5293
G01 X7.8565 Y16.5435
G01 X7.8614 Y16.5574
G01 X7.8677 Y16.5707
G01 X7.8753 Y16.5833
G01 X7.8840 Y16.5952
G01 X7.8939 Y16.6061
G01 X7.9048 Y16.6160
G01 X7.9167 Y16.6247
G01 X7.9293 Y16.6323
G01 X7.9426 Y16.6386
G01 X7.9565 Y16.6435
G01 X7.9707 Y16.6471
G01 X7.9853 Y16.6493
G01 X8.0000 Y16.6500
G01 X8.0147 Y16.6493
G01 X8.0293 Y16.6471
G01 X8.0435 Y16.6435
G01 X8.0574 Y16.6386
G01 X8.0707 Y16.6323
G01 X8.0833 Y16.6247
G01 X8.0952 Y16.6160
G01 X8.1061 Y16.6061
G01 X8.1160 Y16.5952
G01 X8.1247 Y16.5833
G01 X8.1323 Y16.5707
G01 X8.1386 Y16.5574
G01 X8.1435 Y16.5435
G01 X8.1471 Y16.5293
G01 X8.1493 Y16.5147
G01 X8.1500 Y16.5000
G00 X8.1500 Y16.5000
G01 F100.00
G01 Z-1.4000
G01 F100.00
G01 X8.1493 Y16.4853
G01 X8.1471 Y16.4707
G01 X8.1435 Y16.4565
G01 X8.1386 Y16.4426
G01 X8.1323 Y16.4293
G01 X8.1247 Y16.4167
G01 X8.1160 Y16.4048
G01 X8.1061 Y16.3939
G01 X8.0952 Y16.3840
G01 X8.0833 Y16.3753
G01 X8.0707 Y16.3677
G01 X8.0574 Y16.3614
G01 X8.0435 Y16.3565
G01 X8.0293 Y16.3529
G01 X8.0147 Y16.3507
G01 X8.0000 Y16.3500
G01 X7.9853 Y16.3507
G01 X7.9707 Y16.3529
G01 X7.9565 Y16.3565
G01 X7.9426 Y16.3614
G01 X7.9293 Y16.3677
G01 X7.9167 Y16.3753
G01 X7.9048 Y16.3840
G01 X7.8939 Y16.3939
G01 X7.8840 Y16.4048
G01 X7.8753 Y16.4167
G01 X7.8677 Y16.4293
G01 X7.8614 Y16.4426
G01 X7.8565 Y16.4565
G01 X7.8529 Y16.4707
G01 X7.8507 Y16.4853
G01 X7.8500 Y16.5000
G01 X7.8507 Y16.5147
G01 X7.8529 Y16.5293
G01 X7.8565 Y16.5435
G01 X7.8614 Y16.5574
G01 X7.8677 Y16.5707
G01 X7.8753 Y16.5833
G01 X7.8840 Y16.5952
G01 X7.8939 Y16.6061
G01 X7.9048 Y16.6160
G01 X7.9167 Y16.6247
G01 X7.9293 Y16.6323
G01 X7.9426 Y16.6386
G01 X7.9565 Y16.6435
G01 X7.9707 Y16.6471
G01 X7.9853 Y16.6493
G01 X8.0000 Y16.6500
G01 X8.0147 Y16.6493
G01 X8.0293 Y16.6471
G01 X8.0435 Y16.6435
G01 X8.0574 Y16.6386
G01 X8.0707 Y16.6323
G01 X8.0833 Y16.6247
G01 X8.0952 Y16.6160
G01 X8.1061 Y16.6061
G01 X8.1160 Y16.5952
G01 X8.1247 Y16.5833
G01 X8.1323 Y16.5707
G01 X8.1386 Y16.5574
G01 X8.1435 Y16.5435
G01 X8.1471 Y16.5293
G01 X8.1493 Y16.5147
G01 X8.1500 Y16.5000
G00 X8.1500 Y16.5000
G01 F100.00
G01 Z-1.6000
G01 F100.00
G01 X8.1493 Y16.4853
G01 X8.1471 Y16.4707
G01 X8.1435 Y16.4565
G01 X8.1386 Y16.4426
G01 X8.1323 Y16.4293
G01 X8.1247 Y16.4167
G01 X8.1160 Y16.4048
G01 X8.1061 Y16.3939
G01 X8.0952 Y16.3840
G01 X8.0833 Y16.3753
G01 X8.0707 Y16.3677
G01 X8.0574 Y16.3614
G01 X8.0435 Y16.3565
G01 X8.0293 Y16.3529
G01 X8.0147 Y16.3507
G01 X8.0000 Y16.3500
G01 X7.9853 Y16.3507
G01 X7.9707 Y16.3529
G01 X7.9565 Y16.3565
G01 X7.9426 Y16.3614
G01 X7.9293 Y16.3677
G01 X7.9167 Y16.3753
G01 X7.9048 Y16.3840
G01 X7.8939 Y16.3939
G01 X7.8840 Y16.4048
G01 X7.8753 Y16.4167
G01 X7.8677 Y16.4293
G01 X7.8614 Y16.4426
G01 X7.8565 Y16.4565
G01 X7.8529 Y16.4707
G01 X7.8507 Y16.4853
G01 X7.8500 Y16.5000
G01 X7.8507 Y16.5147
G01 X7.8529 Y16.5293
G01 X7.8565 Y16.5435
G01 X7.8614 Y16.5574
G01 X7.8677 Y16.5707
G01 X7.8753 Y16.5833
G01 X7.8840 Y16.5952
G01 X7.8939 Y16.6061
G01 X7.9048 Y16.6160
G01 X7.9167 Y16.6247
G01 X7.9293 Y16.6323
G01 X7.9426 Y16.6386
G01 X7.9565 Y16.6435
G01 X7.9707 Y16.6471
G01 X7.9853 Y16.6493
G01 X8.0000 Y16.6500
G01 X8.0147 Y16.6493
G01 X8.0293 Y16.6471
G01 X8.0435 Y16.6435
G01 X8.0574 Y16.6386
G01 X8.0707 Y16.6323
G01 X8.0833 Y16.6247
G01 X8.0952 Y16.6160
G01 X8.1061 Y16.6061
G01 X8.1160 Y16.5952
G01 X8.1247 Y16.5833
G01 X8.1323 Y16.5707
G01 X8.1386 Y16.5574
G01 X8.1435 Y16.5435
G01 X8.1471 Y16.5293
G01 X8.1493 Y16.5147
G01 X8.1500 Y16.5000
G00 X8.1500 Y16.5000
G01 F100.00
G01 Z-1.8000
G01 F100.00
G01 X8.1493 Y16.4853
G01 X8.1471 Y16.4707
G01 X8.1435 Y16.4565
G01 X8.1386 Y16.4426
G01 X8.1323 Y16.4293
G01 X8.1247 Y16.4167
G01 X8.1160 Y16.4048
G01 X8.1061 Y16.3939
G01 X8.0952 Y16.3840
G01 X8.0833 Y16.3753
G01 X8.0707 Y16.3677
G01 X8.0574 Y16.3614
G01 X8.0435 Y16.3565
G01 X8.0293 Y16.3529
G01 X8.0147 Y16.3507
G01 X8.0000 Y16.3500
G01 X7.9853 Y16.3507
G01 X7.9707 Y16.3529
G01 X7.9565 Y16.3565
G01 X7.9426 Y16.3614
G01 X7.9293 Y16.3677
G01 X7.9167 Y16.3753
G01 X7.9048 Y16.3840
G01 X7.8939 Y16.3939
G01 X7.8840 Y16.4048
G01 X7.8753 Y16.4167
G01 X7.8677 Y16.4293
G01 X7.8614 Y16.4426
G01 X7.8565 Y16.4565
G01 X7.8529 Y16.4707
G01 X7.8507 Y16.4853
G01 X7.8500 Y16.5000
G01 X7.8507 Y16.5147
G01 X7.8529 Y16.5293
G01 X7.8565 Y16.5435
G01 X7.8614 Y16.5574
G01 X7.8677 Y16.5707
G01 X7.8753 Y16.5833
G01 X7.8840 Y16.5952
G01 X7.8939 Y16.6061
G01 X7.9048 Y16.6160
G01 X7.9167 Y16.6247
G01 X7.9293 Y16.6323
G01 X7.9426 Y16.6386
G01 X7.9565 Y16.6435
G01 X7.9707 Y16.6471
G01 X7.9853 Y16.6493
G01 X8.0000 Y16.6500
G01 X8.0147 Y16.6493
G01 X8.0293 Y16.6471
G01 X8.0435 Y16.6435
G01 X8.0574 Y16.6386
G01 X8.0707 Y16.6323
G01 X8.0833 Y16.6247
G01 X8.0952 Y16.6160
G01 X8.1061 Y16.6061
G01 X8.1160 Y16.5952
G01 X8.1247 Y16.5833
G01 X8.1323 Y16.5707
G01 X8.1386 Y16.5574
G01 X8.1435 Y16.5435
G01 X8.1471 Y16.5293
G01 X8.1493 Y16.5147
G01 X8.1500 Y16.5000
G00 X8.1500 Y16.5000
G01 F100.00
G01 Z-2.0000
G01 F100.00
G01 X8.1493 Y16.4853
G01 X8.1471 Y16.4707
G01 X8.1435 Y16.4565
G01 X8.1386 Y16.4426
G01 X8.1323 Y16.4293
G01 X8.1247 Y16.4167
G01 X8.1160 Y16.4048
G01 X8.1061 Y16.3939
G01 X8.0952 Y16.3840
G01 X8.0833 Y16.3753
G01 X8.0707 Y16.3677
G01 X8.0574 Y16.3614
G01 X8.0435 Y16.3565
G01 X8.0293 Y16.3529
G01 X8.0147 Y16.3507
G01 X8.0000 Y16.3500
G01 X7.9853 Y16.3507
G01 X7.9707 Y16.3529
G01 X7.9565 Y16.3565
G01 X7.9426 Y16.3614
G01 X7.9293 Y16.3677
G01 X7.9167 Y16.3753
G01 X7.9048 Y16.3840
G01 X7.8939 Y16.3939
G01 X7.8840 Y16.4048
G01 X7.8753 Y16.4167
G01 X7.8677 Y16.4293
G01 X7.8614 Y16.4426
G01 X7.8565 Y16.4565
G01 X7.8529 Y16.4707
G01 X7.8507 Y16.4853
G01 X7.8500 Y16.5000
G01 X7.8507 Y16.5147
G01 X7.8529 Y16.5293
G01 X7.8565 Y16.5435
G01 X7.8614 Y16.5574
G01 X7.8677 Y16.5707
G01 X7.8753 Y16.5833
G01 X7.8840 Y16.5952
G01 X7.8939 Y16.6061
G01 X7.9048 Y16.6160
G01 X7.9167 Y16.6247
G01 X7.9293 Y16.6323
G01 X7.9426 Y16.6386
G01 X7.9565 Y16.6435
G01 X7.9707 Y16.6471
G01 X7.9853 Y16.6493
G01 X8.0000 Y16.6500
G01 X8.0147 Y16.6493
G01 X8.0293 Y16.6471
G01 X8.0435 Y16.6435
G01 X8.0574 Y16.6386
G01 X8.0707 Y16.6323
G01 X8.0833 Y16.6247
G01 X8.0952 Y16.6160
G01 X8.1061 Y16.6061
G01 X8.1160 Y16.5952
G01 X8.1247 Y16.5833
G01 X8.1323 Y16.5707
G01 X8.1386 Y16.5574
G01 X8.1435 Y16.5435
G01 X8.1471 Y16.5293
G01 X8.1493 Y16.5147
G01 X8.1500 Y16.5000
G00 Z2.0000
M05
G00 Z2.0000
G00 Z20.00
G00 X0.0 Y0.0

M02