(G-CODE GENERATED BY FLATCAM v8.914 - www.flatcam.org - Version Date: 2019/04/23)

(Name: 5pin-F.Cu.gtl_iso_cnc)
(Type: G-code from Geometry)
(Units: MM)

(Created on Thursday, 02 May 2019 at 17:21)

(TOOL DIAMETER: 0.1 mm)
(Feedrate: 100.0 mm/min)
(Feedrate_Z: 100.0 mm/min)
(Feedrate rapids 200.0 mm/min)

(Z_Cut: -0.2 mm)
(Z_Move: 2.0 mm)
(Z Toolchange: 25.0 mm)
(X,Y Toolchange: 0.0000, 0.0000 mm)
(Z Start: None mm)
(Z End: 20.0 mm)
(Steps per circle: 64)
(Postprocessor Geometry: default)

(X range:    1.1147 ...   12.7600  mm)
(Y range:    1.4900 ...   17.6350  mm)

(Spindle Speed: 5000 RPM)

G21
G90
G94

G01 F100.00
G00 Z2.0000

M03 S5000
G00 X1.1150 Y6.4924
G01 F100.00
G01 Z-0.2000
G01 F100.00
G01 X1.1187 Y6.4289
G01 X1.1292 Y6.3661
G01 X1.1326 Y6.3513
G01 X1.1481 Y6.2974
G01 X1.1531 Y6.2831
G01 X1.1777 Y6.2244
G01 X1.2121 Y6.1620
G01 X1.2533 Y6.1039
G01 X1.2956 Y6.0563
G01 X3.3647 Y3.9869
G01 X3.3647 Y3.0095
G01 X3.3532 Y3.0082
G01 X3.3383 Y3.0049
G01 X3.3238 Y2.9999
G01 X3.3100 Y2.9933
G01 X3.2971 Y2.9852
G01 X3.2851 Y2.9757
G01 X3.2743 Y2.9649
G01 X3.2648 Y2.9529
G01 X3.2567 Y2.9400
G01 X3.2501 Y2.9262
G01 X3.2451 Y2.9117
G01 X3.2418 Y2.8968
G01 X3.2402 Y2.8816
G01 X3.2400 Y1.6250
G01 X3.2418 Y1.6032
G01 X3.2451 Y1.5883
G01 X3.2501 Y1.5738
G01 X3.2567 Y1.5600
G01 X3.2648 Y1.5471
G01 X3.2743 Y1.5351
G01 X3.2851 Y1.5243
G01 X3.2971 Y1.5148
G01 X3.3100 Y1.5067
G01 X3.3238 Y1.5001
G01 X3.3383 Y1.4951
G01 X3.3532 Y1.4918
G01 X3.3750 Y1.4900
G01 X4.6250 Y1.4900
G01 X4.6468 Y1.4918
G01 X4.6617 Y1.4951
G01 X4.6762 Y1.5001
G01 X4.6900 Y1.5067
G01 X4.7029 Y1.5148
G01 X4.7149 Y1.5243
G01 X4.7257 Y1.5351
G01 X4.7352 Y1.5471
G01 X4.7433 Y1.5600
G01 X4.7499 Y1.5738
G01 X4.7549 Y1.5883
G01 X4.7582 Y1.6032
G01 X4.7598 Y1.6184
G01 X4.7598 Y2.8816
G01 X4.7582 Y2.8968
G01 X4.7549 Y2.9117
G01 X4.7499 Y2.9262
G01 X4.7433 Y2.9400
G01 X4.7352 Y2.9529
G01 X4.7257 Y2.9649
G01 X4.7149 Y2.9757
G01 X4.7029 Y2.9852
G01 X4.6900 Y2.9933
G01 X4.6762 Y2.9999
G01 X4.6617 Y3.0049
G01 X4.6468 Y3.0082
G01 X4.6353 Y3.0095
G01 X4.6352 Y4.2538
G01 X4.6313 Y4.3211
G01 X4.6193 Y4.3914
G01 X4.5996 Y4.4598
G01 X4.5754 Y4.5187
G01 X4.5689 Y4.5324
G01 X4.5417 Y4.5815
G01 X4.5337 Y4.5943
G01 X4.4967 Y4.6461
G01 X4.4492 Y4.6992
G01 X2.3853 Y6.7631
G01 X2.3853 Y12.2369
G01 X4.2631 Y14.1147
G01 X8.4869 Y14.1147
G01 X8.5378 Y14.0638
G01 X8.5378 Y12.3527
G01 X8.5131 Y12.2995
G01 X8.4836 Y12.2126
G01 X8.4796 Y12.1980
G01 X8.4618 Y12.1158
G01 X8.4594 Y12.1008
G01 X8.4504 Y12.0096
G01 X8.4512 Y11.9179
G01 X8.4522 Y11.9027
G01 X8.4637 Y11.8118
G01 X8.4869 Y11.7152
G01 X8.5208 Y11.6219
G01 X8.5648 Y11.5329
G01 X8.6186 Y11.4494
G01 X8.6814 Y11.3725
G01 X8.7524 Y11.3031
G01 X8.8307 Y11.2421
G01 X8.9153 Y11.1902
G01 X9.0053 Y11.1481
G01 X9.0993 Y11.1164
G01 X9.1889 Y11.0968
G01 X9.2039 Y11.0944
G01 X9.2952 Y11.0854
G01 X9.3869 Y11.0862
G01 X9.4020 Y11.0872
G01 X9.4855 Y11.0976
G01 X9.5004 Y11.1003
G01 X9.5895 Y11.1219
G01 X9.6829 Y11.1557
G01 X9.7718 Y11.1998
G01 X9.8553 Y11.2536
G01 X11.0688 Y12.1352
G01 X11.1400 Y12.1931
G01 X11.1512 Y12.2033
G01 X11.2100 Y12.2634
G01 X11.2200 Y12.2748
G01 X11.2762 Y12.3473
G01 X11.3243 Y12.4254
G01 X11.3315 Y12.4387
G01 X11.3701 Y12.5219
G01 X11.4019 Y12.6160
G01 X11.4229 Y12.7130
G01 X11.4329 Y12.8118
G01 X11.4318 Y12.9111
G01 X11.4207 Y13.0021
G01 X11.4180 Y13.0170
G01 X11.3983 Y13.0988
G01 X11.3940 Y13.1133
G01 X11.3625 Y13.1995
G01 X11.3184 Y13.2885
G01 X11.2647 Y13.3719
G01 X11.2019 Y13.4489
G01 X11.1309 Y13.5183
G01 X11.0526 Y13.5793
G01 X10.9680 Y13.6312
G01 X10.8780 Y13.6733
G01 X10.7839 Y13.7050
G01 X10.6869 Y13.7260
G01 X10.5881 Y13.7360
G01 X10.4964 Y13.7352
G01 X10.4813 Y13.7342
G01 X10.3903 Y13.7227
G01 X10.3011 Y13.7015
G01 X10.2866 Y13.6971
G01 X10.2075 Y13.6684
G01 X10.1936 Y13.6625
G01 X10.1115 Y13.6216
G01 X10.0342 Y13.5721
G01 X9.8083 Y13.4082
G01 X9.8083 Y14.3269
G01 X9.8043 Y14.3980
G01 X9.7924 Y14.4683
G01 X9.7750 Y14.5295
G01 X9.7700 Y14.5438
G01 X9.7454 Y14.6025
G01 X9.7148 Y14.6584
G01 X9.7067 Y14.6712
G01 X9.6697 Y14.7230
G01 X9.6223 Y14.7761
G01 X9.1965 Y15.2018
G01 X9.1461 Y15.2467
G01 X9.0943 Y15.2837
G01 X9.0815 Y15.2917
G01 X9.0256 Y15.3223
G01 X8.9598 Y15.3496
G01 X8.8987 Y15.3674
G01 X8.8839 Y15.3708
G01 X8.8286 Y15.3802
G01 X8.8136 Y15.3819
G01 X8.7500 Y15.3853
G01 X8.2055 Y15.3853
G01 X8.2526 Y15.3935
G01 X8.3749 Y15.4287
G01 X8.4855 Y15.4743
G01 X8.4992 Y15.4809
G01 X8.6039 Y15.5390
G01 X8.7016 Y15.6081
G01 X8.7134 Y15.6175
G01 X8.8026 Y15.6974
G01 X8.8825 Y15.7866
G01 X8.8919 Y15.7984
G01 X8.9610 Y15.8961
G01 X9.0191 Y16.0008
G01 X9.0257 Y16.0145
G01 X9.0713 Y16.1251
G01 X9.1047 Y16.2401
G01 X9.1080 Y16.2549
G01 X9.1279 Y16.3729
G01 X9.1348 Y16.4924
G01 X9.1348 Y16.5076
G01 X9.1285 Y16.6195
G01 X9.1268 Y16.6346
G01 X9.1065 Y16.7526
G01 X9.0736 Y16.8677
G01 X9.0686 Y16.8819
G01 X9.0226 Y16.9925
G01 X8.9649 Y17.0973
G01 X8.9568 Y17.1102
G01 X8.8874 Y17.2077
G01 X8.8078 Y17.2971
G01 X8.7971 Y17.3078
G01 X8.7077 Y17.3874
G01 X8.6102 Y17.4568
G01 X8.5973 Y17.4649
G01 X8.4925 Y17.5226
G01 X8.3749 Y17.5713
G01 X8.2526 Y17.6065
G01 X8.1271 Y17.6279
G01 X8.0000 Y17.6350
G01 X7.8729 Y17.6279
G01 X7.7474 Y17.6065
G01 X7.6251 Y17.5713
G01 X7.5075 Y17.5226
G01 X7.3961 Y17.4610
G01 X7.2923 Y17.3874
G01 X7.1974 Y17.3026
G01 X7.1126 Y17.2077
G01 X7.0390 Y17.1039
G01 X6.9774 Y16.9925
G01 X6.9314 Y16.8819
G01 X6.9264 Y16.8677
G01 X6.8935 Y16.7526
G01 X6.8721 Y16.6271
G01 X6.8650 Y16.5000
G01 X6.8721 Y16.3729
G01 X6.8935 Y16.2474
G01 X6.9287 Y16.1251
G01 X6.9774 Y16.0075
G01 X7.0351 Y15.9027
G01 X7.0432 Y15.8898
G01 X7.1126 Y15.7923
G01 X7.1974 Y15.6974
G01 X7.2923 Y15.6126
G01 X7.3898 Y15.5432
G01 X7.4027 Y15.5351
G01 X7.5075 Y15.4774
G01 X7.6181 Y15.4314
G01 X7.6323 Y15.4264
G01 X7.7401 Y15.3953
G01 X7.7549 Y15.3920
G01 X7.7945 Y15.3853
G01 X4.0000 Y15.3853
G01 X3.9289 Y15.3813
G01 X3.8661 Y15.3708
G01 X3.8513 Y15.3674
G01 X3.7974 Y15.3519
G01 X3.7831 Y15.3469
G01 X3.7244 Y15.3223
G01 X3.6620 Y15.2879
G01 X3.6039 Y15.2467
G01 X3.5508 Y15.1992
G01 X1.3008 Y12.9492
G01 X1.2533 Y12.8961
G01 X1.2163 Y12.8443
G01 X1.2083 Y12.8315
G01 X1.1777 Y12.7756
G01 X1.1531 Y12.7169
G01 X1.1481 Y12.7026
G01 X1.1307 Y12.6414
G01 X1.1198 Y12.5786
G01 X1.1181 Y12.5636
G01 X1.1148 Y12.5038
G01 X1.1150 Y6.4924
G00 Z2.0000
G00 X1.1998 Y6.4972
G01 F100.00
G01 Z-0.2000
G01 F100.00
G01 X1.2032 Y6.4384
G01 X1.2130 Y6.3803
G01 X1.2316 Y6.3156
G01 X1.2542 Y6.2613
G01 X1.2841 Y6.2073
G01 X1.3198 Y6.1569
G01 X1.3590 Y6.1130
G01 X3.4497 Y4.0221
G01 X3.4497 Y2.9250
G01 X3.3725 Y2.9249
G01 X3.3669 Y2.9243
G01 X3.3560 Y2.9213
G01 X3.3461 Y2.9158
G01 X3.3377 Y2.9083
G01 X3.3342 Y2.9039
G01 X3.3312 Y2.8991
G01 X3.3269 Y2.8886
G01 X3.3251 Y2.8775
G01 X3.3250 Y1.6250
G01 X3.3269 Y1.6114
G01 X3.3312 Y1.6009
G01 X3.3342 Y1.5961
G01 X3.3417 Y1.5877
G01 X3.3509 Y1.5812
G01 X3.3614 Y1.5769
G01 X3.3750 Y1.5750
G01 X4.6250 Y1.5750
G01 X4.6386 Y1.5769
G01 X4.6491 Y1.5812
G01 X4.6539 Y1.5842
G01 X4.6623 Y1.5917
G01 X4.6688 Y1.6009
G01 X4.6731 Y1.6114
G01 X4.6750 Y1.6250
G01 X4.6749 Y2.8775
G01 X4.6731 Y2.8886
G01 X4.6688 Y2.8991
G01 X4.6658 Y2.9039
G01 X4.6623 Y2.9083
G01 X4.6539 Y2.9158
G01 X4.6440 Y2.9213
G01 X4.6331 Y2.9243
G01 X4.6275 Y2.9249
G01 X4.5503 Y2.9250
G01 X4.5502 Y4.2514
G01 X4.5468 Y4.3116
G01 X4.5365 Y4.3724
G01 X4.5194 Y4.4317
G01 X4.4958 Y4.4887
G01 X4.4644 Y4.5451
G01 X4.4302 Y4.5931
G01 X4.3891 Y4.6391
G01 X2.3003 Y6.7279
G01 X2.3003 Y12.2721
G01 X4.2279 Y14.1997
G01 X8.5221 Y14.1997
G01 X8.6228 Y14.0990
G01 X8.6228 Y12.3338
G01 X8.5920 Y12.2678
G01 X8.5633 Y12.1828
G01 X8.5444 Y12.0951
G01 X8.5355 Y12.0086
G01 X8.5366 Y11.9132
G01 X8.5474 Y11.8269
G01 X8.5683 Y11.7397
G01 X8.6001 Y11.6527
G01 X8.6388 Y11.5749
G01 X8.6874 Y11.4994
G01 X8.7441 Y11.4299
G01 X8.8062 Y11.3690
G01 X8.8791 Y11.3119
G01 X8.9556 Y11.2650
G01 X9.0343 Y11.2281
G01 X9.1219 Y11.1983
G01 X9.2097 Y11.1793
G01 X9.2962 Y11.1705
G01 X9.3915 Y11.1715
G01 X9.4805 Y11.1829
G01 X9.5651 Y11.2033
G01 X9.6468 Y11.2328
G01 X9.7299 Y11.2737
G01 X9.8030 Y11.3207
G01 X11.0189 Y12.2040
G01 X11.0884 Y12.2608
G01 X11.1511 Y12.3249
G01 X11.2063 Y12.3957
G01 X11.2518 Y12.4698
G01 X11.2912 Y12.5535
G01 X11.3199 Y12.6386
G01 X11.3384 Y12.7236
G01 X11.3480 Y12.8156
G01 X11.3467 Y12.9082
G01 X11.3359 Y12.9944
G01 X11.3150 Y13.0817
G01 X11.2832 Y13.1686
G01 X11.2445 Y13.2465
G01 X11.1975 Y13.3197
G01 X11.1392 Y13.3915
G01 X11.0750 Y13.4543
G01 X11.0042 Y13.5094
G01 X10.9252 Y13.5576
G01 X10.8464 Y13.5944
G01 X10.7640 Y13.6222
G01 X10.6764 Y13.6415
G01 X10.5843 Y13.6511
G01 X10.4946 Y13.6501
G01 X10.4055 Y13.6390
G01 X10.3182 Y13.6181
G01 X10.2338 Y13.5875
G01 X10.1559 Y13.5490
G01 X10.0780 Y13.4990
G01 X9.7233 Y13.2414
G01 X9.7233 Y14.3283
G01 X9.7199 Y14.3885
G01 X9.7095 Y14.4494
G01 X9.6924 Y14.5087
G01 X9.6700 Y14.5631
G01 X9.6374 Y14.6220
G01 X9.6033 Y14.6700
G01 X9.5631 Y14.7150
G01 X9.1370 Y15.1410
G01 X9.0908 Y15.1819
G01 X9.0428 Y15.2159
G01 X8.9912 Y15.2445
G01 X8.9317 Y15.2694
G01 X8.8724 Y15.2865
G01 X8.8116 Y15.2968
G01 X8.7500 Y15.3003
G01 X4.0000 Y15.3003
G01 X3.9356 Y15.2964
G01 X3.8776 Y15.2865
G01 X3.8209 Y15.2702
G01 X3.7613 Y15.2458
G01 X3.7049 Y15.2144
G01 X3.6569 Y15.1802
G01 X3.6109 Y15.1391
G01 X1.3599 Y12.8881
G01 X1.3198 Y12.8431
G01 X1.2827 Y12.7903
G01 X1.2542 Y12.7387
G01 X1.2316 Y12.6844
G01 X1.2142 Y12.6252
G01 X1.2032 Y12.5616
G01 X1.1997 Y12.5000
G01 X1.1998 Y6.4972
G00 Z2.0000
G00 X4.1630 Y10.4424
G01 F100.00
G01 Z-0.2000
G01 F100.00
G01 X4.2242 Y10.3742
G01 X4.2982 Y10.3081
G01 X4.3792 Y10.2506
G01 X4.4593 Y10.2061
G01 X4.4729 Y10.1995
G01 X4.5577 Y10.1647
G01 X4.6457 Y10.1391
G01 X4.6605 Y10.1357
G01 X4.7434 Y10.1216
G01 X4.7736 Y10.1191
G01 X4.7533 Y10.0961
G01 X4.7121 Y10.0380
G01 X4.6777 Y9.9756
G01 X4.6531 Y9.9169
G01 X4.6481 Y9.9026
G01 X4.6326 Y9.8487
G01 X4.6292 Y9.8339
G01 X4.6187 Y9.7711
G01 X4.6148 Y9.7038
G01 X4.6148 Y7.2462
G01 X4.6187 Y7.1789
G01 X4.6307 Y7.1086
G01 X4.6504 Y7.0402
G01 X4.6777 Y6.9744
G01 X4.7083 Y6.9185
G01 X4.7163 Y6.9057
G01 X4.7533 Y6.8539
G01 X4.8008 Y6.8008
G01 X7.3647 Y4.2369
G01 X7.3647 Y2.6664
G01 X7.3526 Y2.6478
G01 X7.3153 Y2.5797
G01 X7.2826 Y2.5010
G01 X7.2591 Y2.4191
G01 X7.2448 Y2.3351
G01 X7.2400 Y2.2500
G01 X7.2448 Y2.1649
G01 X7.2591 Y2.0809
G01 X7.2826 Y1.9990
G01 X7.3153 Y1.9203
G01 X7.3565 Y1.8457
G01 X7.4058 Y1.7761
G01 X7.4626 Y1.7126
G01 X7.5262 Y1.6558
G01 X7.5957 Y1.6065
G01 X7.6702 Y1.5653
G01 X7.7419 Y1.5353
G01 X7.7562 Y1.5303
G01 X7.8236 Y1.5109
G01 X7.8383 Y1.5076
G01 X7.9149 Y1.4948
G01 X7.9924 Y1.4902
G01 X8.0076 Y1.4902
G01 X8.0851 Y1.4948
G01 X8.1691 Y1.5091
G01 X8.2510 Y1.5326
G01 X8.3298 Y1.5653
G01 X8.4043 Y1.6065
G01 X8.4678 Y1.6513
G01 X8.4796 Y1.6607
G01 X8.5374 Y1.7126
G01 X8.5893 Y1.7704
G01 X8.5987 Y1.7822
G01 X8.6393 Y1.8394
G01 X8.6474 Y1.8522
G01 X8.6847 Y1.9203
G01 X8.7174 Y1.9990
G01 X8.7409 Y2.0809
G01 X8.7552 Y2.1649
G01 X8.7600 Y2.2500
G01 X8.7559 Y2.3275
G01 X8.7542 Y2.3426
G01 X8.7409 Y2.4191
G01 X8.7174 Y2.5010
G01 X8.6878 Y2.5728
G01 X8.6813 Y2.5865
G01 X8.6474 Y2.6478
G01 X8.6353 Y2.6664
G01 X8.6352 Y4.5038
G01 X8.6313 Y4.5711
G01 X8.6208 Y4.6339
G01 X8.6174 Y4.6487
G01 X8.6019 Y4.7026
G01 X8.5969 Y4.7169
G01 X8.5723 Y4.7756
G01 X8.5379 Y4.8380
G01 X8.4967 Y4.8961
G01 X8.4518 Y4.9465
G01 X5.8853 Y7.5131
G01 X5.8853 Y9.4369
G01 X6.6009 Y10.1525
G01 X6.6351 Y10.1624
G01 X6.6494 Y10.1674
G01 X6.7271 Y10.1995
G01 X6.7407 Y10.2061
G01 X6.8208 Y10.2506
G01 X6.9018 Y10.3081
G01 X6.9703 Y10.3690
G01 X6.9810 Y10.3797
G01 X7.0419 Y10.4482
G01 X7.0994 Y10.5292
G01 X7.1474 Y10.6160
G01 X7.1826 Y10.7006
G01 X7.1876 Y10.7149
G01 X7.2128 Y10.8031
G01 X7.2284 Y10.8934
G01 X7.2301 Y10.9085
G01 X7.2348 Y10.9924
G01 X7.2348 Y11.0076
G01 X7.2294 Y11.0991
G01 X7.2128 Y11.1969
G01 X7.1853 Y11.2923
G01 X7.1474 Y11.3840
G01 X7.0994 Y11.4708
G01 X7.0419 Y11.5518
G01 X6.9758 Y11.6258
G01 X6.9018 Y11.6919
G01 X6.8208 Y11.7494
G01 X6.7340 Y11.7974
G01 X6.6423 Y11.8353
G01 X6.5543 Y11.8609
G01 X6.5395 Y11.8643
G01 X6.4491 Y11.8794
G01 X6.3500 Y11.8850
G01 X4.8500 Y11.8850
G01 X4.7585 Y11.8801
G01 X4.7434 Y11.8784
G01 X4.6531 Y11.8628
G01 X4.5649 Y11.8376
G01 X4.5506 Y11.8326
G01 X4.4660 Y11.7974
G01 X4.3792 Y11.7494
G01 X4.2982 Y11.6919
G01 X4.2242 Y11.6258
G01 X4.1581 Y11.5518
G01 X4.1006 Y11.4708
G01 X4.0526 Y11.3840
G01 X4.0174 Y11.2994
G01 X4.0124 Y11.2851
G01 X3.9872 Y11.1969
G01 X3.9716 Y11.1066
G01 X3.9699 Y11.0915
G01 X3.9652 Y11.0076
G01 X3.9652 Y10.9924
G01 X3.9706 Y10.9009
G01 X3.9857 Y10.8105
G01 X3.9891 Y10.7957
G01 X4.0147 Y10.7077
G01 X4.0526 Y10.6160
G01 X4.1006 Y10.5292
G01 X4.1535 Y10.4543
G01 X4.1630 Y10.4424
G00 Z2.0000
G00 X4.2263 Y10.4991
G01 F100.00
G01 Z-0.2000
G01 F100.00
G01 X4.2864 Y10.4324
G01 X4.3512 Y10.3745
G01 X4.4220 Y10.3242
G01 X4.5029 Y10.2792
G01 X4.5832 Y10.2459
G01 X4.6720 Y10.2201
G01 X4.7604 Y10.2050
G01 X4.8486 Y10.2000
G01 X4.9718 Y10.2000
G01 X4.8590 Y10.0870
G01 X4.8198 Y10.0431
G01 X4.7841 Y9.9927
G01 X4.7542 Y9.9387
G01 X4.7306 Y9.8817
G01 X4.7135 Y9.8224
G01 X4.7030 Y9.7588
G01 X4.6997 Y9.7000
G01 X4.6998 Y7.2486
G01 X4.7032 Y7.1884
G01 X4.7135 Y7.1276
G01 X4.7306 Y7.0683
G01 X4.7542 Y7.0113
G01 X4.7856 Y6.9549
G01 X4.8198 Y6.9069
G01 X4.8609 Y6.8609
G01 X7.4497 Y4.2721
G01 X7.4497 Y2.6393
G01 X7.4285 Y2.6091
G01 X7.3931 Y2.5454
G01 X7.3639 Y2.4756
G01 X7.3419 Y2.4002
G01 X7.3296 Y2.3284
G01 X7.3250 Y2.2500
G01 X7.3292 Y2.1744
G01 X7.3419 Y2.0998
G01 X7.3629 Y2.0271
G01 X7.3918 Y1.9571
G01 X7.4285 Y1.8909
G01 X7.4723 Y1.8291
G01 X7.5227 Y1.7727
G01 X7.5791 Y1.7223
G01 X7.6409 Y1.6785
G01 X7.7071 Y1.6418
G01 X7.7744 Y1.6139
G01 X7.8525 Y1.5914
G01 X7.9244 Y1.5792
G01 X8.0028 Y1.5751
G01 X8.0756 Y1.5792
G01 X8.1502 Y1.5919
G01 X8.2229 Y1.6129
G01 X8.2929 Y1.6418
G01 X8.3591 Y1.6785
G01 X8.4230 Y1.7241
G01 X8.4773 Y1.7727
G01 X8.5259 Y1.8270
G01 X8.5700 Y1.8885
G01 X8.6082 Y1.9571
G01 X8.6371 Y2.0271
G01 X8.6581 Y2.0998
G01 X8.6710 Y2.1772
G01 X8.6750 Y2.2500
G01 X8.6710 Y2.3228
G01 X8.6574 Y2.4029
G01 X8.6371 Y2.4729
G01 X8.6082 Y2.5429
G01 X8.5715 Y2.6091
G01 X8.5503 Y2.6393
G01 X8.5502 Y4.5014
G01 X8.5468 Y4.5616
G01 X8.5365 Y4.6224
G01 X8.5194 Y4.6817
G01 X8.4969 Y4.7362
G01 X8.4644 Y4.7951
G01 X8.4302 Y4.8431
G01 X8.3891 Y4.8891
G01 X5.8003 Y7.4779
G01 X5.8003 Y9.4721
G01 X6.5563 Y10.2281
G01 X6.6142 Y10.2449
G01 X6.6971 Y10.2792
G01 X6.7756 Y10.3226
G01 X6.8466 Y10.3728
G01 X6.9176 Y10.4364
G01 X6.9755 Y10.5012
G01 X7.0258 Y10.5720
G01 X7.0708 Y10.6529
G01 X7.1051 Y10.7358
G01 X7.1299 Y10.8220
G01 X7.1452 Y10.9132
G01 X7.1500 Y11.0000
G01 X7.1452 Y11.0868
G01 X7.1305 Y11.1753
G01 X7.1051 Y11.2642
G01 X7.0708 Y11.3471
G01 X7.0274 Y11.4256
G01 X6.9755 Y11.4988
G01 X6.9157 Y11.5657
G01 X6.8466 Y11.6272
G01 X6.7756 Y11.6774
G01 X6.6945 Y11.7219
G01 X6.6116 Y11.7560
G01 X6.5280 Y11.7799
G01 X6.4423 Y11.7946
G01 X6.3500 Y11.8000
G01 X4.8486 Y11.8000
G01 X4.7577 Y11.7946
G01 X4.6720 Y11.7799
G01 X4.5884 Y11.7560
G01 X4.5029 Y11.7208
G01 X4.4244 Y11.6774
G01 X4.3512 Y11.6255
G01 X4.2843 Y11.5657
G01 X4.2245 Y11.4988
G01 X4.1726 Y11.4256
G01 X4.1292 Y11.3471
G01 X4.0940 Y11.2616
G01 X4.0701 Y11.1780
G01 X4.0554 Y11.0923
G01 X4.0501 Y11.0028
G01 X4.0550 Y10.9104
G01 X4.0695 Y10.8247
G01 X4.0949 Y10.7358
G01 X4.1292 Y10.6529
G01 X4.1726 Y10.5744
G01 X4.2263 Y10.4991
G00 Z2.0000
G00 X2.6997 Y12.0000
G01 F100.00
G01 Z-0.2000
G01 F100.00
G01 X2.6997 Y7.2500
G01 X2.7032 Y7.1884
G01 X2.7130 Y7.1303
G01 X2.7306 Y7.0683
G01 X2.7542 Y7.0113
G01 X2.7841 Y6.9573
G01 X2.8198 Y6.9069
G01 X2.8609 Y6.8609
G01 X5.4497 Y4.2721
G01 X5.4497 Y2.6393
G01 X5.4285 Y2.6091
G01 X5.3931 Y2.5454
G01 X5.3639 Y2.4756
G01 X5.3419 Y2.4002
G01 X5.3296 Y2.3284
G01 X5.3250 Y2.2500
G01 X5.3292 Y2.1744
G01 X5.3419 Y2.0998
G01 X5.3620 Y2.0297
G01 X5.3931 Y1.9546
G01 X5.4285 Y1.8909
G01 X5.4741 Y1.8270
G01 X5.5227 Y1.7727
G01 X5.5791 Y1.7223
G01 X5.6409 Y1.6785
G01 X5.7071 Y1.6418
G01 X5.7771 Y1.6129
G01 X5.8498 Y1.5919
G01 X5.9244 Y1.5792
G01 X5.9972 Y1.5751
G01 X6.0784 Y1.5796
G01 X6.1502 Y1.5919
G01 X6.2229 Y1.6129
G01 X6.2954 Y1.6431
G01 X6.3591 Y1.6785
G01 X6.4186 Y1.7206
G01 X6.4773 Y1.7727
G01 X6.5277 Y1.8291
G01 X6.5730 Y1.8933
G01 X6.6082 Y1.9571
G01 X6.6361 Y2.0244
G01 X6.6581 Y2.0998
G01 X6.6708 Y2.1744
G01 X6.6750 Y2.2500
G01 X6.6710 Y2.3228
G01 X6.6574 Y2.4029
G01 X6.6371 Y2.4729
G01 X6.6082 Y2.5429
G01 X6.5715 Y2.6091
G01 X6.5503 Y2.6393
G01 X6.5503 Y4.5000
G01 X6.5468 Y4.5616
G01 X6.5365 Y4.6224
G01 X6.5194 Y4.6817
G01 X6.4945 Y4.7412
G01 X6.4659 Y4.7927
G01 X6.4319 Y4.8408
G01 X6.3901 Y4.8881
G01 X3.8003 Y7.4779
G01 X3.8003 Y11.7721
G01 X4.2279 Y12.1997
G01 X6.7815 Y12.1997
G01 X6.8030 Y12.1587
G01 X6.8533 Y12.0844
G01 X6.9116 Y12.0161
G01 X6.9751 Y11.9567
G01 X7.0516 Y11.8998
G01 X7.1268 Y11.8561
G01 X7.2063 Y11.8210
G01 X7.2973 Y11.7925
G01 X7.3827 Y11.7761
G01 X7.4722 Y11.7691
G01 X7.5647 Y11.7724
G01 X7.6507 Y11.7851
G01 X7.7375 Y11.8080
G01 X7.8211 Y11.8405
G01 X7.9006 Y11.8822
G01 X7.9750 Y11.9324
G01 X8.0452 Y11.9927
G01 X8.1063 Y12.0585
G01 X8.1581 Y12.1283
G01 X8.2019 Y12.2034
G01 X8.2395 Y12.2880
G01 X8.2662 Y12.3737
G01 X8.2833 Y12.4618
G01 X8.2903 Y12.5513
G01 X8.2873 Y12.6410
G01 X8.2742 Y12.7298
G01 X8.2513 Y12.8166
G01 X8.0968 Y13.2921
G01 X8.0631 Y13.3783
G01 X8.0227 Y13.4553
G01 X7.9740 Y13.5274
G01 X7.9141 Y13.5979
G01 X7.8464 Y13.6609
G01 X7.7765 Y13.7127
G01 X7.7014 Y13.7566
G01 X7.6168 Y13.7941
G01 X7.5284 Y13.8215
G01 X7.4431 Y13.8379
G01 X7.3536 Y13.8449
G01 X7.2611 Y13.8416
G01 X7.1751 Y13.8289
G01 X7.0883 Y13.8060
G01 X7.0021 Y13.7723
G01 X6.9251 Y13.7319
G01 X6.8530 Y13.6832
G01 X6.7805 Y13.6213
G01 X6.7212 Y13.5577
G01 X6.6693 Y13.4880
G01 X6.6225 Y13.4081
G01 X6.5873 Y13.3286
G01 X6.5781 Y13.3003
G01 X4.0000 Y13.3003
G01 X3.9384 Y13.2968
G01 X3.8776 Y13.2865
G01 X3.8183 Y13.2694
G01 X3.7613 Y13.2458
G01 X3.7072 Y13.2159
G01 X3.6548 Y13.1784
G01 X3.6109 Y13.1391
G01 X2.8590 Y12.3870
G01 X2.8198 Y12.3431
G01 X2.7841 Y12.2927
G01 X2.7542 Y12.2387
G01 X2.7316 Y12.1844
G01 X2.7130 Y12.1197
G01 X2.7032 Y12.0616
G01 X2.6997 Y12.0000
G00 Z2.0000
G00 X2.6147 Y12.0000
G01 F100.00
G01 Z-0.2000
G01 F100.00
G01 X2.6147 Y7.2500
G01 X2.6187 Y7.1789
G01 X2.6292 Y7.1161
G01 X2.6326 Y7.1013
G01 X2.6504 Y7.0402
G01 X2.6777 Y6.9744
G01 X2.7121 Y6.9120
G01 X2.7533 Y6.8539
G01 X2.7982 Y6.8035
G01 X5.3647 Y4.2369
G01 X5.3647 Y2.6664
G01 X5.3526 Y2.6478
G01 X5.3153 Y2.5797
G01 X5.2826 Y2.5010
G01 X5.2591 Y2.4191
G01 X5.2448 Y2.3351
G01 X5.2400 Y2.2500
G01 X5.2448 Y2.1649
G01 X5.2591 Y2.0809
G01 X5.2826 Y1.9990
G01 X5.3153 Y1.9203
G01 X5.3565 Y1.8457
G01 X5.4058 Y1.7761
G01 X5.4574 Y1.7181
G01 X5.4681 Y1.7074
G01 X5.5204 Y1.6607
G01 X5.5322 Y1.6513
G01 X5.5957 Y1.6065
G01 X5.6702 Y1.5653
G01 X5.7490 Y1.5326
G01 X5.8309 Y1.5091
G01 X5.9149 Y1.4948
G01 X5.9924 Y1.4902
G01 X6.0076 Y1.4902
G01 X6.0775 Y1.4941
G01 X6.0926 Y1.4958
G01 X6.1691 Y1.5091
G01 X6.2510 Y1.5326
G01 X6.3228 Y1.5622
G01 X6.3365 Y1.5687
G01 X6.4043 Y1.6065
G01 X6.4678 Y1.6513
G01 X6.4796 Y1.6607
G01 X6.5374 Y1.7126
G01 X6.5942 Y1.7761
G01 X6.6393 Y1.8394
G01 X6.6474 Y1.8522
G01 X6.6847 Y1.9203
G01 X6.7147 Y1.9919
G01 X6.7197 Y2.0062
G01 X6.7409 Y2.0809
G01 X6.7552 Y2.1649
G01 X6.7600 Y2.2500
G01 X6.7559 Y2.3275
G01 X6.7542 Y2.3426
G01 X6.7409 Y2.4191
G01 X6.7174 Y2.5010
G01 X6.6878 Y2.5728
G01 X6.6813 Y2.5865
G01 X6.6474 Y2.6478
G01 X6.6353 Y2.6664
G01 X6.6353 Y4.5000
G01 X6.6313 Y4.5711
G01 X6.6193 Y4.6414
G01 X6.5996 Y4.7098
G01 X6.5754 Y4.7687
G01 X6.5689 Y4.7824
G01 X6.5379 Y4.8380
G01 X6.5012 Y4.8900
G01 X6.4918 Y4.9019
G01 X6.4518 Y4.9465
G01 X3.8853 Y7.5131
G01 X3.8853 Y11.7369
G01 X4.2631 Y12.1147
G01 X6.7303 Y12.1147
G01 X6.7857 Y12.0329
G01 X6.8451 Y11.9630
G01 X6.8556 Y11.9521
G01 X6.9227 Y11.8896
G01 X7.0024 Y11.8303
G01 X7.0815 Y11.7840
G01 X7.0950 Y11.7771
G01 X7.1790 Y11.7403
G01 X7.2665 Y11.7128
G01 X7.2812 Y11.7091
G01 X7.3713 Y11.6919
G01 X7.4703 Y11.6841
G01 X7.5695 Y11.6874
G01 X7.6603 Y11.7006
G01 X7.6751 Y11.7036
G01 X7.7565 Y11.7251
G01 X7.7709 Y11.7297
G01 X7.8493 Y11.7602
G01 X7.8631 Y11.7665
G01 X7.9442 Y11.8092
G01 X8.0203 Y11.8604
G01 X8.0324 Y11.8696
G01 X8.1020 Y11.9293
G01 X8.1648 Y11.9962
G01 X8.1745 Y12.0078
G01 X8.2290 Y12.0815
G01 X8.2790 Y12.1673
G01 X8.3190 Y12.2581
G01 X8.3487 Y12.3529
G01 X8.3675 Y12.4504
G01 X8.3753 Y12.5494
G01 X8.3719 Y12.6486
G01 X8.3575 Y12.7468
G01 X8.3322 Y12.8428
G01 X8.1764 Y13.3219
G01 X8.1417 Y13.4109
G01 X8.0994 Y13.4923
G01 X8.0916 Y13.5053
G01 X8.0400 Y13.5811
G01 X7.9806 Y13.6510
G01 X7.9702 Y13.6619
G01 X7.9030 Y13.7244
G01 X7.8296 Y13.7793
G01 X7.8169 Y13.7877
G01 X7.7376 Y13.8336
G01 X7.6537 Y13.8708
G01 X7.6396 Y13.8761
G01 X7.5519 Y13.9033
G01 X7.4619 Y13.9209
G01 X7.4469 Y13.9229
G01 X7.3555 Y13.9299
G01 X7.2638 Y13.9270
G01 X7.2487 Y13.9257
G01 X7.1580 Y13.9122
G01 X7.0693 Y13.8889
G01 X7.0549 Y13.8843
G01 X6.9695 Y13.8509
G01 X6.8881 Y13.8085
G01 X6.8751 Y13.8008
G01 X6.7993 Y13.7492
G01 X6.7294 Y13.6898
G01 X6.7184 Y13.6793
G01 X6.6560 Y13.6122
G01 X6.6011 Y13.5387
G01 X6.5927 Y13.5261
G01 X6.5467 Y13.4467
G01 X6.5194 Y13.3853
G01 X4.0000 Y13.3853
G01 X3.9289 Y13.3813
G01 X3.8586 Y13.3693
G01 X3.7902 Y13.3496
G01 X3.7244 Y13.3223
G01 X3.6620 Y13.2879
G01 X3.6100 Y13.2512
G01 X3.5981 Y13.2418
G01 X3.5508 Y13.1992
G01 X2.7956 Y12.4437
G01 X2.7533 Y12.3961
G01 X2.7121 Y12.3380
G01 X2.6777 Y12.2756
G01 X2.6531 Y12.2169
G01 X2.6481 Y12.2026
G01 X2.6326 Y12.1487
G01 X2.6292 Y12.1339
G01 X2.6187 Y12.0711
G01 X2.6147 Y12.0000
G00 Z2.0000
G00 X6.6481 Y9.7044
G01 F100.00
G01 Z-0.2000
G01 F100.00
G01 X6.1846 Y8.2778
G01 X6.1592 Y8.1818
G01 X6.1457 Y8.0911
G01 X6.1443 Y8.0760
G01 X6.1414 Y7.9843
G01 X6.1492 Y7.8853
G01 X6.1664 Y7.7952
G01 X6.1701 Y7.7806
G01 X6.1977 Y7.6931
G01 X6.2345 Y7.6091
G01 X6.2413 Y7.5956
G01 X6.2877 Y7.5164
G01 X6.3469 Y7.4368
G01 X6.4147 Y7.3642
G01 X6.4844 Y7.3045
G01 X6.4964 Y7.2953
G01 X6.5725 Y7.2441
G01 X6.6536 Y7.2014
G01 X6.6674 Y7.1951
G01 X6.7530 Y7.1621
G01 X6.8416 Y7.1385
G01 X6.8565 Y7.1355
G01 X6.9397 Y7.1233
G01 X6.9548 Y7.1219
G01 X7.0465 Y7.1190
G01 X7.1454 Y7.1268
G01 X7.2429 Y7.1456
G01 X7.3377 Y7.1753
G01 X7.4285 Y7.2153
G01 X7.5143 Y7.2653
G01 X7.5940 Y7.3245
G01 X7.6612 Y7.3870
G01 X7.6716 Y7.3979
G01 X7.6864 Y7.4152
G01 X9.3647 Y5.7369
G01 X9.3647 Y2.6664
G01 X9.3526 Y2.6478
G01 X9.3187 Y2.5865
G01 X9.3122 Y2.5728
G01 X9.2826 Y2.5010
G01 X9.2609 Y2.4264
G01 X9.2576 Y2.4117
G01 X9.2448 Y2.3351
G01 X9.2400 Y2.2500
G01 X9.2448 Y2.1649
G01 X9.2591 Y2.0809
G01 X9.2826 Y1.9990
G01 X9.3153 Y1.9203
G01 X9.3565 Y1.8457
G01 X9.4058 Y1.7761
G01 X9.4626 Y1.7126
G01 X9.5262 Y1.6558
G01 X9.5957 Y1.6065
G01 X9.6702 Y1.5653
G01 X9.7490 Y1.5326
G01 X9.8309 Y1.5091
G01 X9.9149 Y1.4948
G01 X10.0000 Y1.4900
G01 X10.0851 Y1.4948
G01 X10.1691 Y1.5091
G01 X10.2510 Y1.5326
G01 X10.3298 Y1.5653
G01 X10.3978 Y1.6026
G01 X10.4106 Y1.6107
G01 X10.4738 Y1.6558
G01 X10.5319 Y1.7074
G01 X10.5426 Y1.7181
G01 X10.5942 Y1.7761
G01 X10.6435 Y1.8457
G01 X10.6847 Y1.9203
G01 X10.7147 Y1.9919
G01 X10.7197 Y2.0062
G01 X10.7409 Y2.0809
G01 X10.7542 Y2.1574
G01 X10.7559 Y2.1725
G01 X10.7598 Y2.2424
G01 X10.7598 Y2.2576
G01 X10.7559 Y2.3275
G01 X10.7542 Y2.3426
G01 X10.7409 Y2.4191
G01 X10.7197 Y2.4938
G01 X10.7147 Y2.5081
G01 X10.6847 Y2.5797
G01 X10.6474 Y2.6478
G01 X10.6353 Y2.6664
G01 X10.6352 Y6.0038
G01 X10.6313 Y6.0711
G01 X10.6193 Y6.1414
G01 X10.5996 Y6.2098
G01 X10.5723 Y6.2756
G01 X10.5417 Y6.3315
G01 X10.5337 Y6.3443
G01 X10.4967 Y6.3961
G01 X10.4492 Y6.4492
G01 X8.1872 Y8.7111
G01 X8.3322 Y9.1572
G01 X8.3558 Y9.2458
G01 X8.3588 Y9.2606
G01 X8.3719 Y9.3514
G01 X8.3752 Y9.4431
G01 X8.3749 Y9.4582
G01 X8.3675 Y9.5496
G01 X8.3487 Y9.6471
G01 X8.3190 Y9.7419
G01 X8.2822 Y9.8259
G01 X8.2754 Y9.8394
G01 X8.2290 Y9.9185
G01 X8.1745 Y9.9922
G01 X8.1648 Y10.0038
G01 X8.1073 Y10.0653
G01 X8.0964 Y10.0758
G01 X8.0265 Y10.1352
G01 X7.9506 Y10.1867
G01 X7.9376 Y10.1945
G01 X7.8631 Y10.2335
G01 X7.8493 Y10.2398
G01 X7.7637 Y10.2728
G01 X7.6751 Y10.2964
G01 X7.6603 Y10.2994
G01 X7.5695 Y10.3126
G01 X7.4703 Y10.3159
G01 X7.3713 Y10.3081
G01 X7.2738 Y10.2893
G01 X7.1790 Y10.2597
G01 X7.0882 Y10.2196
G01 X7.0024 Y10.1697
G01 X6.9287 Y10.1151
G01 X6.9170 Y10.1054
G01 X6.8502 Y10.0426
G01 X6.7905 Y9.9730
G01 X6.7813 Y9.9610
G01 X6.7341 Y9.8913
G01 X6.7264 Y9.8783
G01 X6.6840 Y9.7969
G01 X6.6481 Y9.7044
G00 Z2.0000
G00 X6.7289 Y9.6781
G01 F100.00
G01 Z-0.2000
G01 F100.00
G01 X6.2654 Y8.2515
G01 X6.2425 Y8.1647
G01 X6.2293 Y8.0731
G01 X6.2264 Y7.9862
G01 X6.2335 Y7.8967
G01 X6.2512 Y7.8059
G01 X6.2773 Y7.7229
G01 X6.3123 Y7.6433
G01 X6.3586 Y7.5632
G01 X6.4122 Y7.4912
G01 X6.4735 Y7.4257
G01 X6.5440 Y7.3657
G01 X6.6161 Y7.3171
G01 X6.6931 Y7.2767
G01 X6.7766 Y7.2439
G01 X6.8661 Y7.2201
G01 X6.9549 Y7.2070
G01 X7.0446 Y7.2040
G01 X7.1368 Y7.2115
G01 X7.2249 Y7.2288
G01 X7.3078 Y7.2548
G01 X7.3874 Y7.2898
G01 X7.4675 Y7.3362
G01 X7.5395 Y7.3898
G01 X7.6051 Y7.4511
G01 X7.6616 Y7.5171
G01 X7.6792 Y7.5426
G01 X9.4497 Y5.7721
G01 X9.4497 Y2.6393
G01 X9.4285 Y2.6091
G01 X9.3918 Y2.5429
G01 X9.3629 Y2.4729
G01 X9.3419 Y2.4002
G01 X9.3292 Y2.3256
G01 X9.3250 Y2.2500
G01 X9.3292 Y2.1744
G01 X9.3419 Y2.0998
G01 X9.3629 Y2.0271
G01 X9.3918 Y1.9571
G01 X9.4285 Y1.8909
G01 X9.4723 Y1.8291
G01 X9.5227 Y1.7727
G01 X9.5791 Y1.7223
G01 X9.6409 Y1.6785
G01 X9.7071 Y1.6418
G01 X9.7771 Y1.6129
G01 X9.8498 Y1.5919
G01 X9.9244 Y1.5792
G01 X10.0000 Y1.5750
G01 X10.0756 Y1.5792
G01 X10.1502 Y1.5919
G01 X10.2229 Y1.6129
G01 X10.2903 Y1.6407
G01 X10.3591 Y1.6785
G01 X10.4230 Y1.7241
G01 X10.4773 Y1.7727
G01 X10.5259 Y1.8270
G01 X10.5715 Y1.8909
G01 X10.6082 Y1.9571
G01 X10.6380 Y2.0297
G01 X10.6581 Y2.0998
G01 X10.6704 Y2.1716
G01 X10.6749 Y2.2472
G01 X10.6704 Y2.3284
G01 X10.6581 Y2.4002
G01 X10.6380 Y2.4703
G01 X10.6069 Y2.5454
G01 X10.5715 Y2.6091
G01 X10.5503 Y2.6393
G01 X10.5502 Y6.0014
G01 X10.5468 Y6.0616
G01 X10.5365 Y6.1224
G01 X10.5194 Y6.1817
G01 X10.4969 Y6.2362
G01 X10.4644 Y6.2951
G01 X10.4302 Y6.3431
G01 X10.3891 Y6.3891
G01 X8.0903 Y8.6879
G01 X8.2513 Y9.1834
G01 X8.2736 Y9.2675
G01 X8.2873 Y9.3590
G01 X8.2903 Y9.4487
G01 X8.2833 Y9.5382
G01 X8.2662 Y9.6263
G01 X8.2395 Y9.7120
G01 X8.2045 Y9.7916
G01 X8.1565 Y9.8740
G01 X8.1045 Y9.9437
G01 X8.0432 Y10.0093
G01 X7.9750 Y10.0676
G01 X7.9006 Y10.1178
G01 X7.8211 Y10.1595
G01 X7.7348 Y10.1928
G01 X7.6507 Y10.2149
G01 X7.5647 Y10.2276
G01 X7.4750 Y10.2309
G01 X7.3827 Y10.2239
G01 X7.2946 Y10.2069
G01 X7.2089 Y10.1801
G01 X7.1268 Y10.1439
G01 X7.0492 Y10.0987
G01 X6.9751 Y10.0433
G01 X6.9116 Y9.9839
G01 X6.8551 Y9.9178
G01 X6.8045 Y9.8436
G01 X6.7614 Y9.7618
G01 X6.7289 Y9.6781
G00 Z2.0000
G00 X8.8145 Y9.3139
G01 F100.00
G01 Z-0.2000
G01 F100.00
G01 X9.6310 Y8.7206
G01 X11.3647 Y6.9869
G01 X11.3647 Y2.6664
G01 X11.3526 Y2.6478
G01 X11.3187 Y2.5865
G01 X11.3122 Y2.5728
G01 X11.2826 Y2.5010
G01 X11.2609 Y2.4264
G01 X11.2576 Y2.4117
G01 X11.2448 Y2.3351
G01 X11.2400 Y2.2500
G01 X11.2448 Y2.1649
G01 X11.2576 Y2.0883
G01 X11.2609 Y2.0736
G01 X11.2826 Y1.9990
G01 X11.3153 Y1.9203
G01 X11.3565 Y1.8457
G01 X11.4058 Y1.7761
G01 X11.4626 Y1.7126
G01 X11.5262 Y1.6558
G01 X11.5957 Y1.6065
G01 X11.6702 Y1.5653
G01 X11.7490 Y1.5326
G01 X11.8309 Y1.5091
G01 X11.9149 Y1.4948
G01 X12.0000 Y1.4900
G01 X12.0851 Y1.4948
G01 X12.1691 Y1.5091
G01 X12.2510 Y1.5326
G01 X12.3298 Y1.5653
G01 X12.3978 Y1.6026
G01 X12.4106 Y1.6107
G01 X12.4738 Y1.6558
G01 X12.5319 Y1.7074
G01 X12.5426 Y1.7181
G01 X12.5942 Y1.7761
G01 X12.6435 Y1.8457
G01 X12.6847 Y1.9203
G01 X12.7147 Y1.9919
G01 X12.7197 Y2.0062
G01 X12.7409 Y2.0809
G01 X12.7542 Y2.1574
G01 X12.7559 Y2.1725
G01 X12.7598 Y2.2424
G01 X12.7598 Y2.2576
G01 X12.7559 Y2.3275
G01 X12.7542 Y2.3426
G01 X12.7409 Y2.4191
G01 X12.7197 Y2.4938
G01 X12.7147 Y2.5081
G01 X12.6847 Y2.5797
G01 X12.6474 Y2.6478
G01 X12.6353 Y2.6664
G01 X12.6353 Y7.2500
G01 X12.6313 Y7.3211
G01 X12.6193 Y7.3914
G01 X12.5996 Y7.4598
G01 X12.5723 Y7.5256
G01 X12.5417 Y7.5815
G01 X12.5337 Y7.5943
G01 X12.4967 Y7.6461
G01 X12.4518 Y7.6965
G01 X11.3578 Y8.7905
G01 X11.3653 Y8.8075
G01 X11.3964 Y8.8938
G01 X11.4180 Y8.9830
G01 X11.4207 Y8.9979
G01 X11.4318 Y9.0889
G01 X11.4330 Y9.1806
G01 X11.4323 Y9.1958
G01 X11.4229 Y9.2870
G01 X11.4019 Y9.3840
G01 X11.3728 Y9.4710
G01 X11.3671 Y9.4850
G01 X11.3281 Y9.5680
G01 X11.2803 Y9.6463
G01 X11.2717 Y9.6588
G01 X11.2152 Y9.7310
G01 X11.1457 Y9.8020
G01 X11.0688 Y9.8648
G01 X9.8553 Y10.7464
G01 X9.7718 Y10.8002
G01 X9.6897 Y10.8411
G01 X9.6758 Y10.8471
G01 X9.5967 Y10.8757
G01 X9.5822 Y10.8801
G01 X9.4930 Y10.9013
G01 X9.3944 Y10.9135
G01 X9.2952 Y10.9146
G01 X9.2039 Y10.9056
G01 X9.1889 Y10.9032
G01 X9.1067 Y10.8854
G01 X9.0921 Y10.8814
G01 X9.0053 Y10.8519
G01 X8.9153 Y10.8098
G01 X8.8307 Y10.7579
G01 X8.7582 Y10.7017
G01 X8.7468 Y10.6918
G01 X8.6866 Y10.6329
G01 X8.6764 Y10.6218
G01 X8.6186 Y10.5506
G01 X8.5648 Y10.4671
G01 X8.5208 Y10.3781
G01 X8.4893 Y10.2920
G01 X8.4849 Y10.2775
G01 X8.4637 Y10.1882
G01 X8.4515 Y10.0897
G01 X8.4503 Y9.9980
G01 X8.4509 Y9.9829
G01 X8.4594 Y9.8992
G01 X8.4618 Y9.8842
G01 X8.4814 Y9.7946
G01 X8.5131 Y9.7005
G01 X8.5552 Y9.6106
G01 X8.6030 Y9.5323
G01 X8.6116 Y9.5198
G01 X8.6633 Y9.4535
G01 X8.6733 Y9.4421
G01 X8.7375 Y9.3766
G01 X8.8145 Y9.3139
G00 Z2.0000
G00 X8.8644 Y9.3826
G01 F100.00
G01 Z-0.2000
G01 F100.00
G01 X9.6864 Y8.7855
G01 X11.4497 Y7.0221
G01 X11.4497 Y2.6393
G01 X11.4285 Y2.6091
G01 X11.3918 Y2.5429
G01 X11.3629 Y2.4729
G01 X11.3419 Y2.4002
G01 X11.3292 Y2.3256
G01 X11.3251 Y2.2528
G01 X11.3296 Y2.1716
G01 X11.3419 Y2.0998
G01 X11.3629 Y2.0271
G01 X11.3918 Y1.9571
G01 X11.4285 Y1.8909
G01 X11.4723 Y1.8291
G01 X11.5227 Y1.7727
G01 X11.5791 Y1.7223
G01 X11.6433 Y1.6770
G01 X11.7071 Y1.6418
G01 X11.7771 Y1.6129
G01 X11.8498 Y1.5919
G01 X11.9272 Y1.5790
G01 X12.0028 Y1.5751
G01 X12.0756 Y1.5792
G01 X12.1475 Y1.5914
G01 X12.2229 Y1.6129
G01 X12.2903 Y1.6407
G01 X12.3591 Y1.6785
G01 X12.4230 Y1.7241
G01 X12.4773 Y1.7727
G01 X12.5259 Y1.8270
G01 X12.5715 Y1.8909
G01 X12.6082 Y1.9571
G01 X12.6380 Y2.0297
G01 X12.6581 Y2.0998
G01 X12.6704 Y2.1716
G01 X12.6749 Y2.2472
G01 X12.6704 Y2.3284
G01 X12.6581 Y2.4002
G01 X12.6380 Y2.4703
G01 X12.6069 Y2.5454
G01 X12.5715 Y2.6091
G01 X12.5503 Y2.6393
G01 X12.5503 Y7.2500
G01 X12.5468 Y7.3116
G01 X12.5365 Y7.3724
G01 X12.5194 Y7.4317
G01 X12.4969 Y7.4862
G01 X12.4644 Y7.5451
G01 X12.4302 Y7.5931
G01 X12.3901 Y7.6381
G01 X11.2546 Y8.7736
G01 X11.2844 Y8.8339
G01 X11.3141 Y8.9156
G01 X11.3359 Y9.0056
G01 X11.3471 Y9.0974
G01 X11.3480 Y9.1844
G01 X11.3393 Y9.2709
G01 X11.3199 Y9.3614
G01 X11.2901 Y9.4490
G01 X11.2532 Y9.5278
G01 X11.2078 Y9.6019
G01 X11.1511 Y9.6751
G01 X11.0884 Y9.7392
G01 X11.0189 Y9.7960
G01 X9.8053 Y10.6777
G01 X9.7274 Y10.7276
G01 X9.6494 Y10.7661
G01 X9.5651 Y10.7967
G01 X9.4778 Y10.8177
G01 X9.3915 Y10.8285
G01 X9.2962 Y10.8295
G01 X9.2097 Y10.8207
G01 X9.1219 Y10.8017
G01 X9.0369 Y10.7730
G01 X8.9581 Y10.7362
G01 X8.8768 Y10.6864
G01 X8.8083 Y10.6329
G01 X8.7441 Y10.5701
G01 X8.6874 Y10.5006
G01 X8.6402 Y10.4275
G01 X8.5979 Y10.3421
G01 X8.5683 Y10.2603
G01 X8.5474 Y10.1731
G01 X8.5363 Y10.0840
G01 X8.5353 Y9.9971
G01 X8.5449 Y9.9022
G01 X8.5633 Y9.8172
G01 X8.5920 Y9.7322
G01 X8.6301 Y9.6509
G01 X8.6754 Y9.5767
G01 X8.7340 Y9.5015
G01 X8.7949 Y9.4394
G01 X8.8644 Y9.3826
G00 Z2.0000
G00 X7.1809 Y15.8432
G01 F100.00
G01 Z-0.2000
G01 F100.00
G01 X7.2575 Y15.7575
G01 X7.3453 Y15.6791
G01 X7.4414 Y15.6109
G01 X7.5419 Y15.5553
G01 X7.6559 Y15.5081
G01 X7.7664 Y15.4763
G01 X7.8824 Y15.4566
G01 X8.0000 Y15.4500
G01 X8.1148 Y15.4564
G01 X8.2364 Y15.4770
G01 X8.3468 Y15.5089
G01 X8.4556 Y15.5540
G01 X8.5586 Y15.6109
G01 X8.6547 Y15.6791
G01 X8.7425 Y15.7575
G01 X8.8209 Y15.8453
G01 X8.8891 Y15.9414
G01 X8.9447 Y16.0419
G01 X8.9919 Y16.1559
G01 X9.0237 Y16.2664
G01 X9.0434 Y16.3824
G01 X9.0500 Y16.5000
G01 X9.0434 Y16.6176
G01 X9.0237 Y16.7336
G01 X8.9919 Y16.8441
G01 X8.9447 Y16.9581
G01 X8.8891 Y17.0586
G01 X8.8209 Y17.1547
G01 X8.7425 Y17.2425
G01 X8.6547 Y17.3209
G01 X8.5586 Y17.3891
G01 X8.4581 Y17.4447
G01 X8.3441 Y17.4919
G01 X8.2336 Y17.5237
G01 X8.1176 Y17.5434
G01 X8.0000 Y17.5500
G01 X7.8852 Y17.5436
G01 X7.7636 Y17.5230
G01 X7.6532 Y17.4911
G01 X7.5444 Y17.4460
G01 X7.4414 Y17.3891
G01 X7.3453 Y17.3209
G01 X7.2575 Y17.2425
G01 X7.1791 Y17.1547
G01 X7.1109 Y17.0586
G01 X7.0553 Y16.9581
G01 X7.0081 Y16.8441
G01 X6.9763 Y16.7336
G01 X6.9566 Y16.6176
G01 X6.9500 Y16.5000
G01 X6.9566 Y16.3824
G01 X6.9763 Y16.2664
G01 X7.0081 Y16.1559
G01 X7.0540 Y16.0444
G01 X7.1095 Y15.9438
G01 X7.1809 Y15.8432
G00 Z2.0000
M05
G00 Z2.0000
G00 Z20.00
G00 X0.0 Y0.0

M02